(G-CODE GENERATED BY FLATCAM v8.994 - www.flatcam.org - Version Date: 2020/11/7)

(Name: placaCub-B_Cu.gbr_0.9000_iso_cnc)
(Type: G-code from Geometry)
(Units: MM)

(Created on Thursday, 07 April 2022 at 10:06)

(This preprocessor is the default preprocessor used by FlatCAM.)
(It is made to work with MACH3 compatible motion controllers.)

(TOOL DIAMETER: 0.9 mm)
(Feedrate_XY: 240.0 mm/min)
(Feedrate_Z: 120.0 mm/min)
(Feedrate rapids 1500.0 mm/min)

(Z_Cut: -0.25 mm)
(Z_Move: 5.0 mm)
(Z Start: None mm)
(Z End: 45.0 mm)
(X,Y End: None mm)
(Steps per circle: 64)
(Preprocessor Geometry: default)

(X range:    1.1838 ...  227.4900  mm)
(Y range:    1.5669 ...  171.0731  mm)

(Spindle Speed: 24000.0 RPM)

G01 F240.00

M5
G00 Z15.0000
G00
G00 Z15.0000
M3
G01 F240.00
G00 X10.623 Y162.184
G01 F120.00
G01 Z-0.2500
G01 F240.00
G01 X13.433 Y164.993
G01 X13.466 Y165.024
G01 X13.483 Y165.039
G01 X13.500 Y165.052
G01 X13.528 Y165.073
G01 X13.546 Y165.085
G01 X13.555 Y165.091
G01 X13.604 Y165.120
G01 X13.623 Y165.131
G01 X13.633 Y165.136
G01 X13.664 Y165.150
G01 X13.684 Y165.159
G01 X13.705 Y165.167
G01 X13.737 Y165.179
G01 X13.758 Y165.186
G01 X13.769 Y165.189
G01 X13.813 Y165.200
G01 X13.834 Y165.205
G01 X13.856 Y165.209
G01 X13.890 Y165.214
G01 X13.901 Y165.215
G01 X13.923 Y165.217
G01 X13.968 Y165.220
G01 X13.991
G01 X17.920
G01 X17.988 Y165.296
G01 X18.004 Y165.312
G01 X18.012 Y165.319
G01 X18.070 Y165.372
G01 X18.087 Y165.386
G01 X18.104 Y165.400
G01 X18.168 Y165.447
G01 X18.186 Y165.459
G01 X18.204 Y165.471
G01 X18.272 Y165.512
G01 X18.291 Y165.522
G01 X18.311 Y165.532
G01 X18.382 Y165.566
G01 X18.402 Y165.575
G01 X18.422 Y165.583
G01 X18.496 Y165.609
G01 X18.517 Y165.616
G01 X18.538 Y165.622
G01 X18.615 Y165.641
G01 X18.636 Y165.646
G01 X18.658 Y165.650
G01 X18.747 Y165.663
G01 X18.769 Y165.665
G01 X18.780 Y165.666
G01 X18.858 Y165.670
G01 X18.880
G01 X18.902
G01 X18.981 Y165.666
G01 X19.003 Y165.664
G01 X19.024 Y165.661
G01 X19.102 Y165.650
G01 X19.124 Y165.646
G01 X19.145 Y165.641
G01 X19.222 Y165.622
G01 X19.243 Y165.616
G01 X19.264 Y165.609
G01 X19.338 Y165.583
G01 X19.358 Y165.575
G01 X19.379 Y165.566
G01 X19.459 Y165.528
G01 X19.479 Y165.517
G01 X19.489 Y165.512
G01 X19.556 Y165.471
G01 X19.575 Y165.459
G01 X19.593 Y165.447
G01 X19.656 Y165.400
G01 X19.673 Y165.386
G01 X19.690 Y165.372
G01 X19.756 Y165.312
G01 X19.764 Y165.304
G01 X19.779 Y165.288
G01 X19.832 Y165.230
G01 X19.846 Y165.213
G01 X19.853 Y165.204
G01 X19.907 Y165.133
G01 X19.919 Y165.115
G01 X19.931 Y165.096
G01 X19.977 Y165.019
G01 X19.982 Y165.009
G01 X19.992 Y164.990
G01 X20.026 Y164.919
G01 X20.035 Y164.898
G01 X20.043 Y164.878
G01 X20.073 Y164.793
G01 X20.079 Y164.772
G01 X20.082 Y164.762
G01 X20.101 Y164.685
G01 X20.106 Y164.664
G01 X20.110 Y164.642
G01 X20.121 Y164.564
G01 X20.124 Y164.543
G01 X20.125 Y164.532
G01 X20.130 Y164.431
G01 Y164.409
G01 Y164.398
G01 X20.126 Y164.320
G01 X20.124 Y164.298
G01 X20.121 Y164.276
G01 X20.110 Y164.198
G01 X20.106 Y164.176
G01 X20.101 Y164.155
G01 X20.082 Y164.078
G01 X20.076 Y164.057
G01 X20.069 Y164.036
G01 X20.043 Y163.962
G01 X20.035 Y163.942
G01 X20.026 Y163.921
G01 X19.992 Y163.851
G01 X19.982 Y163.831
G01 X19.972 Y163.812
G01 X19.931 Y163.744
G01 X19.919 Y163.726
G01 X19.907 Y163.707
G01 X19.860 Y163.644
G01 X19.846 Y163.627
G01 X19.832 Y163.610
G01 X19.779 Y163.552
G01 X19.764 Y163.536
G01 X19.748 Y163.521
G01 X19.690 Y163.468
G01 X19.673 Y163.454
G01 X19.656 Y163.440
G01 X19.593 Y163.393
G01 X19.575 Y163.381
G01 X19.556 Y163.369
G01 X19.489 Y163.329
G01 X19.479 Y163.323
G01 X19.459 Y163.313
G01 X19.379 Y163.274
G01 X19.358 Y163.265
G01 X19.348 Y163.261
G01 X19.253 Y163.227
G01 X19.232 Y163.221
G01 X19.222 Y163.218
G01 X19.135 Y163.196
G01 X19.124 Y163.194
G01 X19.102 Y163.190
G01 X19.024 Y163.179
G01 X19.014 Y163.177
G01 X18.992 Y163.175
G01 X18.902 Y163.171
G01 X18.880 Y163.170
G01 X18.858 Y163.171
G01 X18.780 Y163.174
G01 X18.758 Y163.176
G01 X18.736 Y163.179
G01 X18.658 Y163.190
G01 X18.636 Y163.194
G01 X18.615 Y163.199
G01 X18.538 Y163.218
G01 X18.517 Y163.224
G01 X18.496 Y163.231
G01 X18.422 Y163.257
G01 X18.402 Y163.265
G01 X18.382 Y163.274
G01 X18.311 Y163.308
G01 X18.291 Y163.318
G01 X18.272 Y163.329
G01 X18.204 Y163.369
G01 X18.186 Y163.381
G01 X18.168 Y163.393
G01 X18.104 Y163.440
G01 X18.087 Y163.454
G01 X18.070 Y163.468
G01 X18.012 Y163.521
G01 X17.996 Y163.536
G01 X17.981 Y163.552
G01 X17.920 Y163.620
G01 X14.322
G01 X11.928 Y161.226
G01 X11.949 Y161.143
G01 X11.954 Y161.122
G01 X11.958 Y161.100
G01 X11.970 Y161.015
G01 X11.973 Y160.993
G01 X11.975 Y160.971
G01 X11.979 Y160.886
G01 X11.980 Y160.864
G01 X11.979 Y160.842
G01 X11.975 Y160.757
G01 X11.973 Y160.735
G01 X11.970 Y160.713
G01 X11.958 Y160.628
G01 X11.954 Y160.606
G01 X11.949 Y160.585
G01 X11.929 Y160.502
G01 X11.923 Y160.481
G01 X11.916 Y160.460
G01 X11.887 Y160.380
G01 X11.879 Y160.359
G01 X11.870 Y160.339
G01 X11.834 Y160.262
G01 X11.824 Y160.242
G01 X11.818 Y160.232
G01 X11.769 Y160.149
G01 X11.757 Y160.131
G01 X11.744 Y160.113
G01 X11.694 Y160.044
G01 X11.680 Y160.027
G01 X11.665 Y160.010
G01 X11.608 Y159.947
G01 X11.593 Y159.931
G01 X11.577 Y159.915
G01 X11.514 Y159.858
G01 X11.505 Y159.851
G01 X11.488 Y159.837
G01 X11.411 Y159.779
G01 X11.393 Y159.767
G01 X11.374 Y159.755
G01 X11.301 Y159.711
G01 X11.282 Y159.700
G01 X11.272 Y159.695
G01 X11.185 Y159.653
G01 X11.175 Y159.649
G01 X11.154 Y159.640
G01 X11.053 Y159.604
G01 X11.032 Y159.598
G01 X11.018 Y159.594
G01 X11.043 Y159.587
G01 X11.064 Y159.580
G01 X11.154 Y159.548
G01 X11.175 Y159.539
G01 X11.185 Y159.535
G01 X11.262 Y159.498
G01 X11.282 Y159.488
G01 X11.301 Y159.477
G01 X11.374 Y159.433
G01 X11.393 Y159.421
G01 X11.411 Y159.409
G01 X11.480 Y159.358
G01 X11.497 Y159.344
G01 X11.514 Y159.330
G01 X11.585 Y159.265
G01 X11.601 Y159.250
G01 X11.608 Y159.241
G01 X11.673 Y159.170
G01 X11.687 Y159.153
G01 X11.708 Y159.124
G01 X13.469
G01 X15.782 Y161.438
G01 X15.816 Y161.468
G01 X15.832 Y161.483
G01 X15.850 Y161.496
G01 X15.877 Y161.517
G01 X15.886 Y161.523
G01 X15.905 Y161.535
G01 X15.944 Y161.559
G01 X15.963 Y161.570
G01 X15.983 Y161.580
G01 X16.014 Y161.594
G01 X16.034 Y161.603
G01 X16.054 Y161.611
G01 X16.087 Y161.623
G01 X16.108 Y161.630
G01 X16.118 Y161.633
G01 X16.162 Y161.644
G01 X16.184 Y161.649
G01 X16.206 Y161.653
G01 X16.240 Y161.658
G01 X16.262 Y161.660
G01 X16.284 Y161.662
G01 X16.318 Y161.664
G01 X16.340
G01 X17.920
G01 X17.988 Y161.740
G01 X17.996 Y161.748
G01 X18.012 Y161.763
G01 X18.070 Y161.816
G01 X18.087 Y161.830
G01 X18.104 Y161.844
G01 X18.168 Y161.891
G01 X18.186 Y161.903
G01 X18.204 Y161.915
G01 X18.272 Y161.956
G01 X18.291 Y161.966
G01 X18.311 Y161.976
G01 X18.382 Y162.010
G01 X18.402 Y162.019
G01 X18.422 Y162.027
G01 X18.496 Y162.053
G01 X18.517 Y162.060
G01 X18.538 Y162.066
G01 X18.615 Y162.085
G01 X18.636 Y162.090
G01 X18.658 Y162.094
G01 X18.736 Y162.105
G01 X18.758 Y162.108
G01 X18.780 Y162.110
G01 X18.858 Y162.114
G01 X18.869
G01 X18.891
G01 X18.992 Y162.109
G01 X19.014 Y162.107
G01 X19.024 Y162.105
G01 X19.102 Y162.094
G01 X19.124 Y162.090
G01 X19.135 Y162.088
G01 X19.222 Y162.066
G01 X19.243 Y162.060
G01 X19.264 Y162.053
G01 X19.338 Y162.027
G01 X19.358 Y162.019
G01 X19.379 Y162.010
G01 X19.450 Y161.976
G01 X19.469 Y161.966
G01 X19.489 Y161.956
G01 X19.556 Y161.915
G01 X19.575 Y161.903
G01 X19.593 Y161.891
G01 X19.656 Y161.844
G01 X19.673 Y161.830
G01 X19.690 Y161.816
G01 X19.756 Y161.756
G01 X19.772 Y161.740
G01 X19.779 Y161.732
G01 X19.832 Y161.674
G01 X19.846 Y161.657
G01 X19.853 Y161.648
G01 X19.907 Y161.577
G01 X19.919 Y161.558
G01 X19.931 Y161.540
G01 X19.972 Y161.473
G01 X19.982 Y161.453
G01 X19.992 Y161.433
G01 X20.026 Y161.363
G01 X20.035 Y161.342
G01 X20.039 Y161.332
G01 X20.069 Y161.248
G01 X20.076 Y161.227
G01 X20.082 Y161.206
G01 X20.101 Y161.129
G01 X20.106 Y161.108
G01 X20.110 Y161.086
G01 X20.121 Y161.008
G01 X20.124 Y160.987
G01 X20.126 Y160.965
G01 X20.130 Y160.886
G01 Y160.864
G01 Y160.842
G01 X20.126 Y160.764
G01 X20.124 Y160.742
G01 X20.121 Y160.720
G01 X20.110 Y160.642
G01 X20.106 Y160.620
G01 X20.101 Y160.599
G01 X20.082 Y160.522
G01 X20.076 Y160.501
G01 X20.069 Y160.480
G01 X20.039 Y160.396
G01 X20.035 Y160.386
G01 X20.026 Y160.366
G01 X19.992 Y160.295
G01 X19.982 Y160.275
G01 X19.972 Y160.255
G01 X19.925 Y160.179
G01 X19.919 Y160.170
G01 X19.907 Y160.152
G01 X19.860 Y160.088
G01 X19.846 Y160.071
G01 X19.832 Y160.054
G01 X19.779 Y159.996
G01 X19.772 Y159.988
G01 X19.756 Y159.972
G01 X19.681 Y159.905
G01 X19.664 Y159.891
G01 X19.656 Y159.884
G01 X19.593 Y159.837
G01 X19.575 Y159.825
G01 X19.556 Y159.813
G01 X19.479 Y159.767
G01 X19.459 Y159.757
G01 X19.450 Y159.752
G01 X19.379 Y159.718
G01 X19.358 Y159.709
G01 X19.338 Y159.701
G01 X19.253 Y159.671
G01 X19.243 Y159.668
G01 X19.222 Y159.662
G01 X19.145 Y159.643
G01 X19.135 Y159.640
G01 X19.113 Y159.636
G01 X19.024 Y159.623
G01 X19.003 Y159.620
G01 X18.981 Y159.618
G01 X18.902 Y159.615
G01 X18.880 Y159.614
G01 X18.858 Y159.615
G01 X18.780 Y159.618
G01 X18.769 Y159.619
G01 X18.747 Y159.621
G01 X18.658 Y159.634
G01 X18.636 Y159.638
G01 X18.615 Y159.643
G01 X18.538 Y159.662
G01 X18.517 Y159.668
G01 X18.496 Y159.675
G01 X18.422 Y159.701
G01 X18.402 Y159.709
G01 X18.382 Y159.718
G01 X18.311 Y159.752
G01 X18.291 Y159.762
G01 X18.272 Y159.773
G01 X18.204 Y159.813
G01 X18.186 Y159.825
G01 X18.168 Y159.837
G01 X18.104 Y159.884
G01 X18.087 Y159.898
G01 X18.070 Y159.912
G01 X18.012 Y159.965
G01 X17.996 Y159.980
G01 X17.981 Y159.996
G01 X17.920 Y160.064
G01 X16.671
G01 X14.366 Y157.758
G01 X14.350 Y157.743
G01 X14.324 Y157.720
G01 X14.308 Y157.706
G01 X14.290 Y157.692
G01 X14.263 Y157.671
G01 X14.254 Y157.665
G01 X14.235 Y157.653
G01 X14.196 Y157.629
G01 X14.177 Y157.618
G01 X14.158 Y157.608
G01 X14.126 Y157.594
G01 X14.106 Y157.585
G01 X14.086 Y157.577
G01 X14.053 Y157.565
G01 X14.043 Y157.562
G01 X14.022 Y157.555
G01 X13.967 Y157.541
G01 X13.956 Y157.539
G01 X13.934 Y157.535
G01 X13.900 Y157.530
G01 X13.878 Y157.528
G01 X13.856 Y157.526
G01 X13.822 Y157.524
G01 X13.800
G01 X11.708
G01 X11.687 Y157.495
G01 X11.673 Y157.478
G01 X11.608 Y157.407
G01 X11.601 Y157.399
G01 X11.585 Y157.383
G01 X11.514 Y157.318
G01 X11.497 Y157.304
G01 X11.480 Y157.290
G01 X11.411 Y157.239
G01 X11.393 Y157.227
G01 X11.374 Y157.215
G01 X11.301 Y157.171
G01 X11.282 Y157.160
G01 X11.262 Y157.150
G01 X11.185 Y157.113
G01 X11.175 Y157.109
G01 X11.154 Y157.100
G01 X11.064 Y157.068
G01 X11.043 Y157.061
G01 X11.018 Y157.054
G01 X11.043 Y157.047
G01 X11.064 Y157.040
G01 X11.154 Y157.008
G01 X11.175 Y156.999
G01 X11.185 Y156.995
G01 X11.262 Y156.958
G01 X11.282 Y156.948
G01 X11.301 Y156.937
G01 X11.374 Y156.893
G01 X11.393 Y156.882
G01 X11.411 Y156.869
G01 X11.480 Y156.818
G01 X11.497 Y156.804
G01 X11.514 Y156.790
G01 X11.585 Y156.725
G01 X11.601 Y156.710
G01 X11.608 Y156.701
G01 X11.673 Y156.630
G01 X11.687 Y156.613
G01 X11.708 Y156.584
G01 X14.485
G01 X15.782 Y157.882
G01 X15.816 Y157.912
G01 X15.832 Y157.927
G01 X15.850 Y157.940
G01 X15.877 Y157.961
G01 X15.895 Y157.973
G01 X15.914 Y157.985
G01 X15.944 Y158.003
G01 X15.963 Y158.014
G01 X15.983 Y158.024
G01 X16.014 Y158.038
G01 X16.024 Y158.043
G01 X16.044 Y158.051
G01 X16.097 Y158.070
G01 X16.118 Y158.077
G01 X16.173 Y158.091
G01 X16.195 Y158.095
G01 X16.251 Y158.103
G01 X16.273 Y158.105
G01 X16.329 Y158.108
G01 X17.920
G01 X17.981 Y158.176
G01 X17.996 Y158.192
G01 X18.012 Y158.207
G01 X18.070 Y158.260
G01 X18.087 Y158.274
G01 X18.104 Y158.288
G01 X18.168 Y158.335
G01 X18.186 Y158.347
G01 X18.204 Y158.359
G01 X18.272 Y158.400
G01 X18.291 Y158.410
G01 X18.311 Y158.420
G01 X18.382 Y158.454
G01 X18.402 Y158.463
G01 X18.422 Y158.471
G01 X18.496 Y158.497
G01 X18.517 Y158.504
G01 X18.538 Y158.510
G01 X18.615 Y158.529
G01 X18.636 Y158.534
G01 X18.658 Y158.538
G01 X18.736 Y158.549
G01 X18.758 Y158.552
G01 X18.769 Y158.553
G01 X18.858 Y158.558
G01 X18.880
G01 X18.902
G01 X18.992 Y158.553
G01 X19.003 Y158.552
G01 X19.024 Y158.549
G01 X19.102 Y158.538
G01 X19.124 Y158.534
G01 X19.145 Y158.529
G01 X19.222 Y158.510
G01 X19.243 Y158.504
G01 X19.264 Y158.497
G01 X19.338 Y158.471
G01 X19.358 Y158.463
G01 X19.379 Y158.454
G01 X19.450 Y158.420
G01 X19.469 Y158.410
G01 X19.489 Y158.400
G01 X19.556 Y158.359
G01 X19.575 Y158.347
G01 X19.593 Y158.335
G01 X19.656 Y158.288
G01 X19.673 Y158.274
G01 X19.681 Y158.267
G01 X19.748 Y158.207
G01 X19.764 Y158.192
G01 X19.779 Y158.176
G01 X19.839 Y158.109
G01 X19.846 Y158.101
G01 X19.860 Y158.084
G01 X19.907 Y158.021
G01 X19.919 Y158.003
G01 X19.931 Y157.984
G01 X19.972 Y157.916
G01 X19.982 Y157.897
G01 X19.992 Y157.878
G01 X20.031 Y157.796
G01 X20.035 Y157.786
G01 X20.043 Y157.766
G01 X20.069 Y157.692
G01 X20.076 Y157.671
G01 X20.082 Y157.650
G01 X20.101 Y157.573
G01 X20.106 Y157.552
G01 X20.110 Y157.530
G01 X20.121 Y157.452
G01 X20.124 Y157.431
G01 X20.126 Y157.409
G01 X20.130 Y157.330
G01 Y157.308
G01 Y157.286
G01 X20.126 Y157.207
G01 X20.124 Y157.186
G01 X20.121 Y157.164
G01 X20.110 Y157.086
G01 X20.106 Y157.064
G01 X20.101 Y157.043
G01 X20.082 Y156.966
G01 X20.076 Y156.945
G01 X20.069 Y156.924
G01 X20.043 Y156.850
G01 X20.035 Y156.830
G01 X20.026 Y156.810
G01 X19.992 Y156.739
G01 X19.982 Y156.719
G01 X19.972 Y156.700
G01 X19.931 Y156.632
G01 X19.919 Y156.614
G01 X19.907 Y156.596
G01 X19.860 Y156.532
G01 X19.846 Y156.515
G01 X19.832 Y156.498
G01 X19.779 Y156.440
G01 X19.764 Y156.424
G01 X19.748 Y156.409
G01 X19.690 Y156.356
G01 X19.673 Y156.342
G01 X19.656 Y156.328
G01 X19.593 Y156.281
G01 X19.575 Y156.269
G01 X19.556 Y156.257
G01 X19.489 Y156.217
G01 X19.469 Y156.206
G01 X19.450 Y156.196
G01 X19.379 Y156.162
G01 X19.358 Y156.153
G01 X19.338 Y156.145
G01 X19.264 Y156.119
G01 X19.243 Y156.112
G01 X19.222 Y156.106
G01 X19.135 Y156.084
G01 X19.124 Y156.082
G01 X19.102 Y156.078
G01 X19.024 Y156.067
G01 X19.003 Y156.064
G01 X18.981 Y156.062
G01 X18.902 Y156.058
G01 X18.880
G01 X18.858
G01 X18.780 Y156.062
G01 X18.758 Y156.064
G01 X18.736 Y156.067
G01 X18.658 Y156.078
G01 X18.636 Y156.082
G01 X18.615 Y156.087
G01 X18.538 Y156.106
G01 X18.517 Y156.112
G01 X18.496 Y156.119
G01 X18.422 Y156.145
G01 X18.402 Y156.153
G01 X18.392 Y156.158
G01 X18.311 Y156.196
G01 X18.291 Y156.206
G01 X18.272 Y156.217
G01 X18.195 Y156.263
G01 X18.176 Y156.275
G01 X18.168 Y156.281
G01 X18.104 Y156.328
G01 X18.087 Y156.342
G01 X18.070 Y156.356
G01 X18.012 Y156.409
G01 X17.996 Y156.424
G01 X17.981 Y156.440
G01 X17.920 Y156.508
G01 X16.671
G01 X15.382 Y155.218
G01 X15.366 Y155.203
G01 X15.340 Y155.180
G01 X15.324 Y155.166
G01 X15.306 Y155.152
G01 X15.279 Y155.131
G01 X15.261 Y155.119
G01 X15.251 Y155.113
G01 X15.212 Y155.089
G01 X15.193 Y155.078
G01 X15.183 Y155.073
G01 X15.132 Y155.049
G01 X15.112 Y155.041
G01 X15.069 Y155.025
G01 X15.048 Y155.018
G01 X15.027 Y155.012
G01 X14.983 Y155.002
G01 X14.961 Y154.997
G01 X14.916 Y154.990
G01 X14.894 Y154.988
G01 X14.872 Y154.986
G01 X14.827 Y154.984
G01 X11.708
G01 X11.687 Y154.955
G01 X11.673 Y154.938
G01 X11.608 Y154.867
G01 X11.593 Y154.851
G01 X11.585 Y154.843
G01 X11.514 Y154.778
G01 X11.497 Y154.764
G01 X11.480 Y154.750
G01 X11.411 Y154.699
G01 X11.393 Y154.687
G01 X11.374 Y154.675
G01 X11.301 Y154.631
G01 X11.282 Y154.620
G01 X11.262 Y154.610
G01 X11.185 Y154.573
G01 X11.165 Y154.565
G01 X11.154 Y154.560
G01 X11.064 Y154.528
G01 X11.043 Y154.521
G01 X11.018 Y154.514
G01 X11.043 Y154.507
G01 X11.064 Y154.500
G01 X11.154 Y154.468
G01 X11.165 Y154.464
G01 X11.185 Y154.455
G01 X11.262 Y154.418
G01 X11.282 Y154.408
G01 X11.301 Y154.397
G01 X11.374 Y154.353
G01 X11.393 Y154.342
G01 X11.411 Y154.329
G01 X11.480 Y154.278
G01 X11.497 Y154.264
G01 X11.514 Y154.250
G01 X11.585 Y154.185
G01 X11.593 Y154.177
G01 X11.608 Y154.161
G01 X11.673 Y154.090
G01 X11.687 Y154.073
G01 X11.708 Y154.044
G01 X15.501
G01 X15.774 Y154.318
G01 X15.790 Y154.333
G01 X15.816 Y154.356
G01 X15.824 Y154.363
G01 X15.841 Y154.377
G01 X15.886 Y154.411
G01 X15.905 Y154.423
G01 X15.953 Y154.452
G01 X15.973 Y154.463
G01 X16.024 Y154.487
G01 X16.044 Y154.495
G01 X16.097 Y154.514
G01 X16.118 Y154.521
G01 X16.173 Y154.535
G01 X16.195 Y154.539
G01 X16.206 Y154.541
G01 X16.240 Y154.546
G01 X16.262 Y154.548
G01 X16.284 Y154.550
G01 X16.329 Y154.552
G01 X17.920
G01 X17.981 Y154.620
G01 X17.988 Y154.628
G01 X18.004 Y154.644
G01 X18.079 Y154.711
G01 X18.087 Y154.718
G01 X18.104 Y154.732
G01 X18.168 Y154.779
G01 X18.186 Y154.791
G01 X18.204 Y154.803
G01 X18.272 Y154.844
G01 X18.281 Y154.849
G01 X18.301 Y154.860
G01 X18.382 Y154.898
G01 X18.402 Y154.907
G01 X18.422 Y154.915
G01 X18.496 Y154.941
G01 X18.517 Y154.948
G01 X18.538 Y154.954
G01 X18.615 Y154.973
G01 X18.636 Y154.978
G01 X18.658 Y154.982
G01 X18.736 Y154.993
G01 X18.758 Y154.996
G01 X18.780 Y154.998
G01 X18.858 Y155.002
G01 X18.880
G01 X18.891
G01 X18.981 Y154.998
G01 X19.003 Y154.996
G01 X19.024 Y154.993
G01 X19.102 Y154.982
G01 X19.124 Y154.978
G01 X19.145 Y154.973
G01 X19.222 Y154.954
G01 X19.243 Y154.948
G01 X19.264 Y154.941
G01 X19.338 Y154.915
G01 X19.358 Y154.907
G01 X19.379 Y154.898
G01 X19.450 Y154.864
G01 X19.469 Y154.854
G01 X19.489 Y154.844
G01 X19.556 Y154.803
G01 X19.575 Y154.791
G01 X19.593 Y154.779
G01 X19.656 Y154.732
G01 X19.673 Y154.718
G01 X19.690 Y154.704
G01 X19.748 Y154.651
G01 X19.764 Y154.636
G01 X19.779 Y154.620
G01 X19.832 Y154.562
G01 X19.846 Y154.545
G01 X19.860 Y154.528
G01 X19.913 Y154.456
G01 X19.919 Y154.447
G01 X19.931 Y154.428
G01 X19.972 Y154.361
G01 X19.977 Y154.351
G01 X19.988 Y154.331
G01 X20.026 Y154.251
G01 X20.035 Y154.230
G01 X20.039 Y154.220
G01 X20.073 Y154.125
G01 X20.079 Y154.104
G01 X20.082 Y154.094
G01 X20.101 Y154.017
G01 X20.106 Y153.996
G01 X20.110 Y153.974
G01 X20.121 Y153.896
G01 X20.124 Y153.875
G01 X20.125 Y153.864
G01 X20.130 Y153.774
G01 Y153.752
G01 Y153.730
G01 X20.126 Y153.652
G01 X20.124 Y153.630
G01 X20.121 Y153.608
G01 X20.110 Y153.530
G01 X20.106 Y153.508
G01 X20.101 Y153.487
G01 X20.082 Y153.410
G01 X20.076 Y153.389
G01 X20.069 Y153.368
G01 X20.043 Y153.294
G01 X20.035 Y153.274
G01 X20.031 Y153.264
G01 X19.992 Y153.183
G01 X19.982 Y153.163
G01 X19.977 Y153.153
G01 X19.925 Y153.067
G01 X19.913 Y153.048
G01 X19.907 Y153.040
G01 X19.860 Y152.976
G01 X19.846 Y152.959
G01 X19.832 Y152.942
G01 X19.779 Y152.884
G01 X19.772 Y152.876
G01 X19.756 Y152.860
G01 X19.681 Y152.793
G01 X19.664 Y152.779
G01 X19.656 Y152.772
G01 X19.593 Y152.725
G01 X19.575 Y152.713
G01 X19.556 Y152.701
G01 X19.489 Y152.661
G01 X19.469 Y152.650
G01 X19.450 Y152.640
G01 X19.379 Y152.606
G01 X19.358 Y152.597
G01 X19.338 Y152.589
G01 X19.264 Y152.563
G01 X19.243 Y152.556
G01 X19.222 Y152.550
G01 X19.145 Y152.531
G01 X19.124 Y152.526
G01 X19.102 Y152.522
G01 X19.024 Y152.511
G01 X19.003 Y152.508
G01 X18.981 Y152.506
G01 X18.902 Y152.503
G01 X18.880 Y152.502
G01 X18.858 Y152.503
G01 X18.780 Y152.506
G01 X18.758 Y152.508
G01 X18.736 Y152.511
G01 X18.658 Y152.522
G01 X18.636 Y152.526
G01 X18.615 Y152.531
G01 X18.538 Y152.550
G01 X18.517 Y152.556
G01 X18.496 Y152.563
G01 X18.422 Y152.589
G01 X18.402 Y152.597
G01 X18.382 Y152.606
G01 X18.311 Y152.640
G01 X18.291 Y152.650
G01 X18.272 Y152.661
G01 X18.204 Y152.701
G01 X18.186 Y152.713
G01 X18.168 Y152.725
G01 X18.104 Y152.772
G01 X18.087 Y152.786
G01 X18.070 Y152.800
G01 X18.012 Y152.853
G01 X17.996 Y152.868
G01 X17.981 Y152.884
G01 X17.920 Y152.952
G01 X16.671
G01 X16.390 Y152.671
G01 X16.356 Y152.640
G01 X16.340 Y152.626
G01 X16.322 Y152.612
G01 X16.286 Y152.585
G01 X16.277 Y152.579
G01 X16.258 Y152.567
G01 X16.228 Y152.549
G01 X16.209 Y152.538
G01 X16.190 Y152.528
G01 X16.158 Y152.514
G01 X16.138 Y152.505
G01 X16.118 Y152.497
G01 X16.085 Y152.485
G01 X16.064 Y152.478
G01 X16.043 Y152.472
G01 X16.010 Y152.464
G01 X15.999 Y152.462
G01 X15.977 Y152.457
G01 X15.932 Y152.450
G01 X15.910 Y152.448
G01 X15.888 Y152.446
G01 X15.854 Y152.444
G01 X15.832
G01 X11.708
G01 X11.687 Y152.415
G01 X11.673 Y152.398
G01 X11.608 Y152.327
G01 X11.593 Y152.311
G01 X11.585 Y152.303
G01 X11.514 Y152.238
G01 X11.497 Y152.224
G01 X11.480 Y152.210
G01 X11.411 Y152.159
G01 X11.393 Y152.147
G01 X11.374 Y152.135
G01 X11.301 Y152.091
G01 X11.282 Y152.080
G01 X11.262 Y152.070
G01 X11.185 Y152.033
G01 X11.165 Y152.025
G01 X11.154 Y152.020
G01 X11.064 Y151.988
G01 X11.043 Y151.981
G01 X11.018 Y151.974
G01 X11.043 Y151.967
G01 X11.064 Y151.960
G01 X11.154 Y151.928
G01 X11.165 Y151.924
G01 X11.185 Y151.915
G01 X11.262 Y151.878
G01 X11.282 Y151.868
G01 X11.301 Y151.857
G01 X11.374 Y151.813
G01 X11.393 Y151.802
G01 X11.411 Y151.789
G01 X11.480 Y151.738
G01 X11.497 Y151.724
G01 X11.514 Y151.710
G01 X11.585 Y151.645
G01 X11.593 Y151.637
G01 X11.608 Y151.621
G01 X11.673 Y151.550
G01 X11.687 Y151.533
G01 X11.708 Y151.504
G01 X15.832
G01 X15.854
G01 X15.888 Y151.502
G01 X15.910 Y151.500
G01 X15.932 Y151.498
G01 X15.977 Y151.491
G01 X15.999 Y151.487
G01 X16.010 Y151.484
G01 X16.043 Y151.476
G01 X16.064 Y151.470
G01 X16.085 Y151.463
G01 X16.118 Y151.451
G01 X16.138 Y151.443
G01 X16.158 Y151.434
G01 X16.190 Y151.420
G01 X16.209 Y151.410
G01 X16.228 Y151.399
G01 X16.258 Y151.381
G01 X16.277 Y151.369
G01 X16.286 Y151.363
G01 X16.322 Y151.336
G01 X16.340 Y151.323
G01 X16.356 Y151.308
G01 X16.390 Y151.278
G01 X16.671 Y150.996
G01 X17.920
G01 X17.988 Y151.072
G01 X17.996 Y151.080
G01 X18.012 Y151.095
G01 X18.070 Y151.148
G01 X18.087 Y151.162
G01 X18.104 Y151.176
G01 X18.168 Y151.223
G01 X18.186 Y151.235
G01 X18.204 Y151.247
G01 X18.272 Y151.288
G01 X18.291 Y151.298
G01 X18.311 Y151.308
G01 X18.382 Y151.342
G01 X18.402 Y151.351
G01 X18.422 Y151.359
G01 X18.496 Y151.385
G01 X18.517 Y151.392
G01 X18.538 Y151.398
G01 X18.615 Y151.417
G01 X18.636 Y151.422
G01 X18.658 Y151.426
G01 X18.736 Y151.437
G01 X18.758 Y151.440
G01 X18.780 Y151.442
G01 X18.858 Y151.445
G01 X18.880 Y151.446
G01 X18.902 Y151.445
G01 X18.981 Y151.442
G01 X18.992 Y151.441
G01 X19.014 Y151.439
G01 X19.102 Y151.426
G01 X19.113 Y151.424
G01 X19.135 Y151.420
G01 X19.232 Y151.395
G01 X19.253 Y151.389
G01 X19.264 Y151.385
G01 X19.338 Y151.359
G01 X19.358 Y151.351
G01 X19.379 Y151.342
G01 X19.450 Y151.308
G01 X19.459 Y151.304
G01 X19.479 Y151.293
G01 X19.565 Y151.241
G01 X19.575 Y151.235
G01 X19.593 Y151.223
G01 X19.656 Y151.176
G01 X19.673 Y151.162
G01 X19.690 Y151.148
G01 X19.748 Y151.095
G01 X19.764 Y151.080
G01 X19.779 Y151.064
G01 X19.832 Y151.006
G01 X19.846 Y150.989
G01 X19.860 Y150.972
G01 X19.907 Y150.909
G01 X19.919 Y150.891
G01 X19.931 Y150.872
G01 X19.972 Y150.805
G01 X19.982 Y150.785
G01 X19.992 Y150.766
G01 X20.026 Y150.695
G01 X20.035 Y150.674
G01 X20.039 Y150.664
G01 X20.073 Y150.569
G01 X20.079 Y150.548
G01 X20.082 Y150.538
G01 X20.101 Y150.461
G01 X20.106 Y150.440
G01 X20.110 Y150.418
G01 X20.121 Y150.340
G01 X20.124 Y150.319
G01 X20.125 Y150.308
G01 X20.130 Y150.207
G01 Y150.185
G01 Y150.174
G01 X20.126 Y150.096
G01 X20.124 Y150.074
G01 X20.121 Y150.052
G01 X20.110 Y149.974
G01 X20.106 Y149.952
G01 X20.101 Y149.931
G01 X20.082 Y149.854
G01 X20.076 Y149.833
G01 X20.069 Y149.812
G01 X20.043 Y149.738
G01 X20.035 Y149.718
G01 X20.031 Y149.708
G01 X19.988 Y149.617
G01 X19.977 Y149.597
G01 X19.972 Y149.588
G01 X19.931 Y149.520
G01 X19.919 Y149.502
G01 X19.907 Y149.484
G01 X19.860 Y149.420
G01 X19.846 Y149.403
G01 X19.832 Y149.386
G01 X19.779 Y149.328
G01 X19.764 Y149.312
G01 X19.748 Y149.297
G01 X19.690 Y149.244
G01 X19.673 Y149.230
G01 X19.656 Y149.216
G01 X19.593 Y149.169
G01 X19.575 Y149.157
G01 X19.556 Y149.145
G01 X19.489 Y149.105
G01 X19.469 Y149.094
G01 X19.450 Y149.084
G01 X19.379 Y149.050
G01 X19.358 Y149.041
G01 X19.338 Y149.033
G01 X19.264 Y149.007
G01 X19.243 Y149.000
G01 X19.222 Y148.994
G01 X19.145 Y148.975
G01 X19.135 Y148.972
G01 X19.113 Y148.968
G01 X19.024 Y148.955
G01 X19.003 Y148.952
G01 X18.981 Y148.950
G01 X18.902 Y148.947
G01 X18.880 Y148.946
G01 X18.858 Y148.947
G01 X18.780 Y148.950
G01 X18.758 Y148.952
G01 X18.736 Y148.955
G01 X18.658 Y148.966
G01 X18.636 Y148.970
G01 X18.615 Y148.975
G01 X18.538 Y148.994
G01 X18.517 Y149.000
G01 X18.496 Y149.007
G01 X18.422 Y149.033
G01 X18.402 Y149.041
G01 X18.382 Y149.050
G01 X18.311 Y149.084
G01 X18.291 Y149.094
G01 X18.272 Y149.105
G01 X18.204 Y149.145
G01 X18.195 Y149.151
G01 X18.176 Y149.163
G01 X18.104 Y149.216
G01 X18.087 Y149.230
G01 X18.070 Y149.244
G01 X18.012 Y149.297
G01 X17.996 Y149.312
G01 X17.988 Y149.320
G01 X17.920 Y149.396
G01 X16.329
G01 X16.273 Y149.399
G01 X16.251 Y149.401
G01 X16.240 Y149.402
G01 X16.206 Y149.407
G01 X16.184 Y149.411
G01 X16.162 Y149.416
G01 X16.129 Y149.424
G01 X16.118 Y149.427
G01 X16.097 Y149.434
G01 X16.044 Y149.453
G01 X16.024 Y149.461
G01 X15.973 Y149.485
G01 X15.953 Y149.496
G01 X15.905 Y149.525
G01 X15.886 Y149.537
G01 X15.841 Y149.571
G01 X15.824 Y149.585
G01 X15.816 Y149.592
G01 X15.790 Y149.615
G01 X15.774 Y149.630
G01 X15.501 Y149.904
G01 X11.708
G01 X11.687 Y149.875
G01 X11.673 Y149.858
G01 X11.608 Y149.787
G01 X11.593 Y149.771
G01 X11.585 Y149.763
G01 X11.514 Y149.698
G01 X11.497 Y149.684
G01 X11.480 Y149.670
G01 X11.411 Y149.619
G01 X11.393 Y149.607
G01 X11.374 Y149.595
G01 X11.301 Y149.551
G01 X11.282 Y149.540
G01 X11.262 Y149.530
G01 X11.185 Y149.493
G01 X11.165 Y149.485
G01 X11.154 Y149.480
G01 X11.064 Y149.448
G01 X11.043 Y149.441
G01 X11.018 Y149.434
G01 X11.043 Y149.427
G01 X11.064 Y149.420
G01 X11.154 Y149.388
G01 X11.165 Y149.384
G01 X11.185 Y149.375
G01 X11.262 Y149.338
G01 X11.282 Y149.328
G01 X11.301 Y149.317
G01 X11.374 Y149.273
G01 X11.393 Y149.262
G01 X11.411 Y149.249
G01 X11.480 Y149.198
G01 X11.497 Y149.184
G01 X11.514 Y149.170
G01 X11.585 Y149.105
G01 X11.593 Y149.097
G01 X11.608 Y149.081
G01 X11.673 Y149.010
G01 X11.687 Y148.993
G01 X11.708 Y148.964
G01 X14.827
G01 X14.872 Y148.962
G01 X14.894 Y148.960
G01 X14.916 Y148.958
G01 X14.961 Y148.951
G01 X14.983 Y148.947
G01 X15.027 Y148.936
G01 X15.048 Y148.930
G01 X15.069 Y148.923
G01 X15.112 Y148.907
G01 X15.132 Y148.899
G01 X15.183 Y148.875
G01 X15.193 Y148.870
G01 X15.212 Y148.859
G01 X15.251 Y148.835
G01 X15.261 Y148.829
G01 X15.279 Y148.817
G01 X15.306 Y148.796
G01 X15.324 Y148.783
G01 X15.340 Y148.768
G01 X15.366 Y148.745
G01 X15.382 Y148.730
G01 X16.671 Y147.440
G01 X17.920
G01 X17.981 Y147.508
G01 X17.988 Y147.516
G01 X18.004 Y147.532
G01 X18.079 Y147.599
G01 X18.087 Y147.606
G01 X18.104 Y147.620
G01 X18.168 Y147.667
G01 X18.186 Y147.679
G01 X18.204 Y147.691
G01 X18.272 Y147.732
G01 X18.281 Y147.737
G01 X18.301 Y147.748
G01 X18.382 Y147.786
G01 X18.402 Y147.795
G01 X18.422 Y147.803
G01 X18.496 Y147.829
G01 X18.517 Y147.836
G01 X18.538 Y147.842
G01 X18.615 Y147.861
G01 X18.636 Y147.866
G01 X18.658 Y147.870
G01 X18.736 Y147.881
G01 X18.758 Y147.884
G01 X18.780 Y147.886
G01 X18.858 Y147.890
G01 X18.880
G01 X18.902
G01 X18.981 Y147.886
G01 X19.003 Y147.884
G01 X19.024 Y147.881
G01 X19.102 Y147.870
G01 X19.124 Y147.866
G01 X19.145 Y147.861
G01 X19.232 Y147.839
G01 X19.253 Y147.833
G01 X19.264 Y147.829
G01 X19.338 Y147.803
G01 X19.358 Y147.795
G01 X19.379 Y147.786
G01 X19.450 Y147.752
G01 X19.469 Y147.742
G01 X19.489 Y147.732
G01 X19.556 Y147.691
G01 X19.575 Y147.679
G01 X19.593 Y147.667
G01 X19.656 Y147.620
G01 X19.673 Y147.606
G01 X19.690 Y147.592
G01 X19.748 Y147.539
G01 X19.764 Y147.524
G01 X19.779 Y147.508
G01 X19.832 Y147.450
G01 X19.846 Y147.433
G01 X19.860 Y147.416
G01 X19.907 Y147.353
G01 X19.919 Y147.335
G01 X19.931 Y147.316
G01 X19.972 Y147.249
G01 X19.982 Y147.229
G01 X19.992 Y147.210
G01 X20.026 Y147.139
G01 X20.035 Y147.118
G01 X20.043 Y147.098
G01 X20.069 Y147.024
G01 X20.076 Y147.003
G01 X20.082 Y146.982
G01 X20.101 Y146.905
G01 X20.106 Y146.884
G01 X20.110 Y146.862
G01 X20.123 Y146.774
G01 X20.124 Y146.763
G01 X20.126 Y146.741
G01 X20.130 Y146.662
G01 Y146.640
G01 Y146.618
G01 X20.126 Y146.540
G01 X20.124 Y146.518
G01 X20.121 Y146.496
G01 X20.110 Y146.418
G01 X20.106 Y146.396
G01 X20.101 Y146.375
G01 X20.079 Y146.288
G01 X20.073 Y146.267
G01 X20.069 Y146.256
G01 X20.043 Y146.182
G01 X20.035 Y146.162
G01 X20.031 Y146.152
G01 X19.992 Y146.071
G01 X19.982 Y146.051
G01 X19.972 Y146.032
G01 X19.931 Y145.964
G01 X19.919 Y145.946
G01 X19.907 Y145.928
G01 X19.860 Y145.864
G01 X19.846 Y145.847
G01 X19.832 Y145.830
G01 X19.779 Y145.772
G01 X19.764 Y145.756
G01 X19.748 Y145.741
G01 X19.690 Y145.688
G01 X19.673 Y145.674
G01 X19.656 Y145.660
G01 X19.584 Y145.607
G01 X19.575 Y145.601
G01 X19.556 Y145.589
G01 X19.489 Y145.549
G01 X19.479 Y145.543
G01 X19.459 Y145.533
G01 X19.379 Y145.494
G01 X19.358 Y145.485
G01 X19.338 Y145.477
G01 X19.264 Y145.451
G01 X19.243 Y145.444
G01 X19.222 Y145.438
G01 X19.145 Y145.419
G01 X19.124 Y145.414
G01 X19.102 Y145.410
G01 X19.024 Y145.399
G01 X19.003 Y145.396
G01 X18.981 Y145.394
G01 X18.902 Y145.391
G01 X18.880 Y145.390
G01 X18.858 Y145.391
G01 X18.780 Y145.394
G01 X18.758 Y145.396
G01 X18.747 Y145.397
G01 X18.658 Y145.410
G01 X18.636 Y145.414
G01 X18.615 Y145.419
G01 X18.538 Y145.438
G01 X18.517 Y145.444
G01 X18.496 Y145.451
G01 X18.422 Y145.477
G01 X18.402 Y145.485
G01 X18.382 Y145.494
G01 X18.311 Y145.528
G01 X18.291 Y145.538
G01 X18.272 Y145.549
G01 X18.204 Y145.589
G01 X18.186 Y145.601
G01 X18.168 Y145.613
G01 X18.104 Y145.660
G01 X18.087 Y145.674
G01 X18.070 Y145.688
G01 X18.012 Y145.741
G01 X18.004 Y145.748
G01 X17.988 Y145.764
G01 X17.920 Y145.840
G01 X16.329
G01 X16.273 Y145.843
G01 X16.251 Y145.845
G01 X16.195 Y145.853
G01 X16.173 Y145.858
G01 X16.118 Y145.871
G01 X16.097 Y145.878
G01 X16.044 Y145.897
G01 X16.024 Y145.905
G01 X15.983 Y145.924
G01 X15.963 Y145.934
G01 X15.944 Y145.945
G01 X15.914 Y145.963
G01 X15.895 Y145.975
G01 X15.877 Y145.987
G01 X15.850 Y146.008
G01 X15.832 Y146.022
G01 X15.816 Y146.036
G01 X15.782 Y146.067
G01 X14.485 Y147.364
G01 X11.708
G01 X11.687 Y147.335
G01 X11.673 Y147.318
G01 X11.608 Y147.247
G01 X11.593 Y147.231
G01 X11.585 Y147.223
G01 X11.514 Y147.158
G01 X11.497 Y147.144
G01 X11.480 Y147.130
G01 X11.411 Y147.079
G01 X11.393 Y147.067
G01 X11.374 Y147.055
G01 X11.301 Y147.011
G01 X11.282 Y147.000
G01 X11.262 Y146.990
G01 X11.185 Y146.953
G01 X11.165 Y146.945
G01 X11.154 Y146.940
G01 X11.064 Y146.908
G01 X11.043 Y146.901
G01 X11.018 Y146.894
G01 X11.043 Y146.887
G01 X11.064 Y146.880
G01 X11.154 Y146.848
G01 X11.175 Y146.839
G01 X11.185 Y146.835
G01 X11.262 Y146.798
G01 X11.282 Y146.788
G01 X11.301 Y146.777
G01 X11.374 Y146.733
G01 X11.393 Y146.722
G01 X11.411 Y146.709
G01 X11.480 Y146.658
G01 X11.497 Y146.644
G01 X11.514 Y146.630
G01 X11.585 Y146.565
G01 X11.593 Y146.557
G01 X11.608 Y146.541
G01 X11.673 Y146.470
G01 X11.687 Y146.453
G01 X11.708 Y146.424
G01 X13.800
G01 X13.822
G01 X13.856 Y146.422
G01 X13.878 Y146.420
G01 X13.900 Y146.418
G01 X13.934 Y146.413
G01 X13.945 Y146.411
G01 X13.967 Y146.407
G01 X14.022 Y146.393
G01 X14.043 Y146.386
G01 X14.053 Y146.383
G01 X14.086 Y146.371
G01 X14.106 Y146.363
G01 X14.126 Y146.354
G01 X14.158 Y146.340
G01 X14.177 Y146.330
G01 X14.196 Y146.319
G01 X14.235 Y146.295
G01 X14.245 Y146.289
G01 X14.263 Y146.277
G01 X14.290 Y146.256
G01 X14.308 Y146.243
G01 X14.324 Y146.228
G01 X14.350 Y146.205
G01 X14.366 Y146.190
G01 X16.671 Y143.884
G01 X17.920
G01 X17.981 Y143.952
G01 X17.996 Y143.968
G01 X18.012 Y143.983
G01 X18.070 Y144.036
G01 X18.079 Y144.043
G01 X18.096 Y144.057
G01 X18.168 Y144.111
G01 X18.176 Y144.117
G01 X18.195 Y144.129
G01 X18.281 Y144.181
G01 X18.291 Y144.186
G01 X18.311 Y144.196
G01 X18.382 Y144.230
G01 X18.402 Y144.239
G01 X18.422 Y144.247
G01 X18.496 Y144.273
G01 X18.507 Y144.277
G01 X18.528 Y144.283
G01 X18.615 Y144.305
G01 X18.625 Y144.308
G01 X18.647 Y144.312
G01 X18.747 Y144.327
G01 X18.758 Y144.328
G01 X18.780 Y144.330
G01 X18.869 Y144.334
G01 X18.880
G01 X18.902
G01 X18.981 Y144.330
G01 X19.003 Y144.328
G01 X19.024 Y144.325
G01 X19.102 Y144.314
G01 X19.124 Y144.310
G01 X19.145 Y144.305
G01 X19.222 Y144.286
G01 X19.243 Y144.280
G01 X19.264 Y144.273
G01 X19.338 Y144.247
G01 X19.358 Y144.239
G01 X19.379 Y144.230
G01 X19.450 Y144.196
G01 X19.469 Y144.186
G01 X19.489 Y144.176
G01 X19.556 Y144.135
G01 X19.575 Y144.123
G01 X19.593 Y144.111
G01 X19.656 Y144.064
G01 X19.673 Y144.050
G01 X19.690 Y144.036
G01 X19.748 Y143.983
G01 X19.764 Y143.968
G01 X19.772 Y143.960
G01 X19.832 Y143.894
G01 X19.846 Y143.877
G01 X19.860 Y143.860
G01 X19.907 Y143.797
G01 X19.919 Y143.779
G01 X19.931 Y143.760
G01 X19.972 Y143.693
G01 X19.982 Y143.673
G01 X19.992 Y143.654
G01 X20.026 Y143.583
G01 X20.035 Y143.562
G01 X20.043 Y143.542
G01 X20.069 Y143.468
G01 X20.076 Y143.447
G01 X20.082 Y143.426
G01 X20.101 Y143.349
G01 X20.104 Y143.339
G01 X20.108 Y143.317
G01 X20.121 Y143.228
G01 X20.124 Y143.207
G01 X20.126 Y143.185
G01 X20.130 Y143.106
G01 Y143.084
G01 Y143.062
G01 X20.126 Y142.984
G01 X20.124 Y142.962
G01 X20.123 Y142.951
G01 X20.110 Y142.862
G01 X20.106 Y142.840
G01 X20.101 Y142.819
G01 X20.079 Y142.732
G01 X20.073 Y142.711
G01 X20.069 Y142.700
G01 X20.043 Y142.626
G01 X20.035 Y142.606
G01 X20.026 Y142.586
G01 X19.992 Y142.515
G01 X19.982 Y142.495
G01 X19.972 Y142.476
G01 X19.925 Y142.399
G01 X19.913 Y142.380
G01 X19.907 Y142.372
G01 X19.860 Y142.308
G01 X19.846 Y142.291
G01 X19.839 Y142.283
G01 X19.779 Y142.216
G01 X19.764 Y142.200
G01 X19.748 Y142.185
G01 X19.681 Y142.125
G01 X19.673 Y142.118
G01 X19.656 Y142.104
G01 X19.593 Y142.057
G01 X19.575 Y142.045
G01 X19.556 Y142.033
G01 X19.489 Y141.993
G01 X19.469 Y141.982
G01 X19.450 Y141.972
G01 X19.369 Y141.934
G01 X19.348 Y141.925
G01 X19.338 Y141.921
G01 X19.264 Y141.895
G01 X19.243 Y141.888
G01 X19.222 Y141.882
G01 X19.145 Y141.863
G01 X19.124 Y141.858
G01 X19.102 Y141.854
G01 X19.024 Y141.843
G01 X19.003 Y141.840
G01 X18.981 Y141.838
G01 X18.902 Y141.835
G01 X18.880 Y141.834
G01 X18.858 Y141.835
G01 X18.780 Y141.838
G01 X18.758 Y141.840
G01 X18.747 Y141.841
G01 X18.647 Y141.856
G01 X18.625 Y141.860
G01 X18.615 Y141.863
G01 X18.528 Y141.885
G01 X18.517 Y141.888
G01 X18.496 Y141.895
G01 X18.422 Y141.921
G01 X18.402 Y141.929
G01 X18.382 Y141.938
G01 X18.301 Y141.977
G01 X18.281 Y141.987
G01 X18.272 Y141.993
G01 X18.204 Y142.033
G01 X18.186 Y142.045
G01 X18.168 Y142.057
G01 X18.104 Y142.104
G01 X18.087 Y142.118
G01 X18.070 Y142.132
G01 X18.012 Y142.185
G01 X17.996 Y142.200
G01 X17.981 Y142.216
G01 X17.920 Y142.284
G01 X16.340
G01 X16.318
G01 X16.284 Y142.286
G01 X16.273 Y142.287
G01 X16.251 Y142.289
G01 X16.195 Y142.297
G01 X16.173 Y142.302
G01 X16.162 Y142.304
G01 X16.129 Y142.312
G01 X16.108 Y142.318
G01 X16.087 Y142.325
G01 X16.054 Y142.337
G01 X16.034 Y142.345
G01 X16.014 Y142.354
G01 X15.983 Y142.368
G01 X15.963 Y142.378
G01 X15.953 Y142.384
G01 X15.914 Y142.407
G01 X15.895 Y142.419
G01 X15.877 Y142.431
G01 X15.850 Y142.452
G01 X15.841 Y142.459
G01 X15.824 Y142.473
G01 X15.790 Y142.503
G01 X15.774 Y142.518
G01 X13.469 Y144.824
G01 X11.708
G01 X11.687 Y144.795
G01 X11.673 Y144.778
G01 X11.601 Y144.699
G01 X11.593 Y144.691
G01 X11.577 Y144.675
G01 X11.514 Y144.618
G01 X11.505 Y144.611
G01 X11.488 Y144.597
G01 X11.411 Y144.539
G01 X11.393 Y144.527
G01 X11.374 Y144.515
G01 X11.301 Y144.471
G01 X11.282 Y144.460
G01 X11.262 Y144.450
G01 X11.185 Y144.413
G01 X11.163 Y144.404
G01 X11.280
G01 X11.302
G01 X11.326 Y144.402
G01 X11.348 Y144.401
G01 X11.370 Y144.398
G01 X11.405 Y144.393
G01 X11.427 Y144.388
G01 X11.461 Y144.380
G01 X11.483 Y144.374
G01 X11.504 Y144.367
G01 X11.537 Y144.355
G01 X11.558 Y144.346
G01 X11.590 Y144.331
G01 X11.610 Y144.321
G01 X11.629 Y144.311
G01 X11.659 Y144.292
G01 X11.678 Y144.280
G01 X11.706 Y144.259
G01 X11.724 Y144.245
G01 X11.740 Y144.231
G01 X11.767 Y144.207
G01 X11.782 Y144.191
G01 X11.806 Y144.165
G01 X11.821 Y144.148
G01 X11.834 Y144.131
G01 X11.849 Y144.111
G01 X11.862 Y144.093
G01 X11.873 Y144.074
G01 X11.892 Y144.044
G01 X11.902 Y144.024
G01 X11.917 Y143.992
G01 X11.922 Y143.982
G01 X11.930 Y143.962
G01 X11.946 Y143.918
G01 X11.952 Y143.897
G01 X11.964 Y143.851
G01 X11.968 Y143.830
G01 X11.975 Y143.784
G01 X11.977 Y143.762
G01 X11.979 Y143.726
G01 X11.980 Y143.704
G01 Y142.671
G01 X14.322 Y140.328
G01 X17.920
G01 X17.981 Y140.396
G01 X17.996 Y140.412
G01 X18.012 Y140.427
G01 X18.070 Y140.480
G01 X18.079 Y140.487
G01 X18.096 Y140.501
G01 X18.168 Y140.555
G01 X18.176 Y140.561
G01 X18.195 Y140.573
G01 X18.281 Y140.625
G01 X18.291 Y140.630
G01 X18.311 Y140.640
G01 X18.382 Y140.674
G01 X18.402 Y140.683
G01 X18.412 Y140.687
G01 X18.507 Y140.721
G01 X18.517 Y140.724
G01 X18.538 Y140.730
G01 X18.615 Y140.749
G01 X18.636 Y140.754
G01 X18.658 Y140.758
G01 X18.736 Y140.769
G01 X18.758 Y140.772
G01 X18.769 Y140.773
G01 X18.858 Y140.778
G01 X18.880
G01 X18.891
G01 X18.981 Y140.774
G01 X19.003 Y140.772
G01 X19.024 Y140.769
G01 X19.102 Y140.758
G01 X19.124 Y140.754
G01 X19.145 Y140.749
G01 X19.222 Y140.730
G01 X19.243 Y140.724
G01 X19.264 Y140.717
G01 X19.338 Y140.691
G01 X19.358 Y140.683
G01 X19.379 Y140.674
G01 X19.450 Y140.640
G01 X19.459 Y140.636
G01 X19.479 Y140.625
G01 X19.556 Y140.579
G01 X19.575 Y140.567
G01 X19.593 Y140.555
G01 X19.656 Y140.508
G01 X19.673 Y140.494
G01 X19.690 Y140.480
G01 X19.748 Y140.427
G01 X19.764 Y140.412
G01 X19.779 Y140.396
G01 X19.832 Y140.338
G01 X19.846 Y140.321
G01 X19.860 Y140.304
G01 X19.907 Y140.241
G01 X19.919 Y140.223
G01 X19.931 Y140.204
G01 X19.972 Y140.137
G01 X19.982 Y140.117
G01 X19.992 Y140.098
G01 X20.031 Y140.017
G01 X20.035 Y140.006
G01 X20.043 Y139.986
G01 X20.069 Y139.912
G01 X20.076 Y139.891
G01 X20.079 Y139.880
G01 X20.101 Y139.793
G01 X20.106 Y139.772
G01 X20.110 Y139.750
G01 X20.121 Y139.672
G01 X20.124 Y139.651
G01 X20.126 Y139.629
G01 X20.130 Y139.550
G01 Y139.528
G01 Y139.506
G01 X20.126 Y139.428
G01 X20.124 Y139.406
G01 X20.123 Y139.395
G01 X20.110 Y139.306
G01 X20.106 Y139.284
G01 X20.101 Y139.263
G01 X20.082 Y139.186
G01 X20.076 Y139.165
G01 X20.069 Y139.144
G01 X20.043 Y139.070
G01 X20.035 Y139.050
G01 X20.026 Y139.030
G01 X19.992 Y138.959
G01 X19.982 Y138.939
G01 X19.972 Y138.920
G01 X19.931 Y138.852
G01 X19.919 Y138.834
G01 X19.907 Y138.816
G01 X19.853 Y138.744
G01 X19.839 Y138.727
G01 X19.832 Y138.718
G01 X19.779 Y138.660
G01 X19.772 Y138.652
G01 X19.756 Y138.636
G01 X19.690 Y138.576
G01 X19.673 Y138.562
G01 X19.656 Y138.548
G01 X19.593 Y138.501
G01 X19.575 Y138.489
G01 X19.556 Y138.477
G01 X19.489 Y138.437
G01 X19.469 Y138.426
G01 X19.450 Y138.416
G01 X19.379 Y138.382
G01 X19.358 Y138.373
G01 X19.338 Y138.365
G01 X19.264 Y138.339
G01 X19.243 Y138.332
G01 X19.222 Y138.326
G01 X19.135 Y138.304
G01 X19.113 Y138.300
G01 X19.102 Y138.298
G01 X19.024 Y138.287
G01 X19.003 Y138.284
G01 X18.981 Y138.282
G01 X18.902 Y138.279
G01 X18.880 Y138.278
G01 X18.858 Y138.279
G01 X18.780 Y138.282
G01 X18.758 Y138.284
G01 X18.736 Y138.287
G01 X18.658 Y138.298
G01 X18.636 Y138.302
G01 X18.615 Y138.307
G01 X18.538 Y138.326
G01 X18.517 Y138.332
G01 X18.496 Y138.339
G01 X18.422 Y138.365
G01 X18.402 Y138.373
G01 X18.392 Y138.378
G01 X18.311 Y138.416
G01 X18.291 Y138.426
G01 X18.272 Y138.437
G01 X18.195 Y138.483
G01 X18.176 Y138.495
G01 X18.168 Y138.501
G01 X18.104 Y138.548
G01 X18.087 Y138.562
G01 X18.070 Y138.576
G01 X18.012 Y138.629
G01 X17.996 Y138.644
G01 X17.981 Y138.660
G01 X17.920 Y138.728
G01 X13.980
G01 X13.934 Y138.730
G01 X13.912 Y138.732
G01 X13.890 Y138.734
G01 X13.856 Y138.739
G01 X13.834 Y138.743
G01 X13.813 Y138.748
G01 X13.780 Y138.756
G01 X13.758 Y138.762
G01 X13.737 Y138.769
G01 X13.705 Y138.781
G01 X13.684 Y138.789
G01 X13.674 Y138.793
G01 X13.623 Y138.817
G01 X13.604 Y138.828
G01 X13.555 Y138.857
G01 X13.537 Y138.869
G01 X13.492 Y138.903
G01 X13.474 Y138.917
G01 X13.433 Y138.955
G01 X10.623 Y141.764
G01 X9.579
G01 X9.532 Y141.766
G01 X9.521 Y141.767
G01 X9.499 Y141.770
G01 X9.475 Y141.774
G01 X9.453 Y141.778
G01 X9.431 Y141.782
G01 X9.397 Y141.791
G01 X9.386 Y141.794
G01 X9.365 Y141.801
G01 X9.342 Y141.809
G01 X9.322 Y141.817
G01 X9.301 Y141.826
G01 X9.279 Y141.837
G01 X9.260 Y141.847
G01 X9.250 Y141.852
G01 X9.210 Y141.876
G01 X9.192 Y141.888
G01 X9.183 Y141.895
G01 X9.163 Y141.909
G01 X9.145 Y141.923
G01 X9.129 Y141.937
G01 X9.111 Y141.954
G01 X9.095 Y141.969
G01 X9.087 Y141.977
G01 X9.056 Y142.012
G01 X9.042 Y142.029
G01 X9.035 Y142.037
G01 X9.020 Y142.057
G01 X9.008 Y142.075
G01 X8.996 Y142.094
G01 X8.983 Y142.115
G01 X8.972 Y142.134
G01 X8.967 Y142.144
G01 X8.947 Y142.186
G01 X8.939 Y142.206
G01 X8.935 Y142.217
G01 X8.923 Y142.250
G01 X8.917 Y142.271
G01 X8.905 Y142.317
G01 X8.901 Y142.338
G01 X8.896 Y142.374
G01 X8.893 Y142.395
G01 X8.891 Y142.417
G01 X8.890 Y142.442
G01 Y142.464
G01 Y143.715
G01 X8.891 Y143.751
G01 X8.893 Y143.773
G01 X8.896 Y143.795
G01 X8.901 Y143.830
G01 X8.905 Y143.851
G01 X8.914 Y143.886
G01 X8.920 Y143.907
G01 X8.927 Y143.928
G01 X8.939 Y143.962
G01 X8.947 Y143.982
G01 X8.962 Y144.014
G01 X8.972 Y144.034
G01 X8.983 Y144.053
G01 X8.996 Y144.074
G01 X9.008 Y144.093
G01 X9.020 Y144.111
G01 X9.042 Y144.140
G01 X9.056 Y144.157
G01 X9.087 Y144.191
G01 X9.102 Y144.207
G01 X9.129 Y144.231
G01 X9.145 Y144.245
G01 X9.154 Y144.252
G01 X9.183 Y144.273
G01 X9.201 Y144.286
G01 X9.219 Y144.298
G01 X9.250 Y144.316
G01 X9.269 Y144.326
G01 X9.301 Y144.342
G01 X9.322 Y144.351
G01 X9.342 Y144.359
G01 X9.365 Y144.367
G01 X9.386 Y144.374
G01 X9.408 Y144.380
G01 X9.442 Y144.388
G01 X9.464 Y144.393
G01 X9.499 Y144.398
G01 X9.521 Y144.401
G01 X9.543 Y144.402
G01 X9.567 Y144.404
G01 X9.590
G01 X9.706
G01 X11.163
G01 X9.706
G01 X9.684 Y144.413
G01 X9.607 Y144.450
G01 X9.587 Y144.460
G01 X9.568 Y144.471
G01 X9.495 Y144.515
G01 X9.476 Y144.527
G01 X9.467 Y144.533
G01 X9.390 Y144.590
G01 X9.372 Y144.604
G01 X9.355 Y144.618
G01 X9.292 Y144.675
G01 X9.276 Y144.691
G01 X9.261 Y144.707
G01 X9.204 Y144.770
G01 X9.189 Y144.787
G01 X9.176 Y144.804
G01 X9.125 Y144.873
G01 X9.112 Y144.891
G01 X9.100 Y144.909
G01 X9.056 Y144.983
G01 X9.045 Y145.002
G01 X9.035 Y145.022
G01 X8.999 Y145.099
G01 X8.990 Y145.119
G01 X8.982 Y145.140
G01 X8.953 Y145.220
G01 X8.946 Y145.241
G01 X8.943 Y145.251
G01 X8.920 Y145.345
G01 X8.915 Y145.367
G01 X8.911 Y145.388
G01 X8.899 Y145.473
G01 X8.896 Y145.495
G01 X8.894 Y145.517
G01 X8.890 Y145.602
G01 Y145.624
G01 Y145.646
G01 X8.894 Y145.731
G01 X8.896 Y145.753
G01 X8.899 Y145.775
G01 X8.911 Y145.860
G01 X8.915 Y145.882
G01 X8.920 Y145.903
G01 X8.940 Y145.986
G01 X8.946 Y146.007
G01 X8.953 Y146.028
G01 X8.982 Y146.109
G01 X8.990 Y146.129
G01 X8.999 Y146.149
G01 X9.035 Y146.227
G01 X9.045 Y146.246
G01 X9.056 Y146.266
G01 X9.100 Y146.339
G01 X9.112 Y146.357
G01 X9.125 Y146.375
G01 X9.176 Y146.444
G01 X9.189 Y146.461
G01 X9.204 Y146.478
G01 X9.261 Y146.541
G01 X9.276 Y146.557
G01 X9.292 Y146.573
G01 X9.355 Y146.630
G01 X9.364 Y146.637
G01 X9.381 Y146.651
G01 X9.458 Y146.709
G01 X9.476 Y146.722
G01 X9.495 Y146.733
G01 X9.568 Y146.777
G01 X9.587 Y146.788
G01 X9.607 Y146.798
G01 X9.684 Y146.835
G01 X9.704 Y146.844
G01 X9.725 Y146.852
G01 X9.816 Y146.884
G01 X9.837 Y146.890
G01 X9.851 Y146.894
G01 X11.018
G01 X9.851
G01 X9.826 Y146.901
G01 X9.805 Y146.908
G01 X9.715 Y146.940
G01 X9.704 Y146.945
G01 X9.684 Y146.953
G01 X9.607 Y146.990
G01 X9.587 Y147.000
G01 X9.578 Y147.005
G01 X9.485 Y147.060
G01 X9.476 Y147.067
G01 X9.458 Y147.079
G01 X9.390 Y147.130
G01 X9.372 Y147.144
G01 X9.355 Y147.158
G01 X9.292 Y147.215
G01 X9.276 Y147.231
G01 X9.261 Y147.247
G01 X9.204 Y147.310
G01 X9.189 Y147.327
G01 X9.176 Y147.344
G01 X9.125 Y147.413
G01 X9.112 Y147.431
G01 X9.100 Y147.449
G01 X9.056 Y147.523
G01 X9.045 Y147.542
G01 X9.035 Y147.562
G01 X8.999 Y147.639
G01 X8.990 Y147.659
G01 X8.982 Y147.680
G01 X8.953 Y147.760
G01 X8.946 Y147.781
G01 X8.940 Y147.802
G01 X8.920 Y147.885
G01 X8.915 Y147.907
G01 X8.911 Y147.928
G01 X8.897 Y148.024
G01 X8.896 Y148.035
G01 X8.894 Y148.057
G01 X8.890 Y148.142
G01 Y148.164
G01 Y148.186
G01 X8.894 Y148.271
G01 X8.896 Y148.293
G01 X8.897 Y148.304
G01 X8.911 Y148.400
G01 X8.915 Y148.422
G01 X8.920 Y148.443
G01 X8.940 Y148.526
G01 X8.946 Y148.547
G01 X8.953 Y148.568
G01 X8.982 Y148.649
G01 X8.990 Y148.669
G01 X8.999 Y148.689
G01 X9.035 Y148.767
G01 X9.045 Y148.786
G01 X9.056 Y148.806
G01 X9.100 Y148.879
G01 X9.112 Y148.897
G01 X9.125 Y148.915
G01 X9.176 Y148.984
G01 X9.182 Y148.993
G01 X9.196 Y149.010
G01 X9.261 Y149.081
G01 X9.276 Y149.097
G01 X9.292 Y149.113
G01 X9.355 Y149.170
G01 X9.372 Y149.184
G01 X9.390 Y149.198
G01 X9.458 Y149.249
G01 X9.476 Y149.262
G01 X9.485 Y149.268
G01 X9.568 Y149.317
G01 X9.587 Y149.328
G01 X9.607 Y149.338
G01 X9.694 Y149.379
G01 X9.704 Y149.384
G01 X9.725 Y149.392
G01 X9.805 Y149.420
G01 X9.826 Y149.427
G01 X9.851 Y149.434
G01 X11.018
G01 X9.851
G01 X9.826 Y149.441
G01 X9.805 Y149.448
G01 X9.715 Y149.480
G01 X9.704 Y149.485
G01 X9.684 Y149.493
G01 X9.607 Y149.530
G01 X9.587 Y149.540
G01 X9.578 Y149.545
G01 X9.485 Y149.600
G01 X9.476 Y149.607
G01 X9.458 Y149.619
G01 X9.390 Y149.670
G01 X9.372 Y149.684
G01 X9.355 Y149.698
G01 X9.292 Y149.755
G01 X9.276 Y149.771
G01 X9.261 Y149.787
G01 X9.204 Y149.850
G01 X9.189 Y149.867
G01 X9.176 Y149.884
G01 X9.125 Y149.953
G01 X9.112 Y149.971
G01 X9.100 Y149.989
G01 X9.056 Y150.063
G01 X9.045 Y150.082
G01 X9.035 Y150.102
G01 X8.999 Y150.179
G01 X8.990 Y150.199
G01 X8.986 Y150.209
G01 X8.953 Y150.300
G01 X8.946 Y150.321
G01 X8.940 Y150.342
G01 X8.920 Y150.425
G01 X8.915 Y150.447
G01 X8.911 Y150.468
G01 X8.899 Y150.553
G01 X8.896 Y150.575
G01 X8.894 Y150.597
G01 X8.890 Y150.682
G01 Y150.704
G01 Y150.726
G01 X8.894 Y150.811
G01 X8.896 Y150.833
G01 X8.899 Y150.855
G01 X8.911 Y150.940
G01 X8.915 Y150.962
G01 X8.920 Y150.983
G01 X8.940 Y151.066
G01 X8.946 Y151.087
G01 X8.953 Y151.108
G01 X8.982 Y151.189
G01 X8.990 Y151.209
G01 X8.999 Y151.229
G01 X9.035 Y151.307
G01 X9.045 Y151.326
G01 X9.056 Y151.346
G01 X9.100 Y151.419
G01 X9.112 Y151.437
G01 X9.125 Y151.455
G01 X9.176 Y151.524
G01 X9.189 Y151.541
G01 X9.204 Y151.558
G01 X9.261 Y151.621
G01 X9.276 Y151.637
G01 X9.292 Y151.653
G01 X9.355 Y151.710
G01 X9.372 Y151.724
G01 X9.390 Y151.738
G01 X9.458 Y151.789
G01 X9.476 Y151.802
G01 X9.495 Y151.813
G01 X9.568 Y151.857
G01 X9.587 Y151.868
G01 X9.607 Y151.878
G01 X9.684 Y151.915
G01 X9.704 Y151.924
G01 X9.715 Y151.928
G01 X9.805 Y151.960
G01 X9.826 Y151.967
G01 X9.851 Y151.974
G01 X11.018
G01 X9.851
G01 X9.826 Y151.981
G01 X9.805 Y151.988
G01 X9.715 Y152.020
G01 X9.704 Y152.025
G01 X9.684 Y152.033
G01 X9.607 Y152.070
G01 X9.587 Y152.080
G01 X9.568 Y152.091
G01 X9.495 Y152.135
G01 X9.476 Y152.147
G01 X9.467 Y152.153
G01 X9.390 Y152.210
G01 X9.372 Y152.224
G01 X9.355 Y152.238
G01 X9.292 Y152.295
G01 X9.276 Y152.311
G01 X9.261 Y152.327
G01 X9.204 Y152.390
G01 X9.189 Y152.407
G01 X9.176 Y152.424
G01 X9.118 Y152.502
G01 X9.112 Y152.511
G01 X9.100 Y152.529
G01 X9.056 Y152.603
G01 X9.045 Y152.622
G01 X9.035 Y152.642
G01 X8.999 Y152.719
G01 X8.994 Y152.729
G01 X8.986 Y152.749
G01 X8.953 Y152.840
G01 X8.946 Y152.861
G01 X8.940 Y152.882
G01 X8.920 Y152.965
G01 X8.915 Y152.987
G01 X8.911 Y153.008
G01 X8.899 Y153.093
G01 X8.896 Y153.115
G01 X8.894 Y153.137
G01 X8.890 Y153.222
G01 Y153.244
G01 Y153.266
G01 X8.895 Y153.362
G01 X8.897 Y153.384
G01 X8.899 Y153.395
G01 X8.911 Y153.480
G01 X8.915 Y153.502
G01 X8.920 Y153.523
G01 X8.940 Y153.606
G01 X8.946 Y153.627
G01 X8.953 Y153.648
G01 X8.982 Y153.729
G01 X8.990 Y153.749
G01 X8.999 Y153.769
G01 X9.035 Y153.847
G01 X9.045 Y153.866
G01 X9.056 Y153.886
G01 X9.100 Y153.959
G01 X9.112 Y153.977
G01 X9.125 Y153.995
G01 X9.176 Y154.064
G01 X9.189 Y154.081
G01 X9.204 Y154.098
G01 X9.261 Y154.161
G01 X9.276 Y154.177
G01 X9.292 Y154.193
G01 X9.355 Y154.250
G01 X9.372 Y154.264
G01 X9.390 Y154.278
G01 X9.458 Y154.329
G01 X9.476 Y154.342
G01 X9.495 Y154.353
G01 X9.568 Y154.397
G01 X9.587 Y154.408
G01 X9.607 Y154.418
G01 X9.684 Y154.455
G01 X9.704 Y154.464
G01 X9.715 Y154.468
G01 X9.805 Y154.500
G01 X9.826 Y154.507
G01 X9.851 Y154.514
G01 X11.018
G01 X9.851
G01 X9.826 Y154.521
G01 X9.805 Y154.528
G01 X9.715 Y154.560
G01 X9.704 Y154.565
G01 X9.684 Y154.573
G01 X9.607 Y154.610
G01 X9.587 Y154.620
G01 X9.568 Y154.631
G01 X9.495 Y154.675
G01 X9.476 Y154.687
G01 X9.467 Y154.693
G01 X9.390 Y154.750
G01 X9.372 Y154.764
G01 X9.355 Y154.778
G01 X9.292 Y154.835
G01 X9.276 Y154.851
G01 X9.261 Y154.867
G01 X9.204 Y154.930
G01 X9.189 Y154.947
G01 X9.176 Y154.964
G01 X9.118 Y155.041
G01 X9.106 Y155.060
G01 X9.100 Y155.069
G01 X9.056 Y155.142
G01 X9.045 Y155.162
G01 X9.035 Y155.182
G01 X8.999 Y155.259
G01 X8.990 Y155.279
G01 X8.986 Y155.289
G01 X8.953 Y155.380
G01 X8.946 Y155.401
G01 X8.940 Y155.422
G01 X8.920 Y155.505
G01 X8.915 Y155.527
G01 X8.911 Y155.548
G01 X8.899 Y155.633
G01 X8.896 Y155.655
G01 X8.894 Y155.677
G01 X8.890 Y155.762
G01 Y155.784
G01 Y155.806
G01 X8.895 Y155.902
G01 X8.897 Y155.924
G01 X8.899 Y155.935
G01 X8.911 Y156.020
G01 X8.915 Y156.042
G01 X8.920 Y156.063
G01 X8.940 Y156.146
G01 X8.946 Y156.167
G01 X8.953 Y156.188
G01 X8.982 Y156.269
G01 X8.990 Y156.289
G01 X8.999 Y156.309
G01 X9.035 Y156.387
G01 X9.045 Y156.406
G01 X9.056 Y156.426
G01 X9.100 Y156.499
G01 X9.112 Y156.517
G01 X9.125 Y156.535
G01 X9.176 Y156.604
G01 X9.189 Y156.621
G01 X9.204 Y156.638
G01 X9.261 Y156.701
G01 X9.276 Y156.717
G01 X9.292 Y156.733
G01 X9.355 Y156.790
G01 X9.372 Y156.804
G01 X9.390 Y156.818
G01 X9.458 Y156.869
G01 X9.476 Y156.882
G01 X9.495 Y156.893
G01 X9.568 Y156.937
G01 X9.587 Y156.948
G01 X9.607 Y156.958
G01 X9.684 Y156.995
G01 X9.694 Y156.999
G01 X9.715 Y157.008
G01 X9.805 Y157.040
G01 X9.826 Y157.047
G01 X9.851 Y157.054
G01 X11.018
G01 X9.851
G01 X9.826 Y157.061
G01 X9.805 Y157.068
G01 X9.715 Y157.100
G01 X9.694 Y157.109
G01 X9.684 Y157.113
G01 X9.607 Y157.150
G01 X9.587 Y157.160
G01 X9.568 Y157.171
G01 X9.495 Y157.215
G01 X9.476 Y157.227
G01 X9.467 Y157.233
G01 X9.390 Y157.290
G01 X9.372 Y157.304
G01 X9.355 Y157.318
G01 X9.292 Y157.375
G01 X9.276 Y157.391
G01 X9.261 Y157.407
G01 X9.204 Y157.470
G01 X9.189 Y157.487
G01 X9.176 Y157.504
G01 X9.118 Y157.582
G01 X9.112 Y157.591
G01 X9.100 Y157.609
G01 X9.056 Y157.683
G01 X9.045 Y157.702
G01 X9.035 Y157.722
G01 X8.999 Y157.799
G01 X8.990 Y157.819
G01 X8.986 Y157.829
G01 X8.953 Y157.920
G01 X8.946 Y157.941
G01 X8.940 Y157.962
G01 X8.920 Y158.045
G01 X8.915 Y158.067
G01 X8.911 Y158.088
G01 X8.899 Y158.173
G01 X8.896 Y158.195
G01 X8.894 Y158.217
G01 X8.890 Y158.302
G01 Y158.324
G01 Y158.346
G01 X8.894 Y158.431
G01 X8.896 Y158.453
G01 X8.897 Y158.464
G01 X8.911 Y158.560
G01 X8.915 Y158.582
G01 X8.920 Y158.603
G01 X8.940 Y158.686
G01 X8.946 Y158.707
G01 X8.953 Y158.728
G01 X8.982 Y158.808
G01 X8.990 Y158.829
G01 X8.999 Y158.849
G01 X9.035 Y158.927
G01 X9.045 Y158.946
G01 X9.056 Y158.966
G01 X9.100 Y159.039
G01 X9.112 Y159.057
G01 X9.125 Y159.075
G01 X9.176 Y159.144
G01 X9.189 Y159.161
G01 X9.204 Y159.178
G01 X9.261 Y159.241
G01 X9.276 Y159.257
G01 X9.292 Y159.273
G01 X9.355 Y159.330
G01 X9.372 Y159.344
G01 X9.390 Y159.358
G01 X9.458 Y159.409
G01 X9.476 Y159.421
G01 X9.495 Y159.433
G01 X9.568 Y159.477
G01 X9.587 Y159.488
G01 X9.607 Y159.498
G01 X9.684 Y159.535
G01 X9.694 Y159.539
G01 X9.715 Y159.548
G01 X9.805 Y159.580
G01 X9.826 Y159.587
G01 X9.851 Y159.594
G01 X11.018
G01 X9.851
G01 X9.826 Y159.601
G01 X9.805 Y159.608
G01 X9.715 Y159.640
G01 X9.694 Y159.649
G01 X9.684 Y159.653
G01 X9.607 Y159.690
G01 X9.587 Y159.700
G01 X9.568 Y159.711
G01 X9.495 Y159.755
G01 X9.485 Y159.760
G01 X9.467 Y159.773
G01 X9.390 Y159.830
G01 X9.372 Y159.844
G01 X9.355 Y159.858
G01 X9.292 Y159.915
G01 X9.276 Y159.931
G01 X9.261 Y159.947
G01 X9.204 Y160.010
G01 X9.189 Y160.027
G01 X9.176 Y160.044
G01 X9.118 Y160.122
G01 X9.112 Y160.131
G01 X9.100 Y160.149
G01 X9.056 Y160.223
G01 X9.045 Y160.242
G01 X9.035 Y160.262
G01 X8.999 Y160.339
G01 X8.990 Y160.359
G01 X8.986 Y160.369
G01 X8.953 Y160.460
G01 X8.946 Y160.481
G01 X8.940 Y160.502
G01 X8.920 Y160.585
G01 X8.915 Y160.607
G01 X8.911 Y160.628
G01 X8.899 Y160.713
G01 X8.896 Y160.735
G01 X8.894 Y160.757
G01 X8.890 Y160.842
G01 Y160.864
G01 Y160.886
G01 X8.895 Y160.982
G01 X8.897 Y161.004
G01 X8.899 Y161.015
G01 X8.911 Y161.100
G01 X8.915 Y161.122
G01 X8.920 Y161.143
G01 X8.940 Y161.226
G01 X8.946 Y161.247
G01 X8.953 Y161.268
G01 X8.982 Y161.349
G01 X8.990 Y161.369
G01 X8.999 Y161.389
G01 X9.035 Y161.467
G01 X9.045 Y161.486
G01 X9.056 Y161.505
G01 X9.100 Y161.579
G01 X9.112 Y161.597
G01 X9.125 Y161.615
G01 X9.176 Y161.684
G01 X9.182 Y161.693
G01 X9.196 Y161.710
G01 X9.261 Y161.781
G01 X9.276 Y161.797
G01 X9.284 Y161.805
G01 X9.364 Y161.877
G01 X9.381 Y161.891
G01 X9.390 Y161.898
G01 X9.467 Y161.955
G01 X9.476 Y161.962
G01 X9.495 Y161.973
G01 X9.568 Y162.017
G01 X9.587 Y162.028
G01 X9.607 Y162.038
G01 X9.684 Y162.075
G01 X9.704 Y162.084
G01 X9.725 Y162.092
G01 X9.805 Y162.120
G01 X9.826 Y162.127
G01 X9.848 Y162.133
G01 X9.930 Y162.154
G01 X9.952 Y162.159
G01 X9.974 Y162.162
G01 X10.058 Y162.175
G01 X10.080 Y162.178
G01 X10.102 Y162.179
G01 X10.187 Y162.183
G01 X10.210 Y162.184
G01 X10.623
G00 Z5.0000
G00 X1.246 Y145.622
G01 F120.00
G01 Z-0.2500
G01 F240.00
G01 X1.184 Y165.162
G01 Y165.184
G01 X1.186 Y165.219
G01 X1.191 Y165.253
G01 X1.195 Y165.275
G01 X1.199 Y165.296
G01 X1.205 Y165.319
G01 X1.212 Y165.341
G01 X1.219 Y165.363
G01 X1.227 Y165.384
G01 X1.232 Y165.394
G01 X1.242 Y165.415
G01 X1.252 Y165.435
G01 X1.263 Y165.454
G01 X1.275 Y165.474
G01 X1.281 Y165.484
G01 X1.294 Y165.502
G01 X1.315 Y165.529
G01 X1.329 Y165.546
G01 X1.345 Y165.564
G01 X6.045 Y170.264
G01 X6.061 Y170.279
G01 X6.079 Y170.295
G01 X6.096 Y170.309
G01 X6.115 Y170.323
G01 X6.133 Y170.336
G01 X6.151 Y170.348
G01 X6.172 Y170.360
G01 X6.191 Y170.370
G01 X6.212 Y170.380
G01 X6.233 Y170.389
G01 X6.253 Y170.397
G01 X6.275 Y170.405
G01 X6.297 Y170.411
G01 X6.319 Y170.417
G01 X6.341 Y170.422
G01 X6.363 Y170.426
G01 X6.386 Y170.429
G01 X6.408 Y170.431
G01 X6.431 Y170.433
G01 X6.453
G01 X128.335
G01 X128.357 Y170.432
G01 X128.380 Y170.431
G01 X128.402 Y170.429
G01 X128.436 Y170.424
G01 X128.458 Y170.420
G01 X128.481 Y170.414
G01 X128.502 Y170.408
G01 X128.535 Y170.397
G01 X128.556 Y170.389
G01 X128.576 Y170.380
G01 X128.607 Y170.365
G01 X128.637 Y170.348
G01 X128.655 Y170.336
G01 X128.673 Y170.323
G01 X128.701 Y170.302
G01 X128.717 Y170.288
G01 X128.735 Y170.272
G01 X133.436 Y165.571
G01 X133.451 Y165.555
G01 X133.467 Y165.537
G01 X133.481 Y165.520
G01 X133.502 Y165.492
G01 X133.514 Y165.474
G01 X133.526 Y165.454
G01 X133.537 Y165.435
G01 X133.552 Y165.404
G01 X133.561 Y165.383
G01 X133.569 Y165.363
G01 X133.577 Y165.341
G01 X133.583 Y165.319
G01 X133.592 Y165.286
G01 X133.596 Y165.264
G01 X133.600 Y165.241
G01 X133.602 Y165.219
G01 X133.604 Y165.197
G01 X133.605 Y165.163
G01 Y6.186
G01 X133.604 Y6.163
G01 X133.602 Y6.141
G01 X133.599 Y6.112
G01 X133.594 Y6.085
G01 X133.588 Y6.057
G01 X133.580 Y6.030
G01 X133.573 Y6.009
G01 X133.561 Y5.977
G01 X133.551 Y5.955
G01 X133.537 Y5.925
G01 X133.520 Y5.895
G01 X133.508 Y5.877
G01 X133.491 Y5.853
G01 X133.474 Y5.831
G01 X133.460 Y5.815
G01 X133.444 Y5.797
G01 X128.743 Y1.096
G01 X128.727 Y1.081
G01 X128.709 Y1.065
G01 X128.692 Y1.051
G01 X128.664 Y1.030
G01 X128.646 Y1.018
G01 X128.626 Y1.006
G01 X128.607 Y0.995
G01 X128.576 Y0.980
G01 X128.555 Y0.971
G01 X128.535 Y0.963
G01 X128.513 Y0.955
G01 X128.491 Y0.949
G01 X128.458 Y0.940
G01 X128.436 Y0.936
G01 X128.413 Y0.932
G01 X128.391 Y0.930
G01 X128.369 Y0.928
G01 X128.335 Y0.927
G01 X6.961
G01 X6.939 Y0.928
G01 X6.916 Y0.929
G01 X6.894 Y0.931
G01 X6.860 Y0.936
G01 X6.838 Y0.940
G01 X6.815 Y0.946
G01 X6.794 Y0.952
G01 X6.761 Y0.963
G01 X6.740 Y0.971
G01 X6.720 Y0.980
G01 X6.689 Y0.995
G01 X6.659 Y1.012
G01 X6.641 Y1.024
G01 X6.623 Y1.037
G01 X6.595 Y1.058
G01 X6.579 Y1.072
G01 X6.561 Y1.088
G01 X1.859 Y5.790
G01 X1.844 Y5.806
G01 X1.828 Y5.824
G01 X1.814 Y5.841
G01 X1.794 Y5.868
G01 X1.782 Y5.887
G01 X1.769 Y5.907
G01 X1.758 Y5.926
G01 X1.743 Y5.957
G01 X1.734 Y5.977
G01 X1.726 Y5.997
G01 X1.719 Y6.019
G01 X1.712 Y6.040
G01 X1.704 Y6.074
G01 X1.699 Y6.095
G01 X1.696 Y6.118
G01 X1.693 Y6.140
G01 X1.691 Y6.174
G01 X1.690 Y6.196
G01 X1.246 Y145.622
G00 Z5.0000
G00 X9.924 Y131.704
G01 F120.00
G01 Z-0.2500
G01 F240.00
G01 X12.671 Y134.450
G01 X12.704 Y134.481
G01 X12.721 Y134.495
G01 X12.738 Y134.509
G01 X12.766 Y134.529
G01 X12.784 Y134.542
G01 X12.793 Y134.548
G01 X12.842 Y134.577
G01 X12.861 Y134.587
G01 X12.871 Y134.592
G01 X12.902 Y134.607
G01 X12.922 Y134.616
G01 X12.943 Y134.624
G01 X12.986 Y134.639
G01 X13.007 Y134.645
G01 X13.018 Y134.648
G01 X13.051 Y134.657
G01 X13.072 Y134.661
G01 X13.094 Y134.665
G01 X13.139 Y134.672
G01 X13.150 Y134.673
G01 X13.172 Y134.674
G01 X13.206 Y134.676
G01 X13.229 Y134.677
G01 X17.920
G01 X17.981 Y134.744
G01 X17.988 Y134.753
G01 X18.004 Y134.768
G01 X18.079 Y134.836
G01 X18.087 Y134.843
G01 X18.104 Y134.856
G01 X18.168 Y134.903
G01 X18.186 Y134.916
G01 X18.204 Y134.928
G01 X18.272 Y134.968
G01 X18.291 Y134.979
G01 X18.301 Y134.984
G01 X18.392 Y135.027
G01 X18.412 Y135.036
G01 X18.422 Y135.039
G01 X18.496 Y135.066
G01 X18.517 Y135.073
G01 X18.538 Y135.079
G01 X18.615 Y135.098
G01 X18.636 Y135.103
G01 X18.658 Y135.106
G01 X18.736 Y135.118
G01 X18.758 Y135.121
G01 X18.780 Y135.122
G01 X18.858 Y135.126
G01 X18.880 Y135.127
G01 X18.902 Y135.126
G01 X18.981 Y135.122
G01 X19.003 Y135.121
G01 X19.024 Y135.118
G01 X19.113 Y135.105
G01 X19.124 Y135.103
G01 X19.145 Y135.098
G01 X19.222 Y135.079
G01 X19.243 Y135.073
G01 X19.253 Y135.069
G01 X19.338 Y135.039
G01 X19.358 Y135.031
G01 X19.379 Y135.022
G01 X19.450 Y134.989
G01 X19.469 Y134.979
G01 X19.489 Y134.968
G01 X19.556 Y134.928
G01 X19.565 Y134.922
G01 X19.584 Y134.910
G01 X19.656 Y134.856
G01 X19.673 Y134.843
G01 X19.690 Y134.828
G01 X19.748 Y134.776
G01 X19.764 Y134.760
G01 X19.779 Y134.744
G01 X19.832 Y134.686
G01 X19.846 Y134.670
G01 X19.860 Y134.652
G01 X19.907 Y134.589
G01 X19.919 Y134.571
G01 X19.931 Y134.552
G01 X19.972 Y134.485
G01 X19.982 Y134.466
G01 X19.992 Y134.446
G01 X20.026 Y134.375
G01 X20.031 Y134.365
G01 X20.039 Y134.345
G01 X20.069 Y134.260
G01 X20.076 Y134.239
G01 X20.079 Y134.229
G01 X20.104 Y134.131
G01 X20.106 Y134.120
G01 X20.110 Y134.099
G01 X20.123 Y134.010
G01 X20.124 Y133.999
G01 X20.126 Y133.977
G01 X20.130 Y133.899
G01 Y133.877
G01 Y133.854
G01 X20.126 Y133.776
G01 X20.124 Y133.754
G01 X20.121 Y133.732
G01 X20.110 Y133.654
G01 X20.106 Y133.633
G01 X20.101 Y133.611
G01 X20.082 Y133.535
G01 X20.076 Y133.514
G01 X20.069 Y133.493
G01 X20.043 Y133.419
G01 X20.035 Y133.398
G01 X20.026 Y133.378
G01 X19.992 Y133.307
G01 X19.982 Y133.287
G01 X19.972 Y133.268
G01 X19.931 Y133.201
G01 X19.919 Y133.182
G01 X19.907 Y133.164
G01 X19.860 Y133.101
G01 X19.846 Y133.084
G01 X19.832 Y133.067
G01 X19.779 Y133.009
G01 X19.764 Y132.993
G01 X19.748 Y132.977
G01 X19.690 Y132.925
G01 X19.673 Y132.910
G01 X19.656 Y132.897
G01 X19.593 Y132.850
G01 X19.575 Y132.837
G01 X19.556 Y132.825
G01 X19.489 Y132.785
G01 X19.469 Y132.774
G01 X19.459 Y132.769
G01 X19.379 Y132.731
G01 X19.358 Y132.722
G01 X19.338 Y132.714
G01 X19.264 Y132.687
G01 X19.243 Y132.680
G01 X19.222 Y132.674
G01 X19.145 Y132.655
G01 X19.124 Y132.651
G01 X19.102 Y132.647
G01 X19.024 Y132.635
G01 X19.003 Y132.633
G01 X18.981 Y132.631
G01 X18.902 Y132.627
G01 X18.880
G01 X18.858
G01 X18.780 Y132.631
G01 X18.758 Y132.633
G01 X18.736 Y132.635
G01 X18.658 Y132.647
G01 X18.636 Y132.651
G01 X18.615 Y132.655
G01 X18.538 Y132.674
G01 X18.517 Y132.680
G01 X18.496 Y132.687
G01 X18.422 Y132.714
G01 X18.402 Y132.722
G01 X18.382 Y132.731
G01 X18.311 Y132.764
G01 X18.291 Y132.774
G01 X18.272 Y132.785
G01 X18.204 Y132.825
G01 X18.186 Y132.837
G01 X18.168 Y132.850
G01 X18.104 Y132.897
G01 X18.087 Y132.910
G01 X18.070 Y132.925
G01 X18.012 Y132.977
G01 X17.996 Y132.993
G01 X17.981 Y133.009
G01 X17.920 Y133.076
G01 X13.560
G01 X11.230 Y130.746
G01 X11.251 Y130.663
G01 X11.256 Y130.642
G01 X11.259 Y130.620
G01 X11.272 Y130.535
G01 X11.275 Y130.513
G01 X11.276 Y130.491
G01 X11.281 Y130.406
G01 Y130.384
G01 Y130.362
G01 X11.276 Y130.277
G01 X11.275 Y130.255
G01 X11.272 Y130.233
G01 X11.259 Y130.148
G01 X11.256 Y130.127
G01 X11.251 Y130.105
G01 X11.230 Y130.022
G01 X11.224 Y130.001
G01 X11.217 Y129.980
G01 X11.189 Y129.900
G01 X11.181 Y129.879
G01 X11.172 Y129.859
G01 X11.135 Y129.782
G01 X11.125 Y129.762
G01 X11.120 Y129.752
G01 X11.070 Y129.669
G01 X11.059 Y129.651
G01 X11.046 Y129.633
G01 X10.995 Y129.564
G01 X10.981 Y129.547
G01 X10.967 Y129.530
G01 X10.910 Y129.467
G01 X10.894 Y129.451
G01 X10.878 Y129.435
G01 X10.815 Y129.378
G01 X10.807 Y129.371
G01 X10.790 Y129.357
G01 X10.712 Y129.299
G01 X10.694 Y129.287
G01 X10.676 Y129.275
G01 X10.603 Y129.231
G01 X10.593 Y129.225
G01 X10.573 Y129.215
G01 X10.486 Y129.173
G01 X10.476 Y129.169
G01 X10.456 Y129.160
G01 X10.355 Y129.124
G01 X10.334 Y129.118
G01 X10.319 Y129.114
G01 X10.344 Y129.107
G01 X10.365 Y129.100
G01 X10.456 Y129.068
G01 X10.466 Y129.064
G01 X10.486 Y129.055
G01 X10.564 Y129.018
G01 X10.583 Y129.008
G01 X10.603 Y128.997
G01 X10.676 Y128.953
G01 X10.694 Y128.942
G01 X10.712 Y128.929
G01 X10.781 Y128.878
G01 X10.798 Y128.864
G01 X10.815 Y128.850
G01 X10.887 Y128.785
G01 X10.902 Y128.770
G01 X10.910 Y128.761
G01 X10.974 Y128.690
G01 X10.988 Y128.673
G01 X11.010 Y128.644
G01 X12.961
G01 X15.266 Y130.950
G01 X15.282 Y130.965
G01 X15.308 Y130.988
G01 X15.324 Y131.003
G01 X15.342 Y131.016
G01 X15.378 Y131.043
G01 X15.397 Y131.055
G01 X15.436 Y131.079
G01 X15.455 Y131.090
G01 X15.465 Y131.095
G01 X15.506 Y131.114
G01 X15.526 Y131.123
G01 X15.546 Y131.131
G01 X15.589 Y131.146
G01 X15.610 Y131.153
G01 X15.621 Y131.156
G01 X15.665 Y131.167
G01 X15.687 Y131.171
G01 X15.732 Y131.178
G01 X15.754 Y131.180
G01 X15.776 Y131.182
G01 X15.810 Y131.184
G01 X15.832
G01 X17.920
G01 X17.988 Y131.260
G01 X18.004 Y131.276
G01 X18.012 Y131.283
G01 X18.070 Y131.336
G01 X18.087 Y131.350
G01 X18.104 Y131.364
G01 X18.168 Y131.411
G01 X18.186 Y131.423
G01 X18.204 Y131.435
G01 X18.272 Y131.476
G01 X18.291 Y131.486
G01 X18.311 Y131.496
G01 X18.382 Y131.530
G01 X18.402 Y131.539
G01 X18.422 Y131.547
G01 X18.496 Y131.573
G01 X18.517 Y131.580
G01 X18.538 Y131.586
G01 X18.615 Y131.605
G01 X18.636 Y131.610
G01 X18.658 Y131.614
G01 X18.736 Y131.625
G01 X18.758 Y131.628
G01 X18.780 Y131.630
G01 X18.858 Y131.634
G01 X18.869
G01 X18.891
G01 X18.992 Y131.629
G01 X19.014 Y131.627
G01 X19.024 Y131.625
G01 X19.102 Y131.614
G01 X19.124 Y131.610
G01 X19.135 Y131.608
G01 X19.222 Y131.586
G01 X19.243 Y131.580
G01 X19.264 Y131.573
G01 X19.338 Y131.547
G01 X19.358 Y131.539
G01 X19.379 Y131.530
G01 X19.450 Y131.496
G01 X19.469 Y131.486
G01 X19.489 Y131.476
G01 X19.556 Y131.435
G01 X19.575 Y131.423
G01 X19.593 Y131.411
G01 X19.656 Y131.364
G01 X19.673 Y131.350
G01 X19.690 Y131.336
G01 X19.748 Y131.283
G01 X19.764 Y131.268
G01 X19.779 Y131.252
G01 X19.832 Y131.194
G01 X19.846 Y131.177
G01 X19.860 Y131.160
G01 X19.907 Y131.097
G01 X19.919 Y131.079
G01 X19.931 Y131.060
G01 X19.972 Y130.993
G01 X19.982 Y130.973
G01 X19.992 Y130.954
G01 X20.026 Y130.883
G01 X20.035 Y130.862
G01 X20.043 Y130.842
G01 X20.069 Y130.768
G01 X20.076 Y130.747
G01 X20.082 Y130.726
G01 X20.101 Y130.649
G01 X20.106 Y130.628
G01 X20.110 Y130.606
G01 X20.121 Y130.528
G01 X20.124 Y130.507
G01 X20.126 Y130.485
G01 X20.130 Y130.406
G01 Y130.384
G01 Y130.362
G01 X20.126 Y130.284
G01 X20.124 Y130.262
G01 X20.121 Y130.240
G01 X20.110 Y130.162
G01 X20.106 Y130.140
G01 X20.101 Y130.119
G01 X20.082 Y130.042
G01 X20.076 Y130.021
G01 X20.069 Y130.000
G01 X20.043 Y129.926
G01 X20.035 Y129.906
G01 X20.026 Y129.886
G01 X19.992 Y129.815
G01 X19.982 Y129.795
G01 X19.972 Y129.776
G01 X19.931 Y129.708
G01 X19.919 Y129.690
G01 X19.907 Y129.672
G01 X19.860 Y129.608
G01 X19.846 Y129.591
G01 X19.832 Y129.574
G01 X19.779 Y129.516
G01 X19.764 Y129.500
G01 X19.748 Y129.485
G01 X19.690 Y129.432
G01 X19.673 Y129.418
G01 X19.656 Y129.404
G01 X19.593 Y129.357
G01 X19.575 Y129.345
G01 X19.556 Y129.333
G01 X19.489 Y129.293
G01 X19.469 Y129.282
G01 X19.450 Y129.272
G01 X19.369 Y129.234
G01 X19.358 Y129.229
G01 X19.338 Y129.221
G01 X19.264 Y129.195
G01 X19.243 Y129.188
G01 X19.222 Y129.182
G01 X19.145 Y129.163
G01 X19.124 Y129.158
G01 X19.102 Y129.154
G01 X19.024 Y129.143
G01 X19.003 Y129.140
G01 X18.981 Y129.138
G01 X18.902 Y129.135
G01 X18.880 Y129.134
G01 X18.858 Y129.135
G01 X18.780 Y129.138
G01 X18.758 Y129.140
G01 X18.736 Y129.143
G01 X18.647 Y129.156
G01 X18.625 Y129.160
G01 X18.615 Y129.163
G01 X18.538 Y129.182
G01 X18.517 Y129.188
G01 X18.496 Y129.195
G01 X18.422 Y129.221
G01 X18.402 Y129.229
G01 X18.382 Y129.238
G01 X18.311 Y129.272
G01 X18.291 Y129.282
G01 X18.272 Y129.293
G01 X18.204 Y129.333
G01 X18.186 Y129.345
G01 X18.168 Y129.357
G01 X18.104 Y129.404
G01 X18.087 Y129.418
G01 X18.079 Y129.425
G01 X18.012 Y129.485
G01 X17.996 Y129.500
G01 X17.981 Y129.516
G01 X17.920 Y129.584
G01 X16.163
G01 X13.858 Y127.278
G01 X13.842 Y127.263
G01 X13.816 Y127.240
G01 X13.800 Y127.226
G01 X13.782 Y127.212
G01 X13.755 Y127.191
G01 X13.737 Y127.179
G01 X13.718 Y127.167
G01 X13.679 Y127.144
G01 X13.659 Y127.133
G01 X13.608 Y127.109
G01 X13.588 Y127.101
G01 X13.535 Y127.082
G01 X13.524 Y127.078
G01 X13.503 Y127.072
G01 X13.470 Y127.064
G01 X13.448 Y127.059
G01 X13.426 Y127.055
G01 X13.392 Y127.050
G01 X13.370 Y127.048
G01 X13.359 Y127.047
G01 X13.303 Y127.044
G01 X11.010
G01 X10.988 Y127.015
G01 X10.974 Y126.998
G01 X10.910 Y126.927
G01 X10.902 Y126.919
G01 X10.887 Y126.903
G01 X10.815 Y126.838
G01 X10.798 Y126.824
G01 X10.781 Y126.810
G01 X10.712 Y126.759
G01 X10.694 Y126.747
G01 X10.676 Y126.735
G01 X10.603 Y126.691
G01 X10.583 Y126.680
G01 X10.564 Y126.670
G01 X10.486 Y126.633
G01 X10.476 Y126.629
G01 X10.456 Y126.620
G01 X10.365 Y126.588
G01 X10.344 Y126.581
G01 X10.319 Y126.574
G01 X10.344 Y126.567
G01 X10.365 Y126.560
G01 X10.456 Y126.528
G01 X10.476 Y126.519
G01 X10.486 Y126.515
G01 X10.564 Y126.478
G01 X10.583 Y126.468
G01 X10.603 Y126.457
G01 X10.676 Y126.413
G01 X10.694 Y126.402
G01 X10.712 Y126.389
G01 X10.781 Y126.338
G01 X10.798 Y126.324
G01 X10.815 Y126.310
G01 X10.887 Y126.245
G01 X10.902 Y126.230
G01 X10.910 Y126.221
G01 X10.974 Y126.150
G01 X10.988 Y126.133
G01 X11.010 Y126.104
G01 X13.977
G01 X15.266 Y127.394
G01 X15.282 Y127.409
G01 X15.308 Y127.432
G01 X15.324 Y127.447
G01 X15.333 Y127.453
G01 X15.369 Y127.481
G01 X15.387 Y127.493
G01 X15.406 Y127.505
G01 X15.436 Y127.523
G01 X15.455 Y127.534
G01 X15.465 Y127.539
G01 X15.506 Y127.558
G01 X15.526 Y127.567
G01 X15.546 Y127.575
G01 X15.579 Y127.587
G01 X15.600 Y127.594
G01 X15.610 Y127.597
G01 X15.665 Y127.611
G01 X15.687 Y127.615
G01 X15.698 Y127.617
G01 X15.732 Y127.622
G01 X15.754 Y127.624
G01 X15.776 Y127.626
G01 X15.810 Y127.628
G01 X15.832
G01 X17.920
G01 X17.988 Y127.704
G01 X17.996 Y127.712
G01 X18.012 Y127.727
G01 X18.070 Y127.780
G01 X18.087 Y127.794
G01 X18.104 Y127.808
G01 X18.168 Y127.855
G01 X18.186 Y127.867
G01 X18.204 Y127.879
G01 X18.272 Y127.920
G01 X18.291 Y127.930
G01 X18.311 Y127.940
G01 X18.382 Y127.974
G01 X18.402 Y127.983
G01 X18.422 Y127.991
G01 X18.496 Y128.017
G01 X18.517 Y128.024
G01 X18.538 Y128.030
G01 X18.615 Y128.049
G01 X18.636 Y128.054
G01 X18.658 Y128.058
G01 X18.747 Y128.071
G01 X18.769 Y128.073
G01 X18.780 Y128.074
G01 X18.858 Y128.078
G01 X18.880
G01 X18.902
G01 X18.981 Y128.074
G01 X19.003 Y128.072
G01 X19.024 Y128.069
G01 X19.102 Y128.058
G01 X19.124 Y128.054
G01 X19.145 Y128.049
G01 X19.222 Y128.030
G01 X19.243 Y128.024
G01 X19.264 Y128.017
G01 X19.338 Y127.991
G01 X19.358 Y127.983
G01 X19.379 Y127.974
G01 X19.450 Y127.940
G01 X19.469 Y127.930
G01 X19.489 Y127.920
G01 X19.556 Y127.879
G01 X19.575 Y127.867
G01 X19.593 Y127.855
G01 X19.656 Y127.808
G01 X19.673 Y127.794
G01 X19.690 Y127.780
G01 X19.748 Y127.727
G01 X19.764 Y127.712
G01 X19.779 Y127.696
G01 X19.832 Y127.638
G01 X19.846 Y127.621
G01 X19.860 Y127.604
G01 X19.907 Y127.541
G01 X19.919 Y127.523
G01 X19.931 Y127.504
G01 X19.972 Y127.437
G01 X19.982 Y127.417
G01 X19.992 Y127.398
G01 X20.026 Y127.327
G01 X20.031 Y127.317
G01 X20.039 Y127.296
G01 X20.073 Y127.201
G01 X20.079 Y127.180
G01 X20.082 Y127.170
G01 X20.101 Y127.093
G01 X20.106 Y127.072
G01 X20.110 Y127.050
G01 X20.121 Y126.972
G01 X20.124 Y126.951
G01 X20.125 Y126.940
G01 X20.130 Y126.850
G01 Y126.828
G01 Y126.806
G01 X20.126 Y126.728
G01 X20.124 Y126.706
G01 X20.121 Y126.684
G01 X20.110 Y126.606
G01 X20.106 Y126.584
G01 X20.101 Y126.563
G01 X20.082 Y126.486
G01 X20.076 Y126.465
G01 X20.069 Y126.444
G01 X20.043 Y126.370
G01 X20.035 Y126.350
G01 X20.026 Y126.330
G01 X19.992 Y126.259
G01 X19.982 Y126.239
G01 X19.972 Y126.220
G01 X19.931 Y126.152
G01 X19.919 Y126.134
G01 X19.907 Y126.116
G01 X19.860 Y126.052
G01 X19.846 Y126.035
G01 X19.832 Y126.018
G01 X19.779 Y125.960
G01 X19.764 Y125.944
G01 X19.748 Y125.929
G01 X19.690 Y125.876
G01 X19.673 Y125.862
G01 X19.664 Y125.855
G01 X19.584 Y125.795
G01 X19.565 Y125.783
G01 X19.556 Y125.777
G01 X19.479 Y125.731
G01 X19.469 Y125.726
G01 X19.450 Y125.716
G01 X19.379 Y125.682
G01 X19.358 Y125.673
G01 X19.338 Y125.665
G01 X19.264 Y125.639
G01 X19.243 Y125.632
G01 X19.222 Y125.626
G01 X19.145 Y125.607
G01 X19.124 Y125.602
G01 X19.113 Y125.600
G01 X19.024 Y125.587
G01 X19.003 Y125.584
G01 X18.981 Y125.582
G01 X18.891 Y125.578
G01 X18.869
G01 X18.858 Y125.579
G01 X18.780 Y125.582
G01 X18.758 Y125.584
G01 X18.736 Y125.587
G01 X18.658 Y125.598
G01 X18.636 Y125.602
G01 X18.615 Y125.607
G01 X18.528 Y125.629
G01 X18.507 Y125.635
G01 X18.496 Y125.639
G01 X18.422 Y125.665
G01 X18.402 Y125.673
G01 X18.382 Y125.682
G01 X18.311 Y125.716
G01 X18.291 Y125.726
G01 X18.272 Y125.737
G01 X18.204 Y125.777
G01 X18.186 Y125.789
G01 X18.168 Y125.801
G01 X18.104 Y125.848
G01 X18.087 Y125.862
G01 X18.070 Y125.876
G01 X18.012 Y125.929
G01 X17.996 Y125.944
G01 X17.981 Y125.960
G01 X17.920 Y126.028
G01 X16.163
G01 X14.874 Y124.738
G01 X14.858 Y124.723
G01 X14.832 Y124.700
G01 X14.816 Y124.686
G01 X14.798 Y124.672
G01 X14.771 Y124.651
G01 X14.753 Y124.639
G01 X14.743 Y124.633
G01 X14.704 Y124.609
G01 X14.695 Y124.604
G01 X14.675 Y124.593
G01 X14.624 Y124.569
G01 X14.604 Y124.561
G01 X14.551 Y124.542
G01 X14.530 Y124.535
G01 X14.486 Y124.524
G01 X14.464 Y124.519
G01 X14.442 Y124.515
G01 X14.408 Y124.510
G01 X14.386 Y124.508
G01 X14.364 Y124.506
G01 X14.330 Y124.504
G01 X14.308
G01 X11.010
G01 X10.988 Y124.475
G01 X10.974 Y124.458
G01 X10.910 Y124.387
G01 X10.902 Y124.379
G01 X10.887 Y124.363
G01 X10.815 Y124.298
G01 X10.798 Y124.284
G01 X10.781 Y124.270
G01 X10.712 Y124.219
G01 X10.694 Y124.207
G01 X10.676 Y124.195
G01 X10.603 Y124.151
G01 X10.583 Y124.140
G01 X10.564 Y124.130
G01 X10.486 Y124.093
G01 X10.476 Y124.089
G01 X10.456 Y124.080
G01 X10.365 Y124.048
G01 X10.344 Y124.041
G01 X10.319 Y124.034
G01 X10.344 Y124.027
G01 X10.365 Y124.020
G01 X10.456 Y123.988
G01 X10.476 Y123.979
G01 X10.486 Y123.975
G01 X10.564 Y123.938
G01 X10.583 Y123.928
G01 X10.603 Y123.917
G01 X10.676 Y123.873
G01 X10.694 Y123.862
G01 X10.712 Y123.849
G01 X10.781 Y123.798
G01 X10.798 Y123.784
G01 X10.815 Y123.770
G01 X10.887 Y123.705
G01 X10.902 Y123.690
G01 X10.910 Y123.681
G01 X10.974 Y123.610
G01 X10.988 Y123.593
G01 X11.010 Y123.564
G01 X14.993
G01 X15.274 Y123.846
G01 X15.308 Y123.876
G01 X15.324 Y123.891
G01 X15.342 Y123.904
G01 X15.369 Y123.925
G01 X15.387 Y123.937
G01 X15.397 Y123.943
G01 X15.445 Y123.972
G01 X15.465 Y123.983
G01 X15.516 Y124.007
G01 X15.536 Y124.015
G01 X15.589 Y124.034
G01 X15.610 Y124.041
G01 X15.654 Y124.052
G01 X15.665 Y124.055
G01 X15.687 Y124.059
G01 X15.743 Y124.067
G01 X15.754 Y124.068
G01 X15.776 Y124.070
G01 X15.810 Y124.072
G01 X15.832
G01 X17.920
G01 X17.981 Y124.140
G01 X17.988 Y124.148
G01 X18.004 Y124.164
G01 X18.079 Y124.231
G01 X18.087 Y124.238
G01 X18.104 Y124.252
G01 X18.168 Y124.299
G01 X18.186 Y124.311
G01 X18.204 Y124.323
G01 X18.272 Y124.364
G01 X18.291 Y124.374
G01 X18.301 Y124.380
G01 X18.382 Y124.418
G01 X18.402 Y124.427
G01 X18.422 Y124.435
G01 X18.496 Y124.461
G01 X18.517 Y124.468
G01 X18.538 Y124.474
G01 X18.615 Y124.493
G01 X18.636 Y124.498
G01 X18.658 Y124.502
G01 X18.736 Y124.513
G01 X18.758 Y124.516
G01 X18.780 Y124.518
G01 X18.858 Y124.522
G01 X18.869
G01 X18.891
G01 X18.981 Y124.518
G01 X19.003 Y124.516
G01 X19.024 Y124.513
G01 X19.102 Y124.502
G01 X19.124 Y124.498
G01 X19.145 Y124.493
G01 X19.222 Y124.474
G01 X19.243 Y124.468
G01 X19.264 Y124.461
G01 X19.338 Y124.435
G01 X19.358 Y124.427
G01 X19.379 Y124.418
G01 X19.450 Y124.384
G01 X19.469 Y124.374
G01 X19.489 Y124.364
G01 X19.556 Y124.323
G01 X19.575 Y124.311
G01 X19.593 Y124.299
G01 X19.656 Y124.252
G01 X19.673 Y124.238
G01 X19.690 Y124.224
G01 X19.748 Y124.171
G01 X19.756 Y124.164
G01 X19.772 Y124.148
G01 X19.839 Y124.073
G01 X19.853 Y124.056
G01 X19.860 Y124.048
G01 X19.907 Y123.985
G01 X19.919 Y123.967
G01 X19.931 Y123.948
G01 X19.977 Y123.871
G01 X19.988 Y123.851
G01 X19.992 Y123.842
G01 X20.026 Y123.771
G01 X20.035 Y123.750
G01 X20.043 Y123.730
G01 X20.069 Y123.656
G01 X20.076 Y123.635
G01 X20.082 Y123.614
G01 X20.101 Y123.537
G01 X20.106 Y123.516
G01 X20.110 Y123.494
G01 X20.121 Y123.416
G01 X20.124 Y123.395
G01 X20.126 Y123.373
G01 X20.130 Y123.294
G01 Y123.272
G01 Y123.250
G01 X20.126 Y123.172
G01 X20.124 Y123.150
G01 X20.123 Y123.139
G01 X20.108 Y123.039
G01 X20.104 Y123.017
G01 X20.101 Y123.007
G01 X20.082 Y122.930
G01 X20.076 Y122.909
G01 X20.069 Y122.888
G01 X20.043 Y122.814
G01 X20.035 Y122.794
G01 X20.031 Y122.784
G01 X19.988 Y122.693
G01 X19.977 Y122.673
G01 X19.972 Y122.664
G01 X19.931 Y122.596
G01 X19.919 Y122.578
G01 X19.907 Y122.560
G01 X19.860 Y122.496
G01 X19.846 Y122.479
G01 X19.832 Y122.462
G01 X19.779 Y122.404
G01 X19.764 Y122.388
G01 X19.748 Y122.373
G01 X19.690 Y122.320
G01 X19.673 Y122.306
G01 X19.656 Y122.292
G01 X19.593 Y122.245
G01 X19.575 Y122.233
G01 X19.556 Y122.221
G01 X19.489 Y122.181
G01 X19.469 Y122.170
G01 X19.450 Y122.160
G01 X19.379 Y122.126
G01 X19.358 Y122.117
G01 X19.338 Y122.109
G01 X19.264 Y122.083
G01 X19.253 Y122.079
G01 X19.232 Y122.073
G01 X19.145 Y122.051
G01 X19.124 Y122.046
G01 X19.102 Y122.042
G01 X19.024 Y122.031
G01 X19.003 Y122.028
G01 X18.981 Y122.026
G01 X18.902 Y122.023
G01 X18.880 Y122.022
G01 X18.858 Y122.023
G01 X18.780 Y122.026
G01 X18.758 Y122.028
G01 X18.736 Y122.031
G01 X18.647 Y122.044
G01 X18.625 Y122.048
G01 X18.615 Y122.051
G01 X18.538 Y122.070
G01 X18.528 Y122.073
G01 X18.507 Y122.079
G01 X18.422 Y122.109
G01 X18.402 Y122.117
G01 X18.382 Y122.126
G01 X18.311 Y122.160
G01 X18.291 Y122.170
G01 X18.272 Y122.181
G01 X18.204 Y122.221
G01 X18.186 Y122.233
G01 X18.168 Y122.245
G01 X18.104 Y122.292
G01 X18.087 Y122.306
G01 X18.070 Y122.320
G01 X18.012 Y122.373
G01 X17.996 Y122.388
G01 X17.981 Y122.404
G01 X17.920 Y122.472
G01 X16.163
G01 X15.882 Y122.191
G01 X15.848 Y122.160
G01 X15.832 Y122.146
G01 X15.814 Y122.132
G01 X15.778 Y122.105
G01 X15.769 Y122.099
G01 X15.750 Y122.087
G01 X15.720 Y122.069
G01 X15.701 Y122.058
G01 X15.682 Y122.048
G01 X15.650 Y122.034
G01 X15.630 Y122.025
G01 X15.610 Y122.017
G01 X15.577 Y122.005
G01 X15.556 Y121.998
G01 X15.535 Y121.992
G01 X15.502 Y121.984
G01 X15.480 Y121.979
G01 X15.469 Y121.977
G01 X15.424 Y121.970
G01 X15.402 Y121.968
G01 X15.380 Y121.966
G01 X15.346 Y121.964
G01 X15.324
G01 X11.010
G01 X10.988 Y121.935
G01 X10.974 Y121.918
G01 X10.910 Y121.847
G01 X10.902 Y121.839
G01 X10.887 Y121.823
G01 X10.815 Y121.758
G01 X10.798 Y121.744
G01 X10.781 Y121.730
G01 X10.712 Y121.679
G01 X10.694 Y121.667
G01 X10.676 Y121.655
G01 X10.603 Y121.611
G01 X10.583 Y121.600
G01 X10.564 Y121.590
G01 X10.486 Y121.553
G01 X10.476 Y121.549
G01 X10.456 Y121.540
G01 X10.365 Y121.508
G01 X10.344 Y121.501
G01 X10.319 Y121.494
G01 X10.344 Y121.487
G01 X10.365 Y121.480
G01 X10.456 Y121.448
G01 X10.476 Y121.439
G01 X10.486 Y121.435
G01 X10.564 Y121.398
G01 X10.583 Y121.388
G01 X10.603 Y121.377
G01 X10.676 Y121.333
G01 X10.694 Y121.322
G01 X10.712 Y121.309
G01 X10.781 Y121.258
G01 X10.798 Y121.244
G01 X10.815 Y121.230
G01 X10.887 Y121.165
G01 X10.902 Y121.150
G01 X10.910 Y121.141
G01 X10.974 Y121.070
G01 X10.988 Y121.053
G01 X11.010 Y121.024
G01 X15.324
G01 X15.346
G01 X15.380 Y121.022
G01 X15.402 Y121.020
G01 X15.424 Y121.018
G01 X15.469 Y121.011
G01 X15.480 Y121.009
G01 X15.502 Y121.004
G01 X15.535 Y120.996
G01 X15.556 Y120.990
G01 X15.577 Y120.983
G01 X15.610 Y120.971
G01 X15.630 Y120.963
G01 X15.650 Y120.954
G01 X15.682 Y120.940
G01 X15.701 Y120.930
G01 X15.720 Y120.919
G01 X15.750 Y120.901
G01 X15.769 Y120.889
G01 X15.778 Y120.883
G01 X15.814 Y120.856
G01 X15.832 Y120.843
G01 X15.848 Y120.828
G01 X15.882 Y120.798
G01 X16.163 Y120.516
G01 X17.920
G01 X17.988 Y120.592
G01 X18.004 Y120.608
G01 X18.012 Y120.615
G01 X18.070 Y120.668
G01 X18.087 Y120.682
G01 X18.104 Y120.696
G01 X18.168 Y120.743
G01 X18.186 Y120.755
G01 X18.204 Y120.767
G01 X18.272 Y120.808
G01 X18.291 Y120.818
G01 X18.311 Y120.828
G01 X18.382 Y120.862
G01 X18.402 Y120.871
G01 X18.422 Y120.879
G01 X18.496 Y120.905
G01 X18.517 Y120.912
G01 X18.538 Y120.918
G01 X18.615 Y120.937
G01 X18.636 Y120.942
G01 X18.658 Y120.946
G01 X18.736 Y120.957
G01 X18.758 Y120.960
G01 X18.780 Y120.962
G01 X18.858 Y120.966
G01 X18.880
G01 X18.902
G01 X18.981 Y120.962
G01 X18.992 Y120.961
G01 X19.014 Y120.959
G01 X19.102 Y120.946
G01 X19.113 Y120.944
G01 X19.135 Y120.940
G01 X19.232 Y120.915
G01 X19.253 Y120.909
G01 X19.264 Y120.905
G01 X19.338 Y120.879
G01 X19.358 Y120.871
G01 X19.379 Y120.862
G01 X19.450 Y120.828
G01 X19.469 Y120.818
G01 X19.479 Y120.813
G01 X19.556 Y120.767
G01 X19.575 Y120.755
G01 X19.593 Y120.743
G01 X19.656 Y120.696
G01 X19.673 Y120.682
G01 X19.690 Y120.668
G01 X19.748 Y120.615
G01 X19.764 Y120.600
G01 X19.779 Y120.584
G01 X19.832 Y120.526
G01 X19.846 Y120.509
G01 X19.860 Y120.492
G01 X19.907 Y120.429
G01 X19.919 Y120.411
G01 X19.931 Y120.392
G01 X19.972 Y120.325
G01 X19.982 Y120.305
G01 X19.992 Y120.286
G01 X20.026 Y120.215
G01 X20.035 Y120.194
G01 X20.043 Y120.174
G01 X20.069 Y120.100
G01 X20.076 Y120.079
G01 X20.082 Y120.058
G01 X20.101 Y119.981
G01 X20.106 Y119.960
G01 X20.110 Y119.938
G01 X20.121 Y119.860
G01 X20.124 Y119.839
G01 X20.126 Y119.817
G01 X20.130 Y119.738
G01 Y119.716
G01 Y119.694
G01 X20.126 Y119.616
G01 X20.124 Y119.594
G01 X20.121 Y119.572
G01 X20.110 Y119.494
G01 X20.106 Y119.472
G01 X20.101 Y119.451
G01 X20.082 Y119.374
G01 X20.076 Y119.353
G01 X20.069 Y119.332
G01 X20.043 Y119.258
G01 X20.035 Y119.238
G01 X20.026 Y119.218
G01 X19.992 Y119.147
G01 X19.982 Y119.127
G01 X19.972 Y119.108
G01 X19.931 Y119.040
G01 X19.919 Y119.022
G01 X19.907 Y119.004
G01 X19.860 Y118.940
G01 X19.846 Y118.923
G01 X19.832 Y118.906
G01 X19.779 Y118.848
G01 X19.764 Y118.832
G01 X19.748 Y118.817
G01 X19.690 Y118.764
G01 X19.673 Y118.750
G01 X19.656 Y118.736
G01 X19.593 Y118.689
G01 X19.575 Y118.677
G01 X19.556 Y118.665
G01 X19.489 Y118.625
G01 X19.469 Y118.614
G01 X19.450 Y118.604
G01 X19.379 Y118.570
G01 X19.358 Y118.561
G01 X19.338 Y118.553
G01 X19.264 Y118.527
G01 X19.243 Y118.520
G01 X19.222 Y118.514
G01 X19.145 Y118.495
G01 X19.124 Y118.490
G01 X19.102 Y118.486
G01 X19.024 Y118.475
G01 X19.003 Y118.472
G01 X18.981 Y118.470
G01 X18.902 Y118.467
G01 X18.880 Y118.466
G01 X18.858 Y118.467
G01 X18.780 Y118.470
G01 X18.758 Y118.472
G01 X18.736 Y118.475
G01 X18.658 Y118.486
G01 X18.636 Y118.490
G01 X18.615 Y118.495
G01 X18.538 Y118.514
G01 X18.517 Y118.520
G01 X18.496 Y118.527
G01 X18.422 Y118.553
G01 X18.402 Y118.561
G01 X18.382 Y118.570
G01 X18.311 Y118.604
G01 X18.291 Y118.614
G01 X18.272 Y118.625
G01 X18.204 Y118.665
G01 X18.195 Y118.671
G01 X18.176 Y118.683
G01 X18.104 Y118.736
G01 X18.087 Y118.750
G01 X18.070 Y118.764
G01 X18.012 Y118.817
G01 X18.004 Y118.824
G01 X17.988 Y118.840
G01 X17.920 Y118.916
G01 X15.832
G01 X15.810
G01 X15.776 Y118.918
G01 X15.754 Y118.920
G01 X15.732 Y118.922
G01 X15.698 Y118.927
G01 X15.687 Y118.929
G01 X15.665 Y118.934
G01 X15.610 Y118.947
G01 X15.589 Y118.954
G01 X15.536 Y118.973
G01 X15.516 Y118.981
G01 X15.465 Y119.005
G01 X15.445 Y119.016
G01 X15.397 Y119.045
G01 X15.387 Y119.051
G01 X15.369 Y119.063
G01 X15.342 Y119.084
G01 X15.324 Y119.098
G01 X15.308 Y119.112
G01 X15.274 Y119.143
G01 X14.993 Y119.424
G01 X11.010
G01 X10.988 Y119.395
G01 X10.974 Y119.378
G01 X10.910 Y119.307
G01 X10.902 Y119.299
G01 X10.887 Y119.283
G01 X10.815 Y119.218
G01 X10.798 Y119.204
G01 X10.781 Y119.190
G01 X10.712 Y119.139
G01 X10.694 Y119.127
G01 X10.676 Y119.115
G01 X10.603 Y119.071
G01 X10.583 Y119.060
G01 X10.564 Y119.050
G01 X10.486 Y119.013
G01 X10.476 Y119.009
G01 X10.456 Y119.000
G01 X10.365 Y118.968
G01 X10.344 Y118.961
G01 X10.319 Y118.954
G01 X10.344 Y118.947
G01 X10.365 Y118.940
G01 X10.456 Y118.908
G01 X10.476 Y118.899
G01 X10.486 Y118.895
G01 X10.564 Y118.858
G01 X10.583 Y118.848
G01 X10.603 Y118.837
G01 X10.676 Y118.793
G01 X10.694 Y118.782
G01 X10.712 Y118.769
G01 X10.781 Y118.718
G01 X10.798 Y118.704
G01 X10.815 Y118.690
G01 X10.887 Y118.625
G01 X10.902 Y118.610
G01 X10.910 Y118.601
G01 X10.974 Y118.530
G01 X10.988 Y118.513
G01 X11.010 Y118.484
G01 X14.308
G01 X14.330
G01 X14.364 Y118.482
G01 X14.386 Y118.480
G01 X14.408 Y118.478
G01 X14.442 Y118.473
G01 X14.464 Y118.469
G01 X14.486 Y118.464
G01 X14.530 Y118.453
G01 X14.551 Y118.446
G01 X14.604 Y118.427
G01 X14.624 Y118.419
G01 X14.675 Y118.395
G01 X14.695 Y118.384
G01 X14.704 Y118.379
G01 X14.743 Y118.355
G01 X14.753 Y118.349
G01 X14.771 Y118.337
G01 X14.798 Y118.316
G01 X14.816 Y118.303
G01 X14.832 Y118.288
G01 X14.858 Y118.265
G01 X14.874 Y118.250
G01 X16.163 Y116.960
G01 X17.920
G01 X17.981 Y117.028
G01 X17.996 Y117.044
G01 X18.004 Y117.052
G01 X18.079 Y117.119
G01 X18.096 Y117.133
G01 X18.104 Y117.140
G01 X18.168 Y117.187
G01 X18.186 Y117.199
G01 X18.204 Y117.211
G01 X18.272 Y117.252
G01 X18.291 Y117.262
G01 X18.301 Y117.268
G01 X18.382 Y117.306
G01 X18.402 Y117.315
G01 X18.422 Y117.323
G01 X18.496 Y117.349
G01 X18.517 Y117.356
G01 X18.538 Y117.362
G01 X18.615 Y117.381
G01 X18.636 Y117.386
G01 X18.658 Y117.390
G01 X18.736 Y117.401
G01 X18.758 Y117.404
G01 X18.780 Y117.406
G01 X18.858 Y117.410
G01 X18.880
G01 X18.902
G01 X18.981 Y117.406
G01 X19.003 Y117.404
G01 X19.024 Y117.401
G01 X19.102 Y117.390
G01 X19.124 Y117.386
G01 X19.145 Y117.381
G01 X19.232 Y117.359
G01 X19.243 Y117.356
G01 X19.264 Y117.349
G01 X19.338 Y117.323
G01 X19.358 Y117.315
G01 X19.379 Y117.306
G01 X19.450 Y117.272
G01 X19.469 Y117.262
G01 X19.489 Y117.252
G01 X19.556 Y117.211
G01 X19.575 Y117.199
G01 X19.593 Y117.187
G01 X19.656 Y117.140
G01 X19.673 Y117.126
G01 X19.690 Y117.112
G01 X19.748 Y117.059
G01 X19.764 Y117.044
G01 X19.779 Y117.028
G01 X19.832 Y116.970
G01 X19.846 Y116.953
G01 X19.860 Y116.936
G01 X19.907 Y116.873
G01 X19.919 Y116.855
G01 X19.931 Y116.836
G01 X19.972 Y116.769
G01 X19.982 Y116.749
G01 X19.992 Y116.730
G01 X20.026 Y116.659
G01 X20.035 Y116.638
G01 X20.043 Y116.618
G01 X20.069 Y116.544
G01 X20.076 Y116.523
G01 X20.082 Y116.502
G01 X20.101 Y116.425
G01 X20.106 Y116.404
G01 X20.110 Y116.382
G01 X20.121 Y116.304
G01 X20.124 Y116.283
G01 X20.126 Y116.261
G01 X20.130 Y116.182
G01 Y116.160
G01 Y116.138
G01 X20.126 Y116.060
G01 X20.124 Y116.038
G01 X20.121 Y116.016
G01 X20.110 Y115.938
G01 X20.106 Y115.916
G01 X20.101 Y115.895
G01 X20.082 Y115.818
G01 X20.076 Y115.797
G01 X20.069 Y115.776
G01 X20.043 Y115.702
G01 X20.035 Y115.682
G01 X20.026 Y115.662
G01 X19.992 Y115.591
G01 X19.982 Y115.571
G01 X19.972 Y115.552
G01 X19.931 Y115.484
G01 X19.919 Y115.466
G01 X19.907 Y115.448
G01 X19.860 Y115.384
G01 X19.846 Y115.367
G01 X19.832 Y115.350
G01 X19.779 Y115.292
G01 X19.764 Y115.276
G01 X19.748 Y115.261
G01 X19.690 Y115.208
G01 X19.673 Y115.194
G01 X19.656 Y115.180
G01 X19.593 Y115.133
G01 X19.575 Y115.121
G01 X19.556 Y115.109
G01 X19.489 Y115.069
G01 X19.469 Y115.058
G01 X19.459 Y115.053
G01 X19.379 Y115.014
G01 X19.358 Y115.005
G01 X19.338 Y114.997
G01 X19.264 Y114.971
G01 X19.243 Y114.964
G01 X19.222 Y114.958
G01 X19.145 Y114.939
G01 X19.124 Y114.934
G01 X19.102 Y114.930
G01 X19.024 Y114.919
G01 X19.003 Y114.916
G01 X18.981 Y114.914
G01 X18.902 Y114.911
G01 X18.880 Y114.910
G01 X18.858 Y114.911
G01 X18.780 Y114.914
G01 X18.769 Y114.915
G01 X18.747 Y114.917
G01 X18.658 Y114.930
G01 X18.636 Y114.934
G01 X18.615 Y114.939
G01 X18.538 Y114.958
G01 X18.517 Y114.964
G01 X18.496 Y114.971
G01 X18.422 Y114.997
G01 X18.402 Y115.005
G01 X18.382 Y115.014
G01 X18.311 Y115.048
G01 X18.291 Y115.058
G01 X18.272 Y115.069
G01 X18.204 Y115.109
G01 X18.186 Y115.121
G01 X18.168 Y115.133
G01 X18.104 Y115.180
G01 X18.087 Y115.194
G01 X18.070 Y115.208
G01 X18.012 Y115.261
G01 X17.996 Y115.276
G01 X17.988 Y115.284
G01 X17.920 Y115.360
G01 X15.821
G01 X15.776 Y115.362
G01 X15.754 Y115.364
G01 X15.732 Y115.366
G01 X15.698 Y115.371
G01 X15.676 Y115.375
G01 X15.654 Y115.380
G01 X15.621 Y115.388
G01 X15.600 Y115.394
G01 X15.579 Y115.401
G01 X15.536 Y115.417
G01 X15.516 Y115.425
G01 X15.465 Y115.449
G01 X15.445 Y115.460
G01 X15.397 Y115.489
G01 X15.378 Y115.501
G01 X15.333 Y115.535
G01 X15.316 Y115.549
G01 X15.274 Y115.587
G01 X13.977 Y116.884
G01 X11.010
G01 X10.988 Y116.855
G01 X10.974 Y116.838
G01 X10.910 Y116.767
G01 X10.902 Y116.759
G01 X10.887 Y116.743
G01 X10.815 Y116.678
G01 X10.798 Y116.664
G01 X10.781 Y116.650
G01 X10.712 Y116.599
G01 X10.694 Y116.587
G01 X10.676 Y116.575
G01 X10.603 Y116.531
G01 X10.583 Y116.520
G01 X10.564 Y116.510
G01 X10.486 Y116.473
G01 X10.476 Y116.469
G01 X10.456 Y116.460
G01 X10.365 Y116.428
G01 X10.344 Y116.421
G01 X10.319 Y116.414
G01 X10.344 Y116.407
G01 X10.365 Y116.400
G01 X10.456 Y116.368
G01 X10.476 Y116.359
G01 X10.486 Y116.355
G01 X10.564 Y116.318
G01 X10.583 Y116.308
G01 X10.603 Y116.297
G01 X10.676 Y116.253
G01 X10.694 Y116.242
G01 X10.712 Y116.229
G01 X10.781 Y116.178
G01 X10.798 Y116.164
G01 X10.815 Y116.150
G01 X10.887 Y116.085
G01 X10.902 Y116.070
G01 X10.910 Y116.061
G01 X10.974 Y115.990
G01 X10.988 Y115.973
G01 X11.010 Y115.944
G01 X13.303
G01 X13.359 Y115.941
G01 X13.370 Y115.940
G01 X13.392 Y115.938
G01 X13.426 Y115.933
G01 X13.448 Y115.929
G01 X13.470 Y115.924
G01 X13.503 Y115.916
G01 X13.524 Y115.910
G01 X13.535 Y115.906
G01 X13.588 Y115.887
G01 X13.608 Y115.879
G01 X13.659 Y115.855
G01 X13.679 Y115.844
G01 X13.718 Y115.821
G01 X13.737 Y115.809
G01 X13.755 Y115.797
G01 X13.782 Y115.776
G01 X13.800 Y115.763
G01 X13.816 Y115.748
G01 X13.842 Y115.725
G01 X13.858 Y115.710
G01 X16.163 Y113.404
G01 X17.920
G01 X17.981 Y113.472
G01 X17.996 Y113.488
G01 X18.012 Y113.503
G01 X18.070 Y113.556
G01 X18.087 Y113.570
G01 X18.096 Y113.577
G01 X18.168 Y113.631
G01 X18.176 Y113.637
G01 X18.195 Y113.649
G01 X18.281 Y113.701
G01 X18.291 Y113.706
G01 X18.311 Y113.716
G01 X18.382 Y113.750
G01 X18.402 Y113.759
G01 X18.422 Y113.767
G01 X18.496 Y113.793
G01 X18.517 Y113.800
G01 X18.528 Y113.803
G01 X18.615 Y113.825
G01 X18.625 Y113.828
G01 X18.647 Y113.832
G01 X18.747 Y113.847
G01 X18.769 Y113.849
G01 X18.780 Y113.850
G01 X18.869 Y113.854
G01 X18.880
G01 X18.902
G01 X18.981 Y113.850
G01 X19.003 Y113.848
G01 X19.024 Y113.845
G01 X19.102 Y113.834
G01 X19.124 Y113.830
G01 X19.145 Y113.825
G01 X19.222 Y113.806
G01 X19.243 Y113.800
G01 X19.264 Y113.793
G01 X19.338 Y113.767
G01 X19.358 Y113.759
G01 X19.379 Y113.750
G01 X19.450 Y113.716
G01 X19.469 Y113.706
G01 X19.489 Y113.696
G01 X19.556 Y113.655
G01 X19.575 Y113.643
G01 X19.593 Y113.631
G01 X19.656 Y113.584
G01 X19.673 Y113.570
G01 X19.690 Y113.556
G01 X19.756 Y113.496
G01 X19.772 Y113.480
G01 X19.779 Y113.472
G01 X19.832 Y113.414
G01 X19.846 Y113.397
G01 X19.860 Y113.380
G01 X19.907 Y113.317
G01 X19.919 Y113.299
G01 X19.931 Y113.280
G01 X19.972 Y113.213
G01 X19.982 Y113.193
G01 X19.992 Y113.174
G01 X20.026 Y113.103
G01 X20.035 Y113.082
G01 X20.043 Y113.062
G01 X20.069 Y112.988
G01 X20.076 Y112.967
G01 X20.082 Y112.946
G01 X20.101 Y112.869
G01 X20.106 Y112.848
G01 X20.110 Y112.826
G01 X20.121 Y112.748
G01 X20.124 Y112.727
G01 X20.126 Y112.705
G01 X20.130 Y112.626
G01 Y112.604
G01 Y112.582
G01 X20.126 Y112.504
G01 X20.124 Y112.482
G01 X20.121 Y112.460
G01 X20.110 Y112.382
G01 X20.106 Y112.360
G01 X20.101 Y112.339
G01 X20.082 Y112.262
G01 X20.076 Y112.241
G01 X20.069 Y112.220
G01 X20.043 Y112.146
G01 X20.035 Y112.126
G01 X20.026 Y112.106
G01 X19.992 Y112.035
G01 X19.982 Y112.015
G01 X19.972 Y111.996
G01 X19.931 Y111.928
G01 X19.919 Y111.910
G01 X19.907 Y111.892
G01 X19.860 Y111.828
G01 X19.846 Y111.811
G01 X19.832 Y111.794
G01 X19.779 Y111.736
G01 X19.764 Y111.720
G01 X19.748 Y111.705
G01 X19.690 Y111.652
G01 X19.673 Y111.638
G01 X19.656 Y111.624
G01 X19.593 Y111.577
G01 X19.575 Y111.565
G01 X19.556 Y111.553
G01 X19.489 Y111.513
G01 X19.469 Y111.502
G01 X19.450 Y111.492
G01 X19.379 Y111.458
G01 X19.358 Y111.449
G01 X19.338 Y111.441
G01 X19.264 Y111.415
G01 X19.243 Y111.408
G01 X19.222 Y111.402
G01 X19.145 Y111.383
G01 X19.124 Y111.378
G01 X19.102 Y111.374
G01 X19.024 Y111.363
G01 X19.003 Y111.360
G01 X18.981 Y111.358
G01 X18.891 Y111.354
G01 X18.869
G01 X18.858 Y111.355
G01 X18.769 Y111.359
G01 X18.747 Y111.361
G01 X18.736 Y111.363
G01 X18.658 Y111.374
G01 X18.636 Y111.378
G01 X18.615 Y111.383
G01 X18.538 Y111.402
G01 X18.528 Y111.405
G01 X18.507 Y111.411
G01 X18.412 Y111.445
G01 X18.402 Y111.449
G01 X18.382 Y111.458
G01 X18.311 Y111.492
G01 X18.291 Y111.502
G01 X18.281 Y111.507
G01 X18.195 Y111.559
G01 X18.176 Y111.571
G01 X18.168 Y111.577
G01 X18.096 Y111.631
G01 X18.087 Y111.638
G01 X18.070 Y111.652
G01 X18.012 Y111.705
G01 X17.996 Y111.720
G01 X17.981 Y111.736
G01 X17.920 Y111.804
G01 X15.821
G01 X15.765 Y111.807
G01 X15.743 Y111.809
G01 X15.732 Y111.810
G01 X15.698 Y111.815
G01 X15.676 Y111.819
G01 X15.654 Y111.824
G01 X15.621 Y111.832
G01 X15.610 Y111.835
G01 X15.589 Y111.842
G01 X15.536 Y111.861
G01 X15.516 Y111.869
G01 X15.465 Y111.893
G01 X15.445 Y111.904
G01 X15.406 Y111.927
G01 X15.387 Y111.939
G01 X15.369 Y111.951
G01 X15.342 Y111.972
G01 X15.324 Y111.986
G01 X15.308 Y112.000
G01 X15.282 Y112.023
G01 X15.266 Y112.038
G01 X12.961 Y114.344
G01 X11.010
G01 X10.988 Y114.315
G01 X10.974 Y114.298
G01 X10.902 Y114.219
G01 X10.894 Y114.211
G01 X10.878 Y114.195
G01 X10.815 Y114.138
G01 X10.807 Y114.131
G01 X10.790 Y114.117
G01 X10.712 Y114.059
G01 X10.694 Y114.047
G01 X10.676 Y114.035
G01 X10.603 Y113.991
G01 X10.583 Y113.980
G01 X10.564 Y113.970
G01 X10.486 Y113.933
G01 X10.465 Y113.924
G01 X10.581
G01 X10.603
G01 X10.628 Y113.922
G01 X10.650 Y113.921
G01 X10.672 Y113.918
G01 X10.707 Y113.913
G01 X10.728 Y113.908
G01 X10.763 Y113.900
G01 X10.784 Y113.894
G01 X10.805 Y113.887
G01 X10.839 Y113.875
G01 X10.859 Y113.866
G01 X10.891 Y113.851
G01 X10.911 Y113.841
G01 X10.930 Y113.831
G01 X10.961 Y113.812
G01 X10.979 Y113.800
G01 X11.008 Y113.779
G01 X11.025 Y113.765
G01 X11.042 Y113.751
G01 X11.068 Y113.727
G01 X11.084 Y113.711
G01 X11.108 Y113.685
G01 X11.122 Y113.668
G01 X11.136 Y113.651
G01 X11.150 Y113.631
G01 X11.163 Y113.613
G01 X11.175 Y113.594
G01 X11.193 Y113.564
G01 X11.203 Y113.544
G01 X11.219 Y113.512
G01 X11.223 Y113.502
G01 X11.232 Y113.482
G01 X11.248 Y113.438
G01 X11.254 Y113.417
G01 X11.265 Y113.371
G01 X11.270 Y113.350
G01 X11.276 Y113.304
G01 X11.279 Y113.282
G01 X11.281 Y113.246
G01 Y113.224
G01 Y112.191
G01 X13.623 Y109.848
G01 X17.920
G01 X17.981 Y109.916
G01 X17.996 Y109.932
G01 X18.012 Y109.947
G01 X18.070 Y110.000
G01 X18.079 Y110.007
G01 X18.096 Y110.021
G01 X18.168 Y110.075
G01 X18.176 Y110.081
G01 X18.195 Y110.093
G01 X18.281 Y110.145
G01 X18.291 Y110.150
G01 X18.311 Y110.160
G01 X18.382 Y110.194
G01 X18.402 Y110.203
G01 X18.412 Y110.207
G01 X18.507 Y110.241
G01 X18.528 Y110.247
G01 X18.538 Y110.250
G01 X18.615 Y110.269
G01 X18.636 Y110.274
G01 X18.658 Y110.278
G01 X18.736 Y110.289
G01 X18.747 Y110.291
G01 X18.769 Y110.293
G01 X18.858 Y110.298
G01 X18.869
G01 X18.891
G01 X18.981 Y110.294
G01 X19.003 Y110.292
G01 X19.024 Y110.289
G01 X19.102 Y110.278
G01 X19.124 Y110.274
G01 X19.145 Y110.269
G01 X19.222 Y110.250
G01 X19.243 Y110.244
G01 X19.264 Y110.237
G01 X19.338 Y110.211
G01 X19.358 Y110.203
G01 X19.379 Y110.194
G01 X19.450 Y110.160
G01 X19.469 Y110.150
G01 X19.489 Y110.140
G01 X19.556 Y110.099
G01 X19.575 Y110.087
G01 X19.593 Y110.075
G01 X19.656 Y110.028
G01 X19.673 Y110.014
G01 X19.690 Y110.000
G01 X19.748 Y109.947
G01 X19.764 Y109.932
G01 X19.779 Y109.916
G01 X19.832 Y109.858
G01 X19.846 Y109.841
G01 X19.860 Y109.824
G01 X19.907 Y109.761
G01 X19.919 Y109.743
G01 X19.931 Y109.724
G01 X19.972 Y109.657
G01 X19.982 Y109.637
G01 X19.992 Y109.618
G01 X20.026 Y109.547
G01 X20.035 Y109.526
G01 X20.043 Y109.506
G01 X20.069 Y109.432
G01 X20.076 Y109.411
G01 X20.082 Y109.390
G01 X20.101 Y109.313
G01 X20.106 Y109.292
G01 X20.110 Y109.270
G01 X20.121 Y109.192
G01 X20.124 Y109.171
G01 X20.126 Y109.149
G01 X20.130 Y109.070
G01 Y109.048
G01 Y109.026
G01 X20.126 Y108.948
G01 X20.124 Y108.926
G01 X20.121 Y108.904
G01 X20.110 Y108.826
G01 X20.106 Y108.804
G01 X20.101 Y108.783
G01 X20.082 Y108.706
G01 X20.076 Y108.685
G01 X20.069 Y108.664
G01 X20.043 Y108.590
G01 X20.035 Y108.570
G01 X20.026 Y108.550
G01 X19.992 Y108.479
G01 X19.982 Y108.459
G01 X19.972 Y108.440
G01 X19.931 Y108.372
G01 X19.919 Y108.354
G01 X19.907 Y108.336
G01 X19.860 Y108.272
G01 X19.846 Y108.255
G01 X19.832 Y108.238
G01 X19.779 Y108.180
G01 X19.764 Y108.164
G01 X19.748 Y108.149
G01 X19.690 Y108.096
G01 X19.673 Y108.082
G01 X19.656 Y108.068
G01 X19.593 Y108.021
G01 X19.575 Y108.009
G01 X19.556 Y107.997
G01 X19.479 Y107.951
G01 X19.469 Y107.946
G01 X19.450 Y107.936
G01 X19.379 Y107.902
G01 X19.369 Y107.898
G01 X19.348 Y107.889
G01 X19.264 Y107.859
G01 X19.243 Y107.852
G01 X19.222 Y107.846
G01 X19.135 Y107.824
G01 X19.124 Y107.822
G01 X19.102 Y107.818
G01 X19.024 Y107.807
G01 X19.003 Y107.804
G01 X18.981 Y107.802
G01 X18.902 Y107.799
G01 X18.880 Y107.798
G01 X18.858 Y107.799
G01 X18.780 Y107.802
G01 X18.758 Y107.804
G01 X18.736 Y107.807
G01 X18.658 Y107.818
G01 X18.636 Y107.822
G01 X18.615 Y107.827
G01 X18.538 Y107.846
G01 X18.517 Y107.852
G01 X18.496 Y107.859
G01 X18.422 Y107.885
G01 X18.412 Y107.889
G01 X18.392 Y107.898
G01 X18.311 Y107.936
G01 X18.291 Y107.946
G01 X18.272 Y107.957
G01 X18.195 Y108.003
G01 X18.176 Y108.015
G01 X18.168 Y108.021
G01 X18.104 Y108.068
G01 X18.087 Y108.082
G01 X18.070 Y108.096
G01 X18.012 Y108.149
G01 X17.996 Y108.164
G01 X17.981 Y108.180
G01 X17.920 Y108.248
G01 X13.292
G01 X13.270
G01 X13.236 Y108.250
G01 X13.214 Y108.252
G01 X13.192 Y108.254
G01 X13.147 Y108.261
G01 X13.125 Y108.266
G01 X13.081 Y108.276
G01 X13.060 Y108.282
G01 X13.039 Y108.289
G01 X13.006 Y108.301
G01 X12.986 Y108.309
G01 X12.966 Y108.318
G01 X12.935 Y108.332
G01 X12.925 Y108.337
G01 X12.905 Y108.348
G01 X12.866 Y108.371
G01 X12.847 Y108.383
G01 X12.838 Y108.389
G01 X12.793 Y108.423
G01 X12.776 Y108.437
G01 X12.734 Y108.475
G01 X9.924 Y111.284
G01 X8.880
G01 X8.833 Y111.286
G01 X8.822 Y111.287
G01 X8.801 Y111.290
G01 X8.776 Y111.294
G01 X8.754 Y111.298
G01 X8.733 Y111.302
G01 X8.709 Y111.308
G01 X8.688 Y111.314
G01 X8.677 Y111.318
G01 X8.633 Y111.333
G01 X8.623 Y111.337
G01 X8.603 Y111.346
G01 X8.581 Y111.357
G01 X8.561 Y111.367
G01 X8.542 Y111.378
G01 X8.521 Y111.390
G01 X8.502 Y111.402
G01 X8.493 Y111.408
G01 X8.456 Y111.436
G01 X8.447 Y111.443
G01 X8.430 Y111.457
G01 X8.412 Y111.474
G01 X8.396 Y111.489
G01 X8.381 Y111.505
G01 X8.364 Y111.523
G01 X8.357 Y111.532
G01 X8.343 Y111.549
G01 X8.315 Y111.586
G01 X8.309 Y111.595
G01 X8.297 Y111.614
G01 X8.285 Y111.635
G01 X8.274 Y111.654
G01 X8.264 Y111.674
G01 X8.253 Y111.696
G01 X8.249 Y111.706
G01 X8.240 Y111.726
G01 X8.228 Y111.760
G01 X8.221 Y111.781
G01 X8.215 Y111.802
G01 X8.209 Y111.826
G01 X8.205 Y111.847
G01 X8.201 Y111.869
G01 X8.197 Y111.894
G01 X8.194 Y111.915
G01 X8.193 Y111.937
G01 X8.192 Y111.962
G01 X8.191 Y111.984
G01 Y113.235
G01 X8.193 Y113.271
G01 X8.194 Y113.293
G01 X8.197 Y113.315
G01 X8.202 Y113.350
G01 X8.207 Y113.371
G01 X8.215 Y113.406
G01 X8.221 Y113.427
G01 X8.228 Y113.448
G01 X8.240 Y113.482
G01 X8.249 Y113.502
G01 X8.264 Y113.534
G01 X8.274 Y113.554
G01 X8.285 Y113.573
G01 X8.297 Y113.594
G01 X8.309 Y113.613
G01 X8.322 Y113.631
G01 X8.343 Y113.660
G01 X8.357 Y113.677
G01 X8.388 Y113.711
G01 X8.404 Y113.727
G01 X8.430 Y113.751
G01 X8.447 Y113.765
G01 X8.456 Y113.772
G01 X8.484 Y113.793
G01 X8.502 Y113.806
G01 X8.521 Y113.818
G01 X8.551 Y113.836
G01 X8.571 Y113.846
G01 X8.603 Y113.862
G01 X8.623 Y113.871
G01 X8.644 Y113.879
G01 X8.667 Y113.887
G01 X8.688 Y113.894
G01 X8.709 Y113.900
G01 X8.744 Y113.908
G01 X8.765 Y113.913
G01 X8.801 Y113.918
G01 X8.822 Y113.921
G01 X8.844 Y113.922
G01 X8.869 Y113.924
G01 X8.891
G01 X9.007
G01 X10.465
G01 X9.007
G01 X8.986 Y113.933
G01 X8.909 Y113.970
G01 X8.889 Y113.980
G01 X8.870 Y113.991
G01 X8.796 Y114.035
G01 X8.787 Y114.040
G01 X8.769 Y114.053
G01 X8.691 Y114.110
G01 X8.674 Y114.124
G01 X8.657 Y114.138
G01 X8.594 Y114.195
G01 X8.578 Y114.211
G01 X8.562 Y114.227
G01 X8.505 Y114.290
G01 X8.491 Y114.307
G01 X8.477 Y114.324
G01 X8.426 Y114.393
G01 X8.414 Y114.411
G01 X8.402 Y114.429
G01 X8.358 Y114.503
G01 X8.347 Y114.522
G01 X8.337 Y114.542
G01 X8.300 Y114.619
G01 X8.292 Y114.639
G01 X8.284 Y114.660
G01 X8.255 Y114.740
G01 X8.251 Y114.750
G01 X8.245 Y114.771
G01 X8.221 Y114.865
G01 X8.216 Y114.887
G01 X8.213 Y114.908
G01 X8.200 Y114.993
G01 X8.197 Y115.015
G01 X8.196 Y115.037
G01 X8.192 Y115.122
G01 X8.191 Y115.144
G01 X8.192 Y115.166
G01 X8.196 Y115.251
G01 X8.197 Y115.273
G01 X8.200 Y115.295
G01 X8.213 Y115.380
G01 X8.216 Y115.402
G01 X8.221 Y115.423
G01 X8.242 Y115.506
G01 X8.248 Y115.527
G01 X8.255 Y115.548
G01 X8.284 Y115.629
G01 X8.292 Y115.649
G01 X8.300 Y115.669
G01 X8.337 Y115.747
G01 X8.347 Y115.766
G01 X8.358 Y115.786
G01 X8.402 Y115.859
G01 X8.414 Y115.877
G01 X8.426 Y115.895
G01 X8.477 Y115.964
G01 X8.491 Y115.981
G01 X8.505 Y115.998
G01 X8.562 Y116.061
G01 X8.578 Y116.077
G01 X8.594 Y116.093
G01 X8.657 Y116.150
G01 X8.665 Y116.157
G01 X8.682 Y116.171
G01 X8.760 Y116.229
G01 X8.778 Y116.242
G01 X8.796 Y116.253
G01 X8.870 Y116.297
G01 X8.889 Y116.308
G01 X8.909 Y116.318
G01 X8.986 Y116.355
G01 X9.006 Y116.364
G01 X9.027 Y116.372
G01 X9.117 Y116.404
G01 X9.138 Y116.410
G01 X9.153 Y116.414
G01 X10.319
G01 X9.153
G01 X9.128 Y116.421
G01 X9.107 Y116.428
G01 X9.016 Y116.460
G01 X8.996 Y116.469
G01 X8.986 Y116.473
G01 X8.909 Y116.510
G01 X8.889 Y116.520
G01 X8.879 Y116.525
G01 X8.787 Y116.580
G01 X8.769 Y116.593
G01 X8.760 Y116.599
G01 X8.691 Y116.650
G01 X8.674 Y116.664
G01 X8.657 Y116.678
G01 X8.594 Y116.735
G01 X8.578 Y116.751
G01 X8.562 Y116.767
G01 X8.505 Y116.830
G01 X8.491 Y116.847
G01 X8.477 Y116.864
G01 X8.426 Y116.933
G01 X8.414 Y116.951
G01 X8.402 Y116.969
G01 X8.358 Y117.043
G01 X8.347 Y117.062
G01 X8.337 Y117.082
G01 X8.300 Y117.159
G01 X8.292 Y117.179
G01 X8.284 Y117.200
G01 X8.255 Y117.280
G01 X8.248 Y117.301
G01 X8.242 Y117.322
G01 X8.221 Y117.405
G01 X8.216 Y117.427
G01 X8.213 Y117.448
G01 X8.199 Y117.544
G01 X8.196 Y117.566
G01 Y117.577
G01 X8.192 Y117.662
G01 X8.191 Y117.684
G01 X8.192 Y117.706
G01 X8.196 Y117.791
G01 Y117.802
G01 X8.199 Y117.824
G01 X8.213 Y117.920
G01 X8.216 Y117.942
G01 X8.221 Y117.963
G01 X8.242 Y118.046
G01 X8.248 Y118.067
G01 X8.255 Y118.088
G01 X8.284 Y118.169
G01 X8.292 Y118.189
G01 X8.300 Y118.209
G01 X8.337 Y118.287
G01 X8.347 Y118.306
G01 X8.358 Y118.326
G01 X8.402 Y118.399
G01 X8.414 Y118.417
G01 X8.426 Y118.435
G01 X8.477 Y118.504
G01 X8.491 Y118.521
G01 X8.498 Y118.530
G01 X8.562 Y118.601
G01 X8.578 Y118.617
G01 X8.594 Y118.633
G01 X8.657 Y118.690
G01 X8.674 Y118.704
G01 X8.691 Y118.718
G01 X8.760 Y118.769
G01 X8.778 Y118.782
G01 X8.787 Y118.788
G01 X8.870 Y118.837
G01 X8.889 Y118.848
G01 X8.909 Y118.858
G01 X8.996 Y118.899
G01 X9.016 Y118.908
G01 X9.027 Y118.912
G01 X9.107 Y118.940
G01 X9.128 Y118.947
G01 X9.153 Y118.954
G01 X10.319
G01 X9.153
G01 X9.128 Y118.961
G01 X9.107 Y118.968
G01 X9.016 Y119.000
G01 X8.996 Y119.009
G01 X8.986 Y119.013
G01 X8.909 Y119.050
G01 X8.889 Y119.060
G01 X8.879 Y119.065
G01 X8.787 Y119.120
G01 X8.769 Y119.133
G01 X8.760 Y119.139
G01 X8.691 Y119.190
G01 X8.674 Y119.204
G01 X8.657 Y119.218
G01 X8.594 Y119.275
G01 X8.578 Y119.291
G01 X8.562 Y119.307
G01 X8.505 Y119.370
G01 X8.491 Y119.387
G01 X8.477 Y119.404
G01 X8.426 Y119.473
G01 X8.414 Y119.491
G01 X8.402 Y119.509
G01 X8.358 Y119.583
G01 X8.347 Y119.602
G01 X8.337 Y119.622
G01 X8.300 Y119.699
G01 X8.296 Y119.709
G01 X8.287 Y119.729
G01 X8.255 Y119.820
G01 X8.248 Y119.841
G01 X8.242 Y119.862
G01 X8.221 Y119.945
G01 X8.216 Y119.967
G01 X8.213 Y119.988
G01 X8.200 Y120.073
G01 X8.197 Y120.095
G01 X8.196 Y120.117
G01 X8.192 Y120.202
G01 X8.191 Y120.224
G01 X8.192 Y120.246
G01 X8.196 Y120.331
G01 X8.197 Y120.353
G01 X8.200 Y120.375
G01 X8.213 Y120.460
G01 X8.216 Y120.482
G01 X8.221 Y120.503
G01 X8.242 Y120.586
G01 X8.248 Y120.607
G01 X8.255 Y120.628
G01 X8.284 Y120.709
G01 X8.292 Y120.729
G01 X8.300 Y120.749
G01 X8.337 Y120.827
G01 X8.347 Y120.846
G01 X8.358 Y120.866
G01 X8.402 Y120.939
G01 X8.414 Y120.957
G01 X8.426 Y120.975
G01 X8.477 Y121.044
G01 X8.491 Y121.061
G01 X8.505 Y121.078
G01 X8.562 Y121.141
G01 X8.578 Y121.157
G01 X8.594 Y121.173
G01 X8.657 Y121.230
G01 X8.674 Y121.244
