(G-CODE GENERATED BY FLATCAM v8.994 - www.flatcam.org - Version Date: 2020/11/7)

(Name: placaCub-B_Cu.gbr_0.9000_iso_cnc)
(Type: G-code from Geometry)
(Units: MM)

(Created on Thursday, 07 April 2022 at 10:06)

(This preprocessor is the default preprocessor used by FlatCAM.)
(It is made to work with MACH3 compatible motion controllers.)

(TOOL DIAMETER: 0.9 mm)
(Feedrate_XY: 240.0 mm/min)
(Feedrate_Z: 120.0 mm/min)
(Feedrate rapids 1500.0 mm/min)

(Z_Cut: -0.25 mm)
(Z_Move: 5.0 mm)
(Z Start: None mm)
(Z End: 45.0 mm)
(X,Y End: None mm)
(Steps per circle: 64)
(Preprocessor Geometry: default)

(X range:    1.1838 ...  227.4900  mm)
(Y range:    1.5669 ...  171.0731  mm)

(Spindle Speed: 24000.0 RPM)

G01 F240.00

M5
G00 Z15.0000
G00 X0.0000 Y0.0000
G00 Z15.0000
M3
G01 F240.00
G00 X10.6229 Y9.8160
G01 F120.00
G01 Z-0.2500
G01 F240.00
G01 X13.4326 Y7.0065
G01 X13.4662 Y6.9759
G01 X13.4829 Y6.9615
G01 X13.5003 Y6.9479
G01 X13.5279 Y6.9274
G01 X13.5459 Y6.9147
G01 X13.5552 Y6.9087
G01 X13.6036 Y6.8796
G01 X13.6231 Y6.8692
G01 X13.6330 Y6.8644
G01 X13.6641 Y6.8497
G01 X13.6843 Y6.8407
G01 X13.7049 Y6.8328
G01 X13.7372 Y6.8212
G01 X13.7582 Y6.8143
G01 X13.7688 Y6.8112
G01 X13.8128 Y6.8000
G01 X13.8344 Y6.7952
G01 X13.8562 Y6.7914
G01 X13.8901 Y6.7864
G01 X13.9011 Y6.7849
G01 X13.9231 Y6.7827
G01 X13.9684 Y6.7804
G01 X13.9905 Y6.7798
G01 X17.9198 Y6.7798
G01 X17.9884 Y6.7040
G01 X18.0040 Y6.6884
G01 X18.0121 Y6.6809
G01 X18.0703 Y6.6282
G01 X18.0870 Y6.6137
G01 X18.1044 Y6.6001
G01 X18.1675 Y6.5534
G01 X18.1855 Y6.5407
G01 X18.2042 Y6.5288
G01 X18.2715 Y6.4885
G01 X18.2908 Y6.4776
G01 X18.3105 Y6.4677
G01 X18.3815 Y6.4341
G01 X18.4016 Y6.4252
G01 X18.4223 Y6.4172
G01 X18.4962 Y6.3908
G01 X18.5171 Y6.3838
G01 X18.5384 Y6.3779
G01 X18.6146 Y6.3589
G01 X18.6361 Y6.3540
G01 X18.6579 Y6.3502
G01 X18.7465 Y6.3372
G01 X18.7685 Y6.3351
G01 X18.7795 Y6.3344
G01 X18.8579 Y6.3305
G01 X18.8800 Y6.3300
G01 X18.9021 Y6.3305
G01 X18.9805 Y6.3344
G01 X19.0025 Y6.3360
G01 X19.0244 Y6.3387
G01 X19.1021 Y6.3502
G01 X19.1239 Y6.3540
G01 X19.1454 Y6.3589
G01 X19.2216 Y6.3779
G01 X19.2429 Y6.3838
G01 X19.2638 Y6.3908
G01 X19.3377 Y6.4172
G01 X19.3584 Y6.4252
G01 X19.3785 Y6.4341
G01 X19.4594 Y6.4725
G01 X19.4789 Y6.4829
G01 X19.4885 Y6.4885
G01 X19.5558 Y6.5288
G01 X19.5745 Y6.5407
G01 X19.5925 Y6.5534
G01 X19.6556 Y6.6001
G01 X19.6730 Y6.6137
G01 X19.6897 Y6.6282
G01 X19.7560 Y6.6884
G01 X19.7639 Y6.6961
G01 X19.7791 Y6.7121
G01 X19.8318 Y6.7703
G01 X19.8463 Y6.7870
G01 X19.8532 Y6.7956
G01 X19.9066 Y6.8675
G01 X19.9193 Y6.8855
G01 X19.9312 Y6.9042
G01 X19.9771 Y6.9811
G01 X19.9824 Y6.9908
G01 X19.9923 Y7.0105
G01 X20.0259 Y7.0815
G01 X20.0348 Y7.1016
G01 X20.0428 Y7.1223
G01 X20.0728 Y7.2066
G01 X20.0793 Y7.2278
G01 X20.0821 Y7.2384
G01 X20.1011 Y7.3146
G01 X20.1060 Y7.3361
G01 X20.1098 Y7.3579
G01 X20.1213 Y7.4356
G01 X20.1240 Y7.4575
G01 X20.1249 Y7.4685
G01 X20.1299 Y7.5690
G01 X20.1299 Y7.5910
G01 X20.1295 Y7.6021
G01 X20.1256 Y7.6805
G01 X20.1240 Y7.7025
G01 X20.1213 Y7.7244
G01 X20.1098 Y7.8021
G01 X20.1060 Y7.8239
G01 X20.1011 Y7.8454
G01 X20.0821 Y7.9216
G01 X20.0762 Y7.9429
G01 X20.0692 Y7.9638
G01 X20.0428 Y8.0377
G01 X20.0348 Y8.0584
G01 X20.0259 Y8.0785
G01 X19.9923 Y8.1495
G01 X19.9824 Y8.1692
G01 X19.9715 Y8.1885
G01 X19.9312 Y8.2558
G01 X19.9193 Y8.2745
G01 X19.9066 Y8.2925
G01 X19.8599 Y8.3556
G01 X19.8463 Y8.3730
G01 X19.8318 Y8.3897
G01 X19.7791 Y8.4479
G01 X19.7639 Y8.4639
G01 X19.7479 Y8.4791
G01 X19.6897 Y8.5318
G01 X19.6730 Y8.5463
G01 X19.6556 Y8.5599
G01 X19.5925 Y8.6066
G01 X19.5745 Y8.6193
G01 X19.5558 Y8.6312
G01 X19.4885 Y8.6715
G01 X19.4789 Y8.6771
G01 X19.4594 Y8.6875
G01 X19.3785 Y8.7259
G01 X19.3584 Y8.7348
G01 X19.3481 Y8.7390
G01 X19.2534 Y8.7728
G01 X19.2322 Y8.7793
G01 X19.2216 Y8.7821
G01 X19.1347 Y8.8037
G01 X19.1239 Y8.8060
G01 X19.1021 Y8.8098
G01 X19.0244 Y8.8213
G01 X19.0135 Y8.8228
G01 X18.9915 Y8.8249
G01 X18.9021 Y8.8295
G01 X18.8800 Y8.8300
G01 X18.8579 Y8.8295
G01 X18.7795 Y8.8256
G01 X18.7575 Y8.8240
G01 X18.7356 Y8.8213
G01 X18.6579 Y8.8098
G01 X18.6361 Y8.8060
G01 X18.6146 Y8.8011
G01 X18.5384 Y8.7821
G01 X18.5171 Y8.7762
G01 X18.4962 Y8.7692
G01 X18.4223 Y8.7428
G01 X18.4016 Y8.7348
G01 X18.3815 Y8.7259
G01 X18.3105 Y8.6923
G01 X18.2908 Y8.6824
G01 X18.2715 Y8.6715
G01 X18.2042 Y8.6312
G01 X18.1855 Y8.6193
G01 X18.1675 Y8.6066
G01 X18.1044 Y8.5599
G01 X18.0870 Y8.5463
G01 X18.0703 Y8.5318
G01 X18.0121 Y8.4791
G01 X17.9961 Y8.4639
G01 X17.9809 Y8.4479
G01 X17.9198 Y8.3802
G01 X14.3219 Y8.3802
G01 X11.9284 Y10.7737
G01 X11.9493 Y10.8569
G01 X11.9541 Y10.8785
G01 X11.9579 Y10.9002
G01 X11.9704 Y10.9847
G01 X11.9731 Y11.0066
G01 X11.9748 Y11.0286
G01 X11.9790 Y11.1139
G01 X11.9795 Y11.1360
G01 X11.9790 Y11.1581
G01 X11.9748 Y11.2434
G01 X11.9731 Y11.2654
G01 X11.9704 Y11.2873
G01 X11.9579 Y11.3718
G01 X11.9541 Y11.3935
G01 X11.9493 Y11.4151
G01 X11.9286 Y11.4979
G01 X11.9227 Y11.5192
G01 X11.9157 Y11.5401
G01 X11.8870 Y11.6205
G01 X11.8790 Y11.6411
G01 X11.8701 Y11.6613
G01 X11.8336 Y11.7385
G01 X11.8236 Y11.7582
G01 X11.8183 Y11.7679
G01 X11.7689 Y11.8507
G01 X11.7570 Y11.8694
G01 X11.7443 Y11.8874
G01 X11.6935 Y11.9560
G01 X11.6799 Y11.9734
G01 X11.6654 Y11.9901
G01 X11.6081 Y12.0534
G01 X11.5929 Y12.0694
G01 X11.5769 Y12.0846
G01 X11.5136 Y12.1419
G01 X11.5053 Y12.1493
G01 X11.4883 Y12.1633
G01 X11.4109 Y12.2208
G01 X11.3929 Y12.2335
G01 X11.3742 Y12.2454
G01 X11.3010 Y12.2892
G01 X11.2817 Y12.3001
G01 X11.2719 Y12.3052
G01 X11.1848 Y12.3466
G01 X11.1748 Y12.3512
G01 X11.1544 Y12.3596
G01 X11.0532 Y12.3958
G01 X11.0321 Y12.4022
G01 X11.0176 Y12.4060
G01 X11.0427 Y12.4128
G01 X11.0636 Y12.4198
G01 X11.1544 Y12.4524
G01 X11.1748 Y12.4608
G01 X11.1848 Y12.4654
G01 X11.2620 Y12.5019
G01 X11.2817 Y12.5119
G01 X11.3010 Y12.5228
G01 X11.3742 Y12.5666
G01 X11.3929 Y12.5785
G01 X11.4109 Y12.5912
G01 X11.4795 Y12.6420
G01 X11.4969 Y12.6556
G01 X11.5136 Y12.6701
G01 X11.5850 Y12.7349
G01 X11.6006 Y12.7505
G01 X11.6081 Y12.7586
G01 X11.6728 Y12.8302
G01 X11.6868 Y12.8472
G01 X11.7082 Y12.8758
G01 X13.4686 Y12.8758
G01 X15.7821 Y10.5625
G01 X15.8157 Y10.5319
G01 X15.8324 Y10.5175
G01 X15.8498 Y10.5039
G01 X15.8774 Y10.4834
G01 X15.8863 Y10.4769
G01 X15.9047 Y10.4647
G01 X15.9436 Y10.4412
G01 X15.9628 Y10.4303
G01 X15.9825 Y10.4204
G01 X16.0136 Y10.4057
G01 X16.0338 Y10.3967
G01 X16.0544 Y10.3888
G01 X16.0867 Y10.3772
G01 X16.1077 Y10.3703
G01 X16.1183 Y10.3672
G01 X16.1623 Y10.3560
G01 X16.1839 Y10.3512
G01 X16.2057 Y10.3474
G01 X16.2396 Y10.3424
G01 X16.2616 Y10.3397
G01 X16.2836 Y10.3381
G01 X16.3179 Y10.3364
G01 X16.3400 Y10.3358
G01 X17.9198 Y10.3358
G01 X17.9884 Y10.2600
G01 X17.9961 Y10.2521
G01 X18.0121 Y10.2369
G01 X18.0703 Y10.1842
G01 X18.0870 Y10.1697
G01 X18.1044 Y10.1561
G01 X18.1675 Y10.1094
G01 X18.1855 Y10.0967
G01 X18.2042 Y10.0848
G01 X18.2715 Y10.0445
G01 X18.2908 Y10.0336
G01 X18.3105 Y10.0237
G01 X18.3815 Y9.9901
G01 X18.4016 Y9.9812
G01 X18.4223 Y9.9732
G01 X18.4962 Y9.9468
G01 X18.5171 Y9.9398
G01 X18.5384 Y9.9339
G01 X18.6146 Y9.9149
G01 X18.6361 Y9.9100
G01 X18.6579 Y9.9062
G01 X18.7356 Y9.8947
G01 X18.7575 Y9.8920
G01 X18.7795 Y9.8904
G01 X18.8579 Y9.8865
G01 X18.8690 Y9.8861
G01 X18.8910 Y9.8861
G01 X18.9915 Y9.8911
G01 X19.0135 Y9.8932
G01 X19.0244 Y9.8947
G01 X19.1021 Y9.9062
G01 X19.1239 Y9.9100
G01 X19.1347 Y9.9123
G01 X19.2216 Y9.9339
G01 X19.2429 Y9.9398
G01 X19.2638 Y9.9468
G01 X19.3377 Y9.9732
G01 X19.3584 Y9.9812
G01 X19.3785 Y9.9901
G01 X19.4495 Y10.0237
G01 X19.4692 Y10.0336
G01 X19.4885 Y10.0445
G01 X19.5558 Y10.0848
G01 X19.5745 Y10.0967
G01 X19.5925 Y10.1094
G01 X19.6556 Y10.1561
G01 X19.6730 Y10.1697
G01 X19.6897 Y10.1842
G01 X19.7560 Y10.2444
G01 X19.7716 Y10.2600
G01 X19.7791 Y10.2681
G01 X19.8318 Y10.3263
G01 X19.8463 Y10.3430
G01 X19.8532 Y10.3516
G01 X19.9066 Y10.4235
G01 X19.9193 Y10.4415
G01 X19.9312 Y10.4602
G01 X19.9715 Y10.5275
G01 X19.9824 Y10.5468
G01 X19.9923 Y10.5665
G01 X20.0259 Y10.6375
G01 X20.0348 Y10.6576
G01 X20.0390 Y10.6679
G01 X20.0692 Y10.7522
G01 X20.0762 Y10.7731
G01 X20.0821 Y10.7944
G01 X20.1011 Y10.8706
G01 X20.1060 Y10.8921
G01 X20.1098 Y10.9139
G01 X20.1213 Y10.9916
G01 X20.1240 Y11.0135
G01 X20.1256 Y11.0355
G01 X20.1295 Y11.1139
G01 X20.1300 Y11.1360
G01 X20.1295 Y11.1581
G01 X20.1256 Y11.2365
G01 X20.1240 Y11.2585
G01 X20.1213 Y11.2804
G01 X20.1098 Y11.3581
G01 X20.1060 Y11.3799
G01 X20.1011 Y11.4014
G01 X20.0821 Y11.4776
G01 X20.0762 Y11.4989
G01 X20.0692 Y11.5198
G01 X20.0390 Y11.6041
G01 X20.0348 Y11.6144
G01 X20.0259 Y11.6345
G01 X19.9923 Y11.7055
G01 X19.9824 Y11.7252
G01 X19.9715 Y11.7445
G01 X19.9254 Y11.8212
G01 X19.9193 Y11.8305
G01 X19.9066 Y11.8485
G01 X19.8599 Y11.9116
G01 X19.8463 Y11.9290
G01 X19.8318 Y11.9457
G01 X19.7791 Y12.0039
G01 X19.7716 Y12.0120
G01 X19.7560 Y12.0276
G01 X19.6814 Y12.0952
G01 X19.6644 Y12.1092
G01 X19.6556 Y12.1159
G01 X19.5925 Y12.1626
G01 X19.5745 Y12.1753
G01 X19.5558 Y12.1872
G01 X19.4789 Y12.2331
G01 X19.4594 Y12.2435
G01 X19.4495 Y12.2483
G01 X19.3785 Y12.2819
G01 X19.3584 Y12.2908
G01 X19.3377 Y12.2988
G01 X19.2534 Y12.3288
G01 X19.2429 Y12.3322
G01 X19.2216 Y12.3381
G01 X19.1454 Y12.3571
G01 X19.1347 Y12.3597
G01 X19.1130 Y12.3640
G01 X19.0244 Y12.3773
G01 X19.0025 Y12.3800
G01 X18.9805 Y12.3816
G01 X18.9021 Y12.3855
G01 X18.8800 Y12.3860
G01 X18.8579 Y12.3855
G01 X18.7795 Y12.3816
G01 X18.7685 Y12.3809
G01 X18.7465 Y12.3788
G01 X18.6579 Y12.3658
G01 X18.6361 Y12.3620
G01 X18.6146 Y12.3571
G01 X18.5384 Y12.3381
G01 X18.5171 Y12.3322
G01 X18.4962 Y12.3252
G01 X18.4223 Y12.2988
G01 X18.4016 Y12.2908
G01 X18.3815 Y12.2819
G01 X18.3105 Y12.2483
G01 X18.2908 Y12.2384
G01 X18.2715 Y12.2275
G01 X18.2042 Y12.1872
G01 X18.1855 Y12.1753
G01 X18.1675 Y12.1626
G01 X18.1044 Y12.1159
G01 X18.0870 Y12.1023
G01 X18.0703 Y12.0878
G01 X18.0121 Y12.0351
G01 X17.9961 Y12.0199
G01 X17.9809 Y12.0039
G01 X17.9198 Y11.9362
G01 X16.6714 Y11.9362
G01 X14.3658 Y14.2418
G01 X14.3498 Y14.2570
G01 X14.3243 Y14.2801
G01 X14.3076 Y14.2945
G01 X14.2902 Y14.3081
G01 X14.2626 Y14.3286
G01 X14.2537 Y14.3351
G01 X14.2353 Y14.3473
G01 X14.1964 Y14.3708
G01 X14.1772 Y14.3817
G01 X14.1575 Y14.3916
G01 X14.1264 Y14.4063
G01 X14.1062 Y14.4153
G01 X14.0856 Y14.4232
G01 X14.0533 Y14.4348
G01 X14.0428 Y14.4384
G01 X14.0217 Y14.4448
G01 X13.9669 Y14.4585
G01 X13.9561 Y14.4608
G01 X13.9343 Y14.4646
G01 X13.9004 Y14.4696
G01 X13.8784 Y14.4723
G01 X13.8564 Y14.4739
G01 X13.8221 Y14.4756
G01 X13.8000 Y14.4762
G01 X11.7082 Y14.4762
G01 X11.6868 Y14.5048
G01 X11.6728 Y14.5218
G01 X11.6081 Y14.5934
G01 X11.6006 Y14.6015
G01 X11.5850 Y14.6171
G01 X11.5136 Y14.6819
G01 X11.4969 Y14.6964
G01 X11.4795 Y14.7100
G01 X11.4109 Y14.7608
G01 X11.3929 Y14.7735
G01 X11.3742 Y14.7854
G01 X11.3010 Y14.8292
G01 X11.2817 Y14.8401
G01 X11.2620 Y14.8501
G01 X11.1848 Y14.8866
G01 X11.1748 Y14.8912
G01 X11.1544 Y14.8996
G01 X11.0636 Y14.9322
G01 X11.0427 Y14.9392
G01 X11.0176 Y14.9460
G01 X11.0427 Y14.9528
G01 X11.0636 Y14.9598
G01 X11.1544 Y14.9924
G01 X11.1748 Y15.0008
G01 X11.1848 Y15.0054
G01 X11.2620 Y15.0419
G01 X11.2817 Y15.0519
G01 X11.3010 Y15.0628
G01 X11.3742 Y15.1066
G01 X11.3929 Y15.1185
G01 X11.4109 Y15.1312
G01 X11.4795 Y15.1820
G01 X11.4969 Y15.1956
G01 X11.5136 Y15.2101
G01 X11.5850 Y15.2749
G01 X11.6006 Y15.2905
G01 X11.6081 Y15.2986
G01 X11.6728 Y15.3702
G01 X11.6868 Y15.3872
G01 X11.7082 Y15.4158
G01 X14.4846 Y15.4158
G01 X15.7821 Y14.1185
G01 X15.8157 Y14.0879
G01 X15.8324 Y14.0735
G01 X15.8498 Y14.0599
G01 X15.8774 Y14.0394
G01 X15.8954 Y14.0267
G01 X15.9141 Y14.0149
G01 X15.9436 Y13.9972
G01 X15.9628 Y13.9863
G01 X15.9825 Y13.9764
G01 X16.0136 Y13.9617
G01 X16.0236 Y13.9571
G01 X16.0440 Y13.9486
G01 X16.0972 Y13.9296
G01 X16.1183 Y13.9232
G01 X16.1731 Y13.9095
G01 X16.1948 Y13.9052
G01 X16.2506 Y13.8969
G01 X16.2726 Y13.8947
G01 X16.3290 Y13.8920
G01 X17.9198 Y13.8918
G01 X17.9809 Y13.8241
G01 X17.9961 Y13.8081
G01 X18.0121 Y13.7929
G01 X18.0703 Y13.7402
G01 X18.0870 Y13.7257
G01 X18.1044 Y13.7121
G01 X18.1675 Y13.6654
G01 X18.1855 Y13.6527
G01 X18.2042 Y13.6408
G01 X18.2715 Y13.6005
G01 X18.2908 Y13.5896
G01 X18.3105 Y13.5797
G01 X18.3815 Y13.5461
G01 X18.4016 Y13.5372
G01 X18.4223 Y13.5292
G01 X18.4962 Y13.5028
G01 X18.5171 Y13.4958
G01 X18.5384 Y13.4899
G01 X18.6146 Y13.4709
G01 X18.6361 Y13.4660
G01 X18.6579 Y13.4622
G01 X18.7356 Y13.4507
G01 X18.7575 Y13.4480
G01 X18.7685 Y13.4471
G01 X18.8579 Y13.4425
G01 X18.8800 Y13.4420
G01 X18.9021 Y13.4425
G01 X18.9915 Y13.4471
G01 X19.0025 Y13.4480
G01 X19.0244 Y13.4507
G01 X19.1021 Y13.4622
G01 X19.1239 Y13.4660
G01 X19.1454 Y13.4709
G01 X19.2216 Y13.4899
G01 X19.2429 Y13.4958
G01 X19.2638 Y13.5028
G01 X19.3377 Y13.5292
G01 X19.3584 Y13.5372
G01 X19.3785 Y13.5461
G01 X19.4495 Y13.5797
G01 X19.4692 Y13.5896
G01 X19.4885 Y13.6005
G01 X19.5558 Y13.6408
G01 X19.5745 Y13.6527
G01 X19.5925 Y13.6654
G01 X19.6556 Y13.7121
G01 X19.6730 Y13.7257
G01 X19.6814 Y13.7328
G01 X19.7479 Y13.7929
G01 X19.7639 Y13.8081
G01 X19.7791 Y13.8241
G01 X19.8392 Y13.8906
G01 X19.8463 Y13.8990
G01 X19.8599 Y13.9164
G01 X19.9066 Y13.9795
G01 X19.9193 Y13.9975
G01 X19.9312 Y14.0162
G01 X19.9715 Y14.0835
G01 X19.9824 Y14.1028
G01 X19.9923 Y14.1225
G01 X20.0305 Y14.2035
G01 X20.0348 Y14.2136
G01 X20.0428 Y14.2343
G01 X20.0692 Y14.3082
G01 X20.0762 Y14.3291
G01 X20.0821 Y14.3504
G01 X20.1011 Y14.4266
G01 X20.1060 Y14.4481
G01 X20.1098 Y14.4699
G01 X20.1213 Y14.5476
G01 X20.1240 Y14.5695
G01 X20.1256 Y14.5915
G01 X20.1295 Y14.6699
G01 X20.1300 Y14.6920
G01 X20.1295 Y14.7141
G01 X20.1256 Y14.7925
G01 X20.1240 Y14.8145
G01 X20.1213 Y14.8364
G01 X20.1098 Y14.9141
G01 X20.1060 Y14.9359
G01 X20.1011 Y14.9574
G01 X20.0821 Y15.0336
G01 X20.0762 Y15.0549
G01 X20.0692 Y15.0758
G01 X20.0428 Y15.1497
G01 X20.0348 Y15.1704
G01 X20.0259 Y15.1905
G01 X19.9923 Y15.2615
G01 X19.9824 Y15.2812
G01 X19.9715 Y15.3005
G01 X19.9312 Y15.3678
G01 X19.9193 Y15.3865
G01 X19.9066 Y15.4045
G01 X19.8599 Y15.4676
G01 X19.8463 Y15.4850
G01 X19.8318 Y15.5017
G01 X19.7791 Y15.5599
G01 X19.7639 Y15.5759
G01 X19.7479 Y15.5911
G01 X19.6897 Y15.6438
G01 X19.6730 Y15.6583
G01 X19.6556 Y15.6719
G01 X19.5925 Y15.7186
G01 X19.5745 Y15.7313
G01 X19.5558 Y15.7432
G01 X19.4885 Y15.7835
G01 X19.4692 Y15.7944
G01 X19.4495 Y15.8043
G01 X19.3785 Y15.8379
G01 X19.3584 Y15.8468
G01 X19.3377 Y15.8548
G01 X19.2638 Y15.8812
G01 X19.2429 Y15.8882
G01 X19.2216 Y15.8941
G01 X19.1347 Y15.9157
G01 X19.1239 Y15.9180
G01 X19.1021 Y15.9218
G01 X19.0244 Y15.9333
G01 X19.0025 Y15.9360
G01 X18.9805 Y15.9376
G01 X18.9021 Y15.9415
G01 X18.8800 Y15.9420
G01 X18.8579 Y15.9415
G01 X18.7795 Y15.9376
G01 X18.7575 Y15.9360
G01 X18.7356 Y15.9333
G01 X18.6579 Y15.9218
G01 X18.6361 Y15.9180
G01 X18.6146 Y15.9131
G01 X18.5384 Y15.8941
G01 X18.5171 Y15.8882
G01 X18.4962 Y15.8812
G01 X18.4223 Y15.8548
G01 X18.4016 Y15.8468
G01 X18.3915 Y15.8425
G01 X18.3105 Y15.8043
G01 X18.2908 Y15.7944
G01 X18.2715 Y15.7835
G01 X18.1948 Y15.7374
G01 X18.1764 Y15.7251
G01 X18.1675 Y15.7186
G01 X18.1044 Y15.6719
G01 X18.0870 Y15.6583
G01 X18.0703 Y15.6438
G01 X18.0121 Y15.5911
G01 X17.9961 Y15.5759
G01 X17.9809 Y15.5599
G01 X17.9198 Y15.4922
G01 X16.6714 Y15.4922
G01 X15.3818 Y16.7818
G01 X15.3658 Y16.7970
G01 X15.3403 Y16.8201
G01 X15.3236 Y16.8345
G01 X15.3062 Y16.8481
G01 X15.2786 Y16.8686
G01 X15.2606 Y16.8813
G01 X15.2513 Y16.8873
G01 X15.2124 Y16.9108
G01 X15.1932 Y16.9217
G01 X15.1834 Y16.9268
G01 X15.1324 Y16.9509
G01 X15.1120 Y16.9594
G01 X15.0693 Y16.9748
G01 X15.0483 Y16.9817
G01 X15.0270 Y16.9876
G01 X14.9829 Y16.9985
G01 X14.9612 Y17.0028
G01 X14.9164 Y17.0096
G01 X14.8944 Y17.0123
G01 X14.8724 Y17.0139
G01 X14.8270 Y17.0160
G01 X11.7082 Y17.0162
G01 X11.6868 Y17.0448
G01 X11.6728 Y17.0618
G01 X11.6081 Y17.1334
G01 X11.5929 Y17.1494
G01 X11.5850 Y17.1571
G01 X11.5136 Y17.2219
G01 X11.4969 Y17.2364
G01 X11.4795 Y17.2500
G01 X11.4109 Y17.3008
G01 X11.3929 Y17.3135
G01 X11.3742 Y17.3254
G01 X11.3010 Y17.3692
G01 X11.2817 Y17.3801
G01 X11.2620 Y17.3901
G01 X11.1848 Y17.4266
G01 X11.1646 Y17.4355
G01 X11.1544 Y17.4396
G01 X11.0636 Y17.4722
G01 X11.0427 Y17.4792
G01 X11.0176 Y17.4860
G01 X11.0427 Y17.4928
G01 X11.0636 Y17.4998
G01 X11.1544 Y17.5324
G01 X11.1646 Y17.5365
G01 X11.1848 Y17.5454
G01 X11.2620 Y17.5819
G01 X11.2817 Y17.5919
G01 X11.3010 Y17.6028
G01 X11.3742 Y17.6466
G01 X11.3929 Y17.6585
G01 X11.4109 Y17.6712
G01 X11.4795 Y17.7220
G01 X11.4969 Y17.7356
G01 X11.5136 Y17.7501
G01 X11.5850 Y17.8149
G01 X11.5929 Y17.8226
G01 X11.6081 Y17.8386
G01 X11.6728 Y17.9102
G01 X11.6868 Y17.9272
G01 X11.7082 Y17.9558
G01 X15.5006 Y17.9558
G01 X15.7742 Y17.6822
G01 X15.7902 Y17.6670
G01 X15.8157 Y17.6439
G01 X15.8239 Y17.6366
G01 X15.8410 Y17.6226
G01 X15.8863 Y17.5889
G01 X15.9047 Y17.5767
G01 X15.9531 Y17.5476
G01 X15.9726 Y17.5372
G01 X16.0236 Y17.5131
G01 X16.0440 Y17.5046
G01 X16.0972 Y17.4856
G01 X16.1183 Y17.4792
G01 X16.1731 Y17.4655
G01 X16.1948 Y17.4612
G01 X16.2057 Y17.4594
G01 X16.2396 Y17.4544
G01 X16.2616 Y17.4517
G01 X16.2836 Y17.4501
G01 X16.3290 Y17.4480
G01 X17.9198 Y17.4478
G01 X17.9809 Y17.3801
G01 X17.9884 Y17.3720
G01 X18.0040 Y17.3564
G01 X18.0786 Y17.2888
G01 X18.0870 Y17.2817
G01 X18.1044 Y17.2681
G01 X18.1675 Y17.2214
G01 X18.1855 Y17.2087
G01 X18.2042 Y17.1968
G01 X18.2715 Y17.1565
G01 X18.2811 Y17.1509
G01 X18.3006 Y17.1405
G01 X18.3815 Y17.1021
G01 X18.4016 Y17.0932
G01 X18.4223 Y17.0852
G01 X18.4962 Y17.0588
G01 X18.5171 Y17.0518
G01 X18.5384 Y17.0459
G01 X18.6146 Y17.0269
G01 X18.6361 Y17.0220
G01 X18.6579 Y17.0182
G01 X18.7356 Y17.0067
G01 X18.7575 Y17.0040
G01 X18.7795 Y17.0024
G01 X18.8579 Y16.9985
G01 X18.8800 Y16.9980
G01 X18.8910 Y16.9981
G01 X18.9805 Y17.0024
G01 X19.0025 Y17.0040
G01 X19.0244 Y17.0067
G01 X19.1021 Y17.0182
G01 X19.1239 Y17.0220
G01 X19.1454 Y17.0269
G01 X19.2216 Y17.0459
G01 X19.2429 Y17.0518
G01 X19.2638 Y17.0588
G01 X19.3377 Y17.0852
G01 X19.3584 Y17.0932
G01 X19.3785 Y17.1021
G01 X19.4495 Y17.1357
G01 X19.4692 Y17.1456
G01 X19.4885 Y17.1565
G01 X19.5558 Y17.1968
G01 X19.5745 Y17.2087
G01 X19.5925 Y17.2214
G01 X19.6556 Y17.2681
G01 X19.6730 Y17.2817
G01 X19.6897 Y17.2962
G01 X19.7479 Y17.3489
G01 X19.7639 Y17.3641
G01 X19.7791 Y17.3801
G01 X19.8318 Y17.4383
G01 X19.8463 Y17.4550
G01 X19.8599 Y17.4724
G01 X19.9131 Y17.5444
G01 X19.9193 Y17.5535
G01 X19.9312 Y17.5722
G01 X19.9715 Y17.6395
G01 X19.9771 Y17.6491
G01 X19.9875 Y17.6686
G01 X20.0259 Y17.7495
G01 X20.0348 Y17.7696
G01 X20.0390 Y17.7799
G01 X20.0728 Y17.8746
G01 X20.0793 Y17.8958
G01 X20.0821 Y17.9064
G01 X20.1011 Y17.9826
G01 X20.1060 Y18.0041
G01 X20.1098 Y18.0259
G01 X20.1213 Y18.1036
G01 X20.1240 Y18.1255
G01 X20.1249 Y18.1365
G01 X20.1295 Y18.2259
G01 X20.1300 Y18.2480
G01 X20.1295 Y18.2701
G01 X20.1256 Y18.3485
G01 X20.1240 Y18.3705
G01 X20.1213 Y18.3924
G01 X20.1098 Y18.4701
G01 X20.1060 Y18.4919
G01 X20.1011 Y18.5134
G01 X20.0821 Y18.5896
G01 X20.0762 Y18.6109
G01 X20.0692 Y18.6318
G01 X20.0428 Y18.7057
G01 X20.0348 Y18.7264
G01 X20.0305 Y18.7365
G01 X19.9923 Y18.8175
G01 X19.9824 Y18.8372
G01 X19.9771 Y18.8469
G01 X19.9254 Y18.9332
G01 X19.9131 Y18.9516
G01 X19.9066 Y18.9605
G01 X19.8599 Y19.0236
G01 X19.8463 Y19.0410
G01 X19.8318 Y19.0577
G01 X19.7791 Y19.1159
G01 X19.7716 Y19.1240
G01 X19.7560 Y19.1396
G01 X19.6814 Y19.2072
G01 X19.6644 Y19.2212
G01 X19.6556 Y19.2279
G01 X19.5925 Y19.2746
G01 X19.5745 Y19.2873
G01 X19.5558 Y19.2992
G01 X19.4885 Y19.3395
G01 X19.4692 Y19.3504
G01 X19.4495 Y19.3603
G01 X19.3785 Y19.3939
G01 X19.3584 Y19.4028
G01 X19.3377 Y19.4108
G01 X19.2638 Y19.4372
G01 X19.2429 Y19.4442
G01 X19.2216 Y19.4501
G01 X19.1454 Y19.4691
G01 X19.1239 Y19.4740
G01 X19.1021 Y19.4778
G01 X19.0244 Y19.4893
G01 X19.0025 Y19.4920
G01 X18.9805 Y19.4936
G01 X18.9021 Y19.4975
G01 X18.8800 Y19.4980
G01 X18.8579 Y19.4975
G01 X18.7795 Y19.4936
G01 X18.7575 Y19.4920
G01 X18.7356 Y19.4893
G01 X18.6579 Y19.4778
G01 X18.6361 Y19.4740
G01 X18.6146 Y19.4691
G01 X18.5384 Y19.4501
G01 X18.5171 Y19.4442
G01 X18.4962 Y19.4372
G01 X18.4223 Y19.4108
G01 X18.4016 Y19.4028
G01 X18.3815 Y19.3939
G01 X18.3105 Y19.3603
G01 X18.2908 Y19.3504
G01 X18.2715 Y19.3395
G01 X18.2042 Y19.2992
G01 X18.1855 Y19.2873
G01 X18.1675 Y19.2746
G01 X18.1044 Y19.2279
G01 X18.0870 Y19.2143
G01 X18.0703 Y19.1998
G01 X18.0121 Y19.1471
G01 X17.9961 Y19.1319
G01 X17.9809 Y19.1159
G01 X17.9198 Y19.0482
G01 X16.6714 Y19.0482
G01 X16.3899 Y19.3295
G01 X16.3563 Y19.3601
G01 X16.3396 Y19.3745
G01 X16.3222 Y19.3881
G01 X16.2857 Y19.4151
G01 X16.2766 Y19.4213
G01 X16.2579 Y19.4331
G01 X16.2284 Y19.4508
G01 X16.2092 Y19.4617
G01 X16.1895 Y19.4716
G01 X16.1584 Y19.4863
G01 X16.1382 Y19.4953
G01 X16.1176 Y19.5032
G01 X16.0853 Y19.5148
G01 X16.0643 Y19.5217
G01 X16.0430 Y19.5276
G01 X16.0097 Y19.5360
G01 X15.9989 Y19.5385
G01 X15.9772 Y19.5428
G01 X15.9324 Y19.5496
G01 X15.9104 Y19.5523
G01 X15.8884 Y19.5539
G01 X15.8541 Y19.5556
G01 X15.8320 Y19.5562
G01 X11.7082 Y19.5562
G01 X11.6868 Y19.5848
G01 X11.6728 Y19.6018
G01 X11.6081 Y19.6734
G01 X11.5929 Y19.6894
G01 X11.5850 Y19.6971
G01 X11.5136 Y19.7619
G01 X11.4969 Y19.7764
G01 X11.4795 Y19.7900
G01 X11.4109 Y19.8408
G01 X11.3929 Y19.8535
G01 X11.3742 Y19.8654
G01 X11.3010 Y19.9092
G01 X11.2817 Y19.9201
G01 X11.2620 Y19.9301
G01 X11.1848 Y19.9666
G01 X11.1646 Y19.9755
G01 X11.1544 Y19.9796
G01 X11.0636 Y20.0122
G01 X11.0427 Y20.0192
G01 X11.0176 Y20.0260
G01 X11.0427 Y20.0328
G01 X11.0636 Y20.0398
G01 X11.1544 Y20.0724
G01 X11.1646 Y20.0765
G01 X11.1848 Y20.0854
G01 X11.2620 Y20.1219
G01 X11.2817 Y20.1319
G01 X11.3010 Y20.1428
G01 X11.3742 Y20.1866
G01 X11.3929 Y20.1985
G01 X11.4109 Y20.2112
G01 X11.4795 Y20.2620
G01 X11.4969 Y20.2756
G01 X11.5136 Y20.2901
G01 X11.5850 Y20.3549
G01 X11.5929 Y20.3626
G01 X11.6081 Y20.3786
G01 X11.6728 Y20.4502
G01 X11.6868 Y20.4672
G01 X11.7082 Y20.4958
G01 X15.8320 Y20.4958
G01 X15.8541 Y20.4964
G01 X15.8884 Y20.4981
G01 X15.9104 Y20.4997
G01 X15.9324 Y20.5024
G01 X15.9772 Y20.5092
G01 X15.9989 Y20.5135
G01 X16.0097 Y20.5160
G01 X16.0430 Y20.5244
G01 X16.0643 Y20.5303
G01 X16.0853 Y20.5372
G01 X16.1176 Y20.5488
G01 X16.1382 Y20.5567
G01 X16.1584 Y20.5657
G01 X16.1895 Y20.5804
G01 X16.2092 Y20.5903
G01 X16.2284 Y20.6012
G01 X16.2579 Y20.6189
G01 X16.2766 Y20.6307
G01 X16.2857 Y20.6369
G01 X16.3222 Y20.6639
G01 X16.3396 Y20.6775
G01 X16.3563 Y20.6919
G01 X16.3899 Y20.7225
G01 X16.6714 Y21.0038
G01 X17.9198 Y21.0038
G01 X17.9884 Y20.9280
G01 X17.9961 Y20.9201
G01 X18.0121 Y20.9049
G01 X18.0703 Y20.8522
G01 X18.0870 Y20.8377
G01 X18.1044 Y20.8241
G01 X18.1675 Y20.7774
G01 X18.1855 Y20.7647
G01 X18.2042 Y20.7528
G01 X18.2715 Y20.7125
G01 X18.2908 Y20.7016
G01 X18.3105 Y20.6917
G01 X18.3815 Y20.6581
G01 X18.4016 Y20.6492
G01 X18.4223 Y20.6412
G01 X18.4962 Y20.6148
G01 X18.5171 Y20.6078
G01 X18.5384 Y20.6019
G01 X18.6146 Y20.5829
G01 X18.6361 Y20.5780
G01 X18.6579 Y20.5742
G01 X18.7356 Y20.5627
G01 X18.7575 Y20.5600
G01 X18.7795 Y20.5584
G01 X18.8579 Y20.5545
G01 X18.8800 Y20.5540
G01 X18.9021 Y20.5545
G01 X18.9805 Y20.5584
G01 X18.9915 Y20.5591
G01 X19.0135 Y20.5612
G01 X19.1021 Y20.5742
G01 X19.1130 Y20.5760
G01 X19.1347 Y20.5803
G01 X19.2322 Y20.6047
G01 X19.2534 Y20.6112
G01 X19.2638 Y20.6148
G01 X19.3377 Y20.6412
G01 X19.3584 Y20.6492
G01 X19.3785 Y20.6581
G01 X19.4495 Y20.6917
G01 X19.4594 Y20.6965
G01 X19.4789 Y20.7069
G01 X19.5652 Y20.7586
G01 X19.5745 Y20.7647
G01 X19.5925 Y20.7774
G01 X19.6556 Y20.8241
G01 X19.6730 Y20.8377
G01 X19.6897 Y20.8522
G01 X19.7479 Y20.9049
G01 X19.7639 Y20.9201
G01 X19.7791 Y20.9361
G01 X19.8318 Y20.9943
G01 X19.8463 Y21.0110
G01 X19.8599 Y21.0284
G01 X19.9066 Y21.0915
G01 X19.9193 Y21.1095
G01 X19.9312 Y21.1282
G01 X19.9715 Y21.1955
G01 X19.9824 Y21.2148
G01 X19.9923 Y21.2345
G01 X20.0259 Y21.3055
G01 X20.0348 Y21.3256
G01 X20.0390 Y21.3359
G01 X20.0728 Y21.4306
G01 X20.0793 Y21.4518
G01 X20.0821 Y21.4624
G01 X20.1011 Y21.5386
G01 X20.1060 Y21.5601
G01 X20.1098 Y21.5819
G01 X20.1213 Y21.6596
G01 X20.1240 Y21.6815
G01 X20.1249 Y21.6925
G01 X20.1299 Y21.7930
G01 X20.1299 Y21.8150
G01 X20.1295 Y21.8261
G01 X20.1256 Y21.9045
G01 X20.1240 Y21.9265
G01 X20.1213 Y21.9484
G01 X20.1098 Y22.0261
G01 X20.1060 Y22.0479
G01 X20.1011 Y22.0694
G01 X20.0821 Y22.1456
G01 X20.0762 Y22.1669
G01 X20.0692 Y22.1878
G01 X20.0428 Y22.2617
G01 X20.0348 Y22.2824
G01 X20.0305 Y22.2925
G01 X19.9875 Y22.3834
G01 X19.9771 Y22.4029
G01 X19.9715 Y22.4125
G01 X19.9312 Y22.4798
G01 X19.9193 Y22.4985
G01 X19.9066 Y22.5165
G01 X19.8599 Y22.5796
G01 X19.8463 Y22.5970
G01 X19.8318 Y22.6137
G01 X19.7791 Y22.6719
G01 X19.7639 Y22.6879
G01 X19.7479 Y22.7031
G01 X19.6897 Y22.7558
G01 X19.6730 Y22.7703
G01 X19.6556 Y22.7839
G01 X19.5925 Y22.8306
G01 X19.5745 Y22.8433
G01 X19.5558 Y22.8552
G01 X19.4885 Y22.8955
G01 X19.4692 Y22.9064
G01 X19.4495 Y22.9163
G01 X19.3785 Y22.9499
G01 X19.3584 Y22.9588
G01 X19.3377 Y22.9668
G01 X19.2638 Y22.9932
G01 X19.2429 Y23.0002
G01 X19.2216 Y23.0061
G01 X19.1454 Y23.0251
G01 X19.1347 Y23.0277
G01 X19.1130 Y23.0320
G01 X19.0244 Y23.0453
G01 X19.0025 Y23.0480
G01 X18.9805 Y23.0496
G01 X18.9021 Y23.0535
G01 X18.8800 Y23.0540
G01 X18.8579 Y23.0535
G01 X18.7795 Y23.0496
G01 X18.7575 Y23.0480
G01 X18.7356 Y23.0453
G01 X18.6579 Y23.0338
G01 X18.6361 Y23.0300
G01 X18.6146 Y23.0251
G01 X18.5384 Y23.0061
G01 X18.5171 Y23.0002
G01 X18.4962 Y22.9932
G01 X18.4223 Y22.9668
G01 X18.4016 Y22.9588
G01 X18.3815 Y22.9499
G01 X18.3105 Y22.9163
G01 X18.2908 Y22.9064
G01 X18.2715 Y22.8955
G01 X18.2042 Y22.8552
G01 X18.1948 Y22.8494
G01 X18.1764 Y22.8371
G01 X18.1044 Y22.7839
G01 X18.0870 Y22.7703
G01 X18.0703 Y22.7558
G01 X18.0121 Y22.7031
G01 X17.9961 Y22.6879
G01 X17.9884 Y22.6800
G01 X17.9198 Y22.6042
G01 X16.3290 Y22.6040
G01 X16.2726 Y22.6013
G01 X16.2506 Y22.5991
G01 X16.2396 Y22.5976
G01 X16.2057 Y22.5926
G01 X16.1839 Y22.5888
G01 X16.1623 Y22.5840
G01 X16.1290 Y22.5756
G01 X16.1183 Y22.5728
G01 X16.0972 Y22.5664
G01 X16.0440 Y22.5474
G01 X16.0236 Y22.5389
G01 X15.9726 Y22.5148
G01 X15.9531 Y22.5044
G01 X15.9047 Y22.4753
G01 X15.8863 Y22.4631
G01 X15.8410 Y22.4294
G01 X15.8239 Y22.4154
G01 X15.8157 Y22.4081
G01 X15.7902 Y22.3850
G01 X15.7742 Y22.3698
G01 X15.5006 Y22.0962
G01 X11.7082 Y22.0962
G01 X11.6868 Y22.1248
G01 X11.6728 Y22.1418
G01 X11.6081 Y22.2134
G01 X11.5929 Y22.2294
G01 X11.5850 Y22.2371
G01 X11.5136 Y22.3019
G01 X11.4969 Y22.3164
G01 X11.4795 Y22.3300
G01 X11.4109 Y22.3808
G01 X11.3929 Y22.3935
G01 X11.3742 Y22.4054
G01 X11.3010 Y22.4492
G01 X11.2817 Y22.4601
G01 X11.2620 Y22.4701
G01 X11.1848 Y22.5066
G01 X11.1646 Y22.5155
G01 X11.1544 Y22.5196
G01 X11.0636 Y22.5522
G01 X11.0427 Y22.5592
G01 X11.0176 Y22.5660
G01 X11.0427 Y22.5728
G01 X11.0636 Y22.5798
G01 X11.1544 Y22.6124
G01 X11.1646 Y22.6165
G01 X11.1848 Y22.6254
G01 X11.2620 Y22.6619
G01 X11.2817 Y22.6719
G01 X11.3010 Y22.6828
G01 X11.3742 Y22.7266
G01 X11.3929 Y22.7385
G01 X11.4109 Y22.7512
G01 X11.4795 Y22.8020
G01 X11.4969 Y22.8156
G01 X11.5136 Y22.8301
G01 X11.5850 Y22.8949
G01 X11.5929 Y22.9026
G01 X11.6081 Y22.9186
G01 X11.6728 Y22.9902
G01 X11.6868 Y23.0072
G01 X11.7082 Y23.0358
G01 X14.8270 Y23.0360
G01 X14.8724 Y23.0381
G01 X14.8944 Y23.0397
G01 X14.9164 Y23.0424
G01 X14.9612 Y23.0492
G01 X14.9829 Y23.0535
G01 X15.0270 Y23.0644
G01 X15.0483 Y23.0703
G01 X15.0693 Y23.0772
G01 X15.1120 Y23.0926
G01 X15.1324 Y23.1011
G01 X15.1834 Y23.1252
G01 X15.1932 Y23.1303
G01 X15.2124 Y23.1412
G01 X15.2513 Y23.1647
G01 X15.2606 Y23.1707
G01 X15.2786 Y23.1834
G01 X15.3062 Y23.2039
G01 X15.3236 Y23.2175
G01 X15.3403 Y23.2319
G01 X15.3658 Y23.2550
G01 X15.3818 Y23.2702
G01 X16.6714 Y24.5598
G01 X17.9198 Y24.5598
G01 X17.9809 Y24.4921
G01 X17.9884 Y24.4840
G01 X18.0040 Y24.4684
G01 X18.0786 Y24.4008
G01 X18.0870 Y24.3937
G01 X18.1044 Y24.3801
G01 X18.1675 Y24.3334
G01 X18.1855 Y24.3207
G01 X18.2042 Y24.3088
G01 X18.2715 Y24.2685
G01 X18.2811 Y24.2629
G01 X18.3006 Y24.2525
G01 X18.3815 Y24.2141
G01 X18.4016 Y24.2052
G01 X18.4223 Y24.1972
G01 X18.4962 Y24.1708
G01 X18.5171 Y24.1638
G01 X18.5384 Y24.1579
G01 X18.6146 Y24.1389
G01 X18.6361 Y24.1340
G01 X18.6579 Y24.1302
G01 X18.7356 Y24.1187
G01 X18.7575 Y24.1160
G01 X18.7795 Y24.1144
G01 X18.8579 Y24.1105
G01 X18.8800 Y24.1100
G01 X18.9021 Y24.1105
G01 X18.9805 Y24.1144
G01 X19.0025 Y24.1160
G01 X19.0244 Y24.1187
G01 X19.1021 Y24.1302
G01 X19.1239 Y24.1340
G01 X19.1454 Y24.1389
G01 X19.2322 Y24.1607
G01 X19.2534 Y24.1672
G01 X19.2638 Y24.1708
G01 X19.3377 Y24.1972
G01 X19.3584 Y24.2052
G01 X19.3785 Y24.2141
G01 X19.4495 Y24.2477
G01 X19.4692 Y24.2576
G01 X19.4885 Y24.2685
G01 X19.5558 Y24.3088
G01 X19.5745 Y24.3207
G01 X19.5925 Y24.3334
G01 X19.6556 Y24.3801
G01 X19.6730 Y24.3937
G01 X19.6897 Y24.4082
G01 X19.7479 Y24.4609
G01 X19.7639 Y24.4761
G01 X19.7791 Y24.4921
G01 X19.8318 Y24.5503
G01 X19.8463 Y24.5670
G01 X19.8599 Y24.5844
G01 X19.9066 Y24.6475
G01 X19.9193 Y24.6655
G01 X19.9312 Y24.6842
G01 X19.9715 Y24.7515
G01 X19.9824 Y24.7708
G01 X19.9923 Y24.7905
G01 X20.0259 Y24.8615
G01 X20.0348 Y24.8816
G01 X20.0428 Y24.9023
G01 X20.0692 Y24.9762
G01 X20.0762 Y24.9971
G01 X20.0821 Y25.0184
G01 X20.1011 Y25.0946
G01 X20.1060 Y25.1161
G01 X20.1098 Y25.1379
G01 X20.1228 Y25.2265
G01 X20.1240 Y25.2375
G01 X20.1256 Y25.2595
G01 X20.1295 Y25.3379
G01 X20.1300 Y25.3600
G01 X20.1295 Y25.3821
G01 X20.1256 Y25.4605
G01 X20.1240 Y25.4825
G01 X20.1213 Y25.5044
G01 X20.1098 Y25.5821
G01 X20.1060 Y25.6039
G01 X20.1011 Y25.6254
G01 X20.0793 Y25.7122
G01 X20.0728 Y25.7334
G01 X20.0692 Y25.7438
G01 X20.0428 Y25.8177
G01 X20.0348 Y25.8384
G01 X20.0305 Y25.8485
G01 X19.9923 Y25.9295
G01 X19.9824 Y25.9492
G01 X19.9715 Y25.9685
G01 X19.9312 Y26.0358
G01 X19.9193 Y26.0545
G01 X19.9066 Y26.0725
G01 X19.8599 Y26.1356
G01 X19.8463 Y26.1530
G01 X19.8318 Y26.1697
G01 X19.7791 Y26.2279
G01 X19.7639 Y26.2439
G01 X19.7479 Y26.2591
G01 X19.6897 Y26.3118
G01 X19.6730 Y26.3263
G01 X19.6556 Y26.3399
G01 X19.5836 Y26.3931
G01 X19.5745 Y26.3993
G01 X19.5558 Y26.4112
G01 X19.4885 Y26.4515
G01 X19.4789 Y26.4571
G01 X19.4594 Y26.4675
G01 X19.3785 Y26.5059
G01 X19.3584 Y26.5148
G01 X19.3377 Y26.5228
G01 X19.2638 Y26.5492
G01 X19.2429 Y26.5562
G01 X19.2216 Y26.5621
G01 X19.1454 Y26.5811
G01 X19.1239 Y26.5860
G01 X19.1021 Y26.5898
G01 X19.0244 Y26.6013
G01 X19.0025 Y26.6040
G01 X18.9805 Y26.6056
G01 X18.9021 Y26.6095
G01 X18.8800 Y26.6100
G01 X18.8579 Y26.6095
G01 X18.7795 Y26.6056
G01 X18.7575 Y26.6040
G01 X18.7465 Y26.6028
G01 X18.6579 Y26.5898
G01 X18.6361 Y26.5860
G01 X18.6146 Y26.5811
G01 X18.5384 Y26.5621
G01 X18.5171 Y26.5562
G01 X18.4962 Y26.5492
G01 X18.4223 Y26.5228
G01 X18.4016 Y26.5148
G01 X18.3815 Y26.5059
G01 X18.3105 Y26.4723
G01 X18.2908 Y26.4624
G01 X18.2715 Y26.4515
G01 X18.2042 Y26.4112
G01 X18.1855 Y26.3993
G01 X18.1675 Y26.3866
G01 X18.1044 Y26.3399
G01 X18.0870 Y26.3263
G01 X18.0703 Y26.3118
G01 X18.0121 Y26.2591
G01 X18.0040 Y26.2516
G01 X17.9884 Y26.2360
G01 X17.9198 Y26.1602
G01 X16.3290 Y26.1600
G01 X16.2726 Y26.1573
G01 X16.2506 Y26.1551
G01 X16.1948 Y26.1468
G01 X16.1731 Y26.1425
G01 X16.1183 Y26.1288
G01 X16.0972 Y26.1224
G01 X16.0440 Y26.1034
G01 X16.0236 Y26.0949
G01 X15.9825 Y26.0756
G01 X15.9628 Y26.0657
G01 X15.9436 Y26.0548
G01 X15.9141 Y26.0371
G01 X15.8954 Y26.0253
G01 X15.8774 Y26.0126
G01 X15.8498 Y25.9921
G01 X15.8324 Y25.9785
G01 X15.8157 Y25.9641
G01 X15.7821 Y25.9335
G01 X14.4846 Y24.6362
G01 X11.7082 Y24.6362
G01 X11.6868 Y24.6648
G01 X11.6728 Y24.6818
G01 X11.6081 Y24.7534
G01 X11.5929 Y24.7694
G01 X11.5850 Y24.7771
G01 X11.5136 Y24.8419
G01 X11.4969 Y24.8564
G01 X11.4795 Y24.8700
G01 X11.4109 Y24.9208
G01 X11.3929 Y24.9335
G01 X11.3742 Y24.9454
G01 X11.3010 Y24.9892
G01 X11.2817 Y25.0001
G01 X11.2620 Y25.0101
G01 X11.1848 Y25.0466
G01 X11.1646 Y25.0555
G01 X11.1544 Y25.0596
G01 X11.0636 Y25.0922
G01 X11.0427 Y25.0992
G01 X11.0176 Y25.1060
G01 X11.0427 Y25.1128
G01 X11.0636 Y25.1198
G01 X11.1544 Y25.1524
G01 X11.1748 Y25.1608
G01 X11.1848 Y25.1654
G01 X11.2620 Y25.2019
G01 X11.2817 Y25.2119
G01 X11.3010 Y25.2228
G01 X11.3742 Y25.2666
G01 X11.3929 Y25.2785
G01 X11.4109 Y25.2912
G01 X11.4795 Y25.3420
G01 X11.4969 Y25.3556
G01 X11.5136 Y25.3701
G01 X11.5850 Y25.4349
G01 X11.5929 Y25.4426
G01 X11.6081 Y25.4586
G01 X11.6728 Y25.5302
G01 X11.6868 Y25.5472
G01 X11.7082 Y25.5758
G01 X13.8000 Y25.5758
G01 X13.8221 Y25.5764
G01 X13.8564 Y25.5781
G01 X13.8784 Y25.5797
G01 X13.9004 Y25.5824
G01 X13.9343 Y25.5874
G01 X13.9452 Y25.5892
G01 X13.9669 Y25.5935
G01 X14.0217 Y25.6072
G01 X14.0428 Y25.6136
G01 X14.0533 Y25.6172
G01 X14.0856 Y25.6288
G01 X14.1062 Y25.6367
G01 X14.1264 Y25.6457
G01 X14.1575 Y25.6604
G01 X14.1772 Y25.6703
G01 X14.1964 Y25.6812
G01 X14.2353 Y25.7047
G01 X14.2446 Y25.7107
G01 X14.2626 Y25.7234
G01 X14.2902 Y25.7439
G01 X14.3076 Y25.7575
G01 X14.3243 Y25.7719
G01 X14.3498 Y25.7950
G01 X14.3658 Y25.8102
G01 X16.6714 Y28.1158
G01 X17.9198 Y28.1158
G01 X17.9809 Y28.0481
G01 X17.9961 Y28.0321
G01 X18.0121 Y28.0169
G01 X18.0703 Y27.9642
G01 X18.0786 Y27.9568
G01 X18.0956 Y27.9428
G01 X18.1675 Y27.8894
G01 X18.1764 Y27.8829
G01 X18.1948 Y27.8706
G01 X18.2811 Y27.8189
G01 X18.2908 Y27.8136
G01 X18.3105 Y27.8037
G01 X18.3815 Y27.7701
G01 X18.4016 Y27.7612
G01 X18.4223 Y27.7532
G01 X18.4962 Y27.7268
G01 X18.5066 Y27.7232
G01 X18.5278 Y27.7167
G01 X18.6146 Y27.6949
G01 X18.6253 Y27.6923
G01 X18.6470 Y27.6880
G01 X18.7465 Y27.6732
G01 X18.7575 Y27.6720
G01 X18.7795 Y27.6704
G01 X18.8690 Y27.6661
G01 X18.8800 Y27.6660
G01 X18.9021 Y27.6665
G01 X18.9805 Y27.6704
G01 X19.0025 Y27.6720
G01 X19.0244 Y27.6747
G01 X19.1021 Y27.6862
G01 X19.1239 Y27.6900
G01 X19.1454 Y27.6949
G01 X19.2216 Y27.7139
G01 X19.2429 Y27.7198
G01 X19.2638 Y27.7268
G01 X19.3377 Y27.7532
G01 X19.3584 Y27.7612
G01 X19.3785 Y27.7701
G01 X19.4495 Y27.8037
G01 X19.4692 Y27.8136
G01 X19.4885 Y27.8245
G01 X19.5558 Y27.8648
G01 X19.5745 Y27.8767
G01 X19.5925 Y27.8894
G01 X19.6556 Y27.9361
G01 X19.6730 Y27.9497
G01 X19.6897 Y27.9642
G01 X19.7479 Y28.0169
G01 X19.7639 Y28.0321
G01 X19.7716 Y28.0400
G01 X19.8318 Y28.1063
G01 X19.8463 Y28.1230
G01 X19.8599 Y28.1404
G01 X19.9066 Y28.2035
G01 X19.9193 Y28.2215
G01 X19.9312 Y28.2402
G01 X19.9715 Y28.3075
G01 X19.9824 Y28.3268
G01 X19.9923 Y28.3465
G01 X20.0259 Y28.4175
G01 X20.0348 Y28.4376
G01 X20.0428 Y28.4583
G01 X20.0692 Y28.5322
G01 X20.0762 Y28.5531
G01 X20.0821 Y28.5744
G01 X20.1011 Y28.6506
G01 X20.1037 Y28.6613
G01 X20.1080 Y28.6830
G01 X20.1213 Y28.7716
G01 X20.1240 Y28.7935
G01 X20.1256 Y28.8155
G01 X20.1295 Y28.8939
G01 X20.1300 Y28.9160
G01 X20.1295 Y28.9381
G01 X20.1256 Y29.0165
G01 X20.1240 Y29.0385
G01 X20.1228 Y29.0495
G01 X20.1098 Y29.1381
G01 X20.1060 Y29.1599
G01 X20.1011 Y29.1814
G01 X20.0793 Y29.2682
G01 X20.0728 Y29.2894
G01 X20.0692 Y29.2998
G01 X20.0428 Y29.3737
G01 X20.0348 Y29.3944
G01 X20.0259 Y29.4145
G01 X19.9923 Y29.4855
G01 X19.9824 Y29.5052
G01 X19.9715 Y29.5245
G01 X19.9254 Y29.6012
G01 X19.9131 Y29.6196
G01 X19.9066 Y29.6285
G01 X19.8599 Y29.6916
G01 X19.8463 Y29.7090
G01 X19.8392 Y29.7174
G01 X19.7791 Y29.7839
G01 X19.7639 Y29.7999
G01 X19.7479 Y29.8151
G01 X19.6814 Y29.8752
G01 X19.6730 Y29.8823
G01 X19.6556 Y29.8959
G01 X19.5925 Y29.9426
G01 X19.5745 Y29.9553
G01 X19.5558 Y29.9672
G01 X19.4885 Y30.0075
G01 X19.4692 Y30.0184
G01 X19.4495 Y30.0283
G01 X19.3685 Y30.0665
G01 X19.3481 Y30.0750
G01 X19.3377 Y30.0788
G01 X19.2638 Y30.1052
G01 X19.2429 Y30.1122
G01 X19.2216 Y30.1181
G01 X19.1454 Y30.1371
G01 X19.1239 Y30.1420
G01 X19.1021 Y30.1458
G01 X19.0244 Y30.1573
G01 X19.0025 Y30.1600
G01 X18.9805 Y30.1616
G01 X18.9021 Y30.1655
G01 X18.8800 Y30.1660
G01 X18.8579 Y30.1655
G01 X18.7795 Y30.1616
G01 X18.7575 Y30.1600
G01 X18.7465 Y30.1588
G01 X18.6470 Y30.1440
G01 X18.6253 Y30.1397
G01 X18.6146 Y30.1371
G01 X18.5278 Y30.1153
G01 X18.5171 Y30.1122
G01 X18.4962 Y30.1052
G01 X18.4223 Y30.0788
G01 X18.4016 Y30.0708
G01 X18.3815 Y30.0619
G01 X18.3006 Y30.0235
G01 X18.2811 Y30.0131
G01 X18.2715 Y30.0075
G01 X18.2042 Y29.9672
G01 X18.1855 Y29.9553
G01 X18.1675 Y29.9426
G01 X18.1044 Y29.8959
G01 X18.0870 Y29.8823
G01 X18.0703 Y29.8678
G01 X18.0121 Y29.8151
G01 X17.9961 Y29.7999
G01 X17.9809 Y29.7839
G01 X17.9198 Y29.7162
G01 X16.3400 Y29.7162
G01 X16.3179 Y29.7156
G01 X16.2836 Y29.7139
G01 X16.2726 Y29.7133
G01 X16.2506 Y29.7111
G01 X16.1948 Y29.7028
G01 X16.1731 Y29.6985
G01 X16.1623 Y29.6960
G01 X16.1290 Y29.6876
G01 X16.1077 Y29.6817
G01 X16.0867 Y29.6748
G01 X16.0544 Y29.6632
G01 X16.0338 Y29.6553
G01 X16.0136 Y29.6463
G01 X15.9825 Y29.6316
G01 X15.9628 Y29.6217
G01 X15.9531 Y29.6164
G01 X15.9141 Y29.5931
G01 X15.8954 Y29.5813
G01 X15.8774 Y29.5686
G01 X15.8498 Y29.5481
G01 X15.8410 Y29.5414
G01 X15.8239 Y29.5274
G01 X15.7902 Y29.4970
G01 X15.7742 Y29.4818
G01 X13.4686 Y27.1762
G01 X11.7082 Y27.1762
G01 X11.6868 Y27.2048
G01 X11.6728 Y27.2218
G01 X11.6006 Y27.3015
G01 X11.5929 Y27.3094
G01 X11.5769 Y27.3246
G01 X11.5136 Y27.3819
G01 X11.5053 Y27.3893
G01 X11.4883 Y27.4033
G01 X11.4109 Y27.4608
G01 X11.3929 Y27.4735
G01 X11.3742 Y27.4854
G01 X11.3010 Y27.5292
G01 X11.2817 Y27.5401
G01 X11.2620 Y27.5501
G01 X11.1848 Y27.5866
G01 X11.1634 Y27.5960
G01 X11.2795 Y27.5960
G01 X11.3016 Y27.5965
G01 X11.3261 Y27.5977
G01 X11.3481 Y27.5994
G01 X11.3700 Y27.6021
G01 X11.4052 Y27.6074
G01 X11.4269 Y27.6117
G01 X11.4614 Y27.6203
G01 X11.4827 Y27.6261
G01 X11.5037 Y27.6331
G01 X11.5371 Y27.6452
G01 X11.5575 Y27.6536
G01 X11.5898 Y27.6687
G01 X11.6095 Y27.6787
G01 X11.6287 Y27.6895
G01 X11.6591 Y27.7079
G01 X11.6775 Y27.7202
G01 X11.7062 Y27.7413
G01 X11.7236 Y27.7549
G01 X11.7403 Y27.7693
G01 X11.7666 Y27.7933
G01 X11.7822 Y27.8089
G01 X11.8062 Y27.8352
G01 X11.8206 Y27.8519
G01 X11.8342 Y27.8693
G01 X11.8488 Y27.8890
G01 X11.8615 Y27.9071
G01 X11.8733 Y27.9258
G01 X11.8915 Y27.9563
G01 X11.9019 Y27.9758
G01 X11.9173 Y28.0079
G01 X11.9219 Y28.0180
G01 X11.9303 Y28.0384
G01 X11.9460 Y28.0823
G01 X11.9524 Y28.1034
G01 X11.9638 Y28.1486
G01 X11.9681 Y28.1703
G01 X11.9749 Y28.2164
G01 X11.9771 Y28.2384
G01 X11.9790 Y28.2739
G01 X11.9795 Y28.2960
G01 X11.9795 Y29.3294
G01 X14.3219 Y31.6718
G01 X17.9198 Y31.6718
G01 X17.9809 Y31.6041
G01 X17.9961 Y31.5881
G01 X18.0121 Y31.5729
G01 X18.0703 Y31.5202
G01 X18.0786 Y31.5128
G01 X18.0956 Y31.4988
G01 X18.1675 Y31.4454
G01 X18.1764 Y31.4389
G01 X18.1948 Y31.4266
G01 X18.2811 Y31.3749
G01 X18.2908 Y31.3696
G01 X18.3105 Y31.3597
G01 X18.3815 Y31.3261
G01 X18.4016 Y31.3172
G01 X18.4119 Y31.3130
G01 X18.5066 Y31.2792
G01 X18.5171 Y31.2758
G01 X18.5384 Y31.2699
G01 X18.6146 Y31.2509
G01 X18.6361 Y31.2460
G01 X18.6579 Y31.2422
G01 X18.7356 Y31.2307
G01 X18.7575 Y31.2280
G01 X18.7685 Y31.2271
G01 X18.8579 Y31.2225
G01 X18.8800 Y31.2220
G01 X18.8910 Y31.2221
G01 X18.9805 Y31.2264
G01 X19.0025 Y31.2280
G01 X19.0244 Y31.2307
G01 X19.1021 Y31.2422
G01 X19.1239 Y31.2460
G01 X19.1454 Y31.2509
G01 X19.2216 Y31.2699
G01 X19.2429 Y31.2758
G01 X19.2638 Y31.2828
G01 X19.3377 Y31.3092
G01 X19.3584 Y31.3172
G01 X19.3785 Y31.3261
G01 X19.4495 Y31.3597
G01 X19.4594 Y31.3645
G01 X19.4789 Y31.3749
G01 X19.5558 Y31.4208
G01 X19.5745 Y31.4327
G01 X19.5925 Y31.4454
G01 X19.6556 Y31.4921
G01 X19.6730 Y31.5057
G01 X19.6897 Y31.5202
G01 X19.7479 Y31.5729
G01 X19.7639 Y31.5881
G01 X19.7791 Y31.6041
G01 X19.8318 Y31.6623
G01 X19.8463 Y31.6790
G01 X19.8599 Y31.6964
G01 X19.9066 Y31.7595
G01 X19.9193 Y31.7775
G01 X19.9312 Y31.7962
G01 X19.9715 Y31.8635
G01 X19.9824 Y31.8828
G01 X19.9923 Y31.9025
G01 X20.0305 Y31.9835
G01 X20.0348 Y31.9936
G01 X20.0428 Y32.0143
G01 X20.0692 Y32.0882
G01 X20.0762 Y32.1091
G01 X20.0793 Y32.1198
G01 X20.1011 Y32.2066
G01 X20.1060 Y32.2281
G01 X20.1098 Y32.2499
G01 X20.1213 Y32.3276
G01 X20.1240 Y32.3495
G01 X20.1256 Y32.3715
G01 X20.1295 Y32.4499
G01 X20.1300 Y32.4720
G01 X20.1295 Y32.4941
G01 X20.1256 Y32.5725
G01 X20.1240 Y32.5945
G01 X20.1228 Y32.6055
G01 X20.1098 Y32.6941
G01 X20.1060 Y32.7159
G01 X20.1011 Y32.7374
G01 X20.0821 Y32.8136
G01 X20.0762 Y32.8349
G01 X20.0692 Y32.8558
G01 X20.0428 Y32.9297
G01 X20.0348 Y32.9504
G01 X20.0259 Y32.9705
G01 X19.9923 Y33.0415
G01 X19.9824 Y33.0612
G01 X19.9715 Y33.0805
G01 X19.9312 Y33.1478
G01 X19.9193 Y33.1665
G01 X19.9066 Y33.1845
G01 X19.8532 Y33.2564
G01 X19.8392 Y33.2734
G01 X19.8318 Y33.2817
G01 X19.7791 Y33.3399
G01 X19.7716 Y33.3480
G01 X19.7560 Y33.3636
G01 X19.6897 Y33.4238
G01 X19.6730 Y33.4383
G01 X19.6556 Y33.4519
G01 X19.5925 Y33.4986
G01 X19.5745 Y33.5113
G01 X19.5558 Y33.5232
G01 X19.4885 Y33.5635
G01 X19.4692 Y33.5744
G01 X19.4495 Y33.5843
G01 X19.3785 Y33.6179
G01 X19.3584 Y33.6268
G01 X19.3377 Y33.6348
G01 X19.2638 Y33.6612
G01 X19.2429 Y33.6682
G01 X19.2216 Y33.6741
G01 X19.1347 Y33.6957
G01 X19.1130 Y33.7000
G01 X19.1021 Y33.7018
G01 X19.0244 Y33.7133
G01 X19.0025 Y33.7160
G01 X18.9805 Y33.7176
G01 X18.9021 Y33.7215
G01 X18.8800 Y33.7220
G01 X18.8579 Y33.7215
G01 X18.7795 Y33.7176
G01 X18.7575 Y33.7160
G01 X18.7356 Y33.7133
G01 X18.6579 Y33.7018
G01 X18.6361 Y33.6980
G01 X18.6146 Y33.6931
G01 X18.5384 Y33.6741
G01 X18.5171 Y33.6682
G01 X18.4962 Y33.6612
G01 X18.4223 Y33.6348
G01 X18.4016 Y33.6268
G01 X18.3915 Y33.6225
G01 X18.3105 Y33.5843
G01 X18.2908 Y33.5744
G01 X18.2715 Y33.5635
G01 X18.1948 Y33.5174
G01 X18.1764 Y33.5051
G01 X18.1675 Y33.4986
G01 X18.1044 Y33.4519
G01 X18.0870 Y33.4383
G01 X18.0703 Y33.4238
G01 X18.0121 Y33.3711
G01 X17.9961 Y33.3559
G01 X17.9809 Y33.3399
G01 X17.9198 Y33.2722
G01 X13.9795 Y33.2720
G01 X13.9341 Y33.2699
G01 X13.9121 Y33.2683
G01 X13.8901 Y33.2656
G01 X13.8562 Y33.2606
G01 X13.8344 Y33.2568
G01 X13.8128 Y33.2520
G01 X13.7795 Y33.2436
G01 X13.7582 Y33.2377
G01 X13.7372 Y33.2308
G01 X13.7049 Y33.2192
G01 X13.6843 Y33.2113
G01 X13.6741 Y33.2069
G01 X13.6231 Y33.1828
G01 X13.6036 Y33.1724
G01 X13.5552 Y33.1433
G01 X13.5368 Y33.1311
G01 X13.4915 Y33.0974
G01 X13.4744 Y33.0834
G01 X13.4326 Y33.0455
G01 X10.6229 Y30.2360
G01 X9.5785 Y30.2359
G01 X9.5319 Y30.2336
G01 X9.5209 Y30.2326
G01 X9.4990 Y30.2299
G01 X9.4747 Y30.2263
G01 X9.4529 Y30.2225
G01 X9.4314 Y30.2177
G01 X9.3969 Y30.2089
G01 X9.3863 Y30.2059
G01 X9.3653 Y30.1989
G01 X9.3422 Y30.1907
G01 X9.3216 Y30.1827
G01 X9.3014 Y30.1738
G01 X9.2792 Y30.1633
G01 X9.2595 Y30.1533
G01 X9.2498 Y30.1480
G01 X9.2099 Y30.1241
G01 X9.1915 Y30.1118
G01 X9.1825 Y30.1053
G01 X9.1628 Y30.0907
G01 X9.1454 Y30.0771
G01 X9.1287 Y30.0627
G01 X9.1105 Y30.0462
G01 X9.0945 Y30.0310
G01 X9.0868 Y30.0231
G01 X9.0555 Y29.9885
G01 X9.0415 Y29.9715
G01 X9.0348 Y29.9627
G01 X9.0202 Y29.9430
G01 X9.0075 Y29.9249
G01 X8.9957 Y29.9062
G01 X8.9830 Y29.8852
G01 X8.9722 Y29.8660
G01 X8.9671 Y29.8562
G01 X8.9471 Y29.8140
G01 X8.9387 Y29.7936
G01 X8.9348 Y29.7833
G01 X8.9230 Y29.7497
G01 X8.9166 Y29.7286
G01 X8.9052 Y29.6834
G01 X8.9009 Y29.6617
G01 X8.8956 Y29.6265
G01 X8.8929 Y29.6046
G01 X8.8912 Y29.5826
G01 X8.8900 Y29.5581
G01 X8.8895 Y29.5360
G01 X8.8896 Y28.2850
G01 X8.8912 Y28.2494
G01 X8.8929 Y28.2274
G01 X8.8956 Y28.2055
G01 X8.9009 Y28.1703
G01 X8.9052 Y28.1486
G01 X8.9138 Y28.1141
G01 X8.9196 Y28.0928
G01 X8.9266 Y28.0718
G01 X8.9387 Y28.0384
G01 X8.9471 Y28.0180
G01 X8.9622 Y27.9857
G01 X8.9722 Y27.9660
G01 X8.9830 Y27.9468
G01 X8.9957 Y27.9258
G01 X9.0075 Y27.9071
G01 X9.0202 Y27.8890
G01 X9.0415 Y27.8605
G01 X9.0555 Y27.8435
G01 X9.0868 Y27.8089
G01 X9.1024 Y27.7933
G01 X9.1287 Y27.7693
G01 X9.1454 Y27.7549
G01 X9.1540 Y27.7480
G01 X9.1825 Y27.7267
G01 X9.2006 Y27.7140
G01 X9.2193 Y27.7022
G01 X9.2498 Y27.6840
G01 X9.2693 Y27.6736
G01 X9.3014 Y27.6582
G01 X9.3216 Y27.6493
G01 X9.3422 Y27.6413
G01 X9.3653 Y27.6331
G01 X9.3863 Y27.6261
G01 X9.4076 Y27.6203
G01 X9.4421 Y27.6117
G01 X9.4638 Y27.6074
G01 X9.4990 Y27.6021
G01 X9.5209 Y27.5994
G01 X9.5429 Y27.5977
G01 X9.5674 Y27.5965
G01 X9.5895 Y27.5960
G01 X9.7056 Y27.5960
G01 X11.1634 Y27.5960
G01 X9.7056 Y27.5960
G01 X9.6842 Y27.5866
G01 X9.6070 Y27.5501
G01 X9.5873 Y27.5401
G01 X9.5680 Y27.5292
G01 X9.4948 Y27.4854
G01 X9.4761 Y27.4735
G01 X9.4670 Y27.4673
G01 X9.3895 Y27.4100
G01 X9.3721 Y27.3964
G01 X9.3554 Y27.3819
G01 X9.2921 Y27.3246
G01 X9.2761 Y27.3094
G01 X9.2609 Y27.2934
G01 X9.2036 Y27.2301
G01 X9.1891 Y27.2134
G01 X9.1755 Y27.1960
G01 X9.1247 Y27.1274
G01 X9.1120 Y27.1094
G01 X9.1001 Y27.0907
G01 X9.0563 Y27.0175
G01 X9.0454 Y26.9982
G01 X9.0354 Y26.9785
G01 X8.9989 Y26.9013
G01 X8.9900 Y26.8811
G01 X8.9820 Y26.8605
G01 X8.9533 Y26.7801
G01 X8.9463 Y26.7592
G01 X8.9433 Y26.7486
G01 X8.9197 Y26.6551
G01 X8.9149 Y26.6335
G01 X8.9111 Y26.6118
G01 X8.8986 Y26.5273
G01 X8.8959 Y26.5054
G01 X8.8942 Y26.4834
G01 X8.8900 Y26.3981
G01 X8.8895 Y26.3760
G01 X8.8900 Y26.3539
G01 X8.8942 Y26.2686
G01 X8.8959 Y26.2466
G01 X8.8986 Y26.2247
G01 X8.9111 Y26.1402
G01 X8.9149 Y26.1185
G01 X8.9197 Y26.0969
G01 X8.9404 Y26.0141
G01 X8.9463 Y25.9928
G01 X8.9533 Y25.9719
G01 X8.9820 Y25.8915
G01 X8.9900 Y25.8709
G01 X8.9989 Y25.8507
G01 X9.0354 Y25.7735
G01 X9.0454 Y25.7538
G01 X9.0563 Y25.7345
G01 X9.1001 Y25.6613
G01 X9.1120 Y25.6426
G01 X9.1247 Y25.6246
G01 X9.1755 Y25.5560
G01 X9.1891 Y25.5386
G01 X9.2036 Y25.5219
G01 X9.2609 Y25.4586
G01 X9.2761 Y25.4426
G01 X9.2921 Y25.4274
G01 X9.3554 Y25.3701
G01 X9.3637 Y25.3627
G01 X9.3807 Y25.3487
G01 X9.4581 Y25.2912
G01 X9.4761 Y25.2785
G01 X9.4948 Y25.2666
G01 X9.5680 Y25.2228
G01 X9.5873 Y25.2119
G01 X9.6070 Y25.2019
G01 X9.6842 Y25.1654
G01 X9.7044 Y25.1565
G01 X9.7250 Y25.1485
G01 X9.8158 Y25.1162
G01 X9.8369 Y25.1098
G01 X9.8514 Y25.1060
G01 X11.0176 Y25.1060
G01 X9.8514 Y25.1060
G01 X9.8263 Y25.0992
G01 X9.8054 Y25.0922
G01 X9.7146 Y25.0596
G01 X9.7044 Y25.0555
G01 X9.6842 Y25.0466
G01 X9.6070 Y25.0101
G01 X9.5873 Y25.0001
G01 X9.5776 Y24.9948
G01 X9.4854 Y24.9396
G01 X9.4761 Y24.9335
G01 X9.4581 Y24.9208
G01 X9.3895 Y24.8700
G01 X9.3721 Y24.8564
G01 X9.3554 Y24.8419
G01 X9.2921 Y24.7846
G01 X9.2761 Y24.7694
G01 X9.2609 Y24.7534
G01 X9.2036 Y24.6901
G01 X9.1891 Y24.6734
G01 X9.1755 Y24.6560
G01 X9.1247 Y24.5874
G01 X9.1120 Y24.5694
G01 X9.1001 Y24.5507
G01 X9.0563 Y24.4775
G01 X9.0454 Y24.4582
G01 X9.0354 Y24.4385
G01 X8.9989 Y24.3613
G01 X8.9900 Y24.3411
G01 X8.9820 Y24.3205
G01 X8.9533 Y24.2401
G01 X8.9463 Y24.2192
G01 X8.9404 Y24.1979
G01 X8.9197 Y24.1151
G01 X8.9149 Y24.0935
G01 X8.9111 Y24.0718
G01 X8.8971 Y23.9764
G01 X8.8959 Y23.9654
G01 X8.8942 Y23.9434
G01 X8.8900 Y23.8581
G01 X8.8895 Y23.8360
G01 X8.8900 Y23.8139
G01 X8.8942 Y23.7286
G01 X8.8959 Y23.7066
G01 X8.8971 Y23.6956
G01 X8.9111 Y23.6002
G01 X8.9149 Y23.5785
G01 X8.9197 Y23.5569
G01 X8.9404 Y23.4741
G01 X8.9463 Y23.4528
G01 X8.9533 Y23.4319
G01 X8.9820 Y23.3515
G01 X8.9900 Y23.3309
G01 X8.9989 Y23.3107
G01 X9.0354 Y23.2335
G01 X9.0454 Y23.2138
G01 X9.0563 Y23.1945
G01 X9.1001 Y23.1213
G01 X9.1120 Y23.1026
G01 X9.1247 Y23.0846
G01 X9.1755 Y23.0160
G01 X9.1822 Y23.0072
G01 X9.1962 Y22.9902
G01 X9.2609 Y22.9186
G01 X9.2761 Y22.9026
G01 X9.2921 Y22.8874
G01 X9.3554 Y22.8301
G01 X9.3721 Y22.8156
G01 X9.3895 Y22.8020
G01 X9.4581 Y22.7512
G01 X9.4761 Y22.7385
G01 X9.4854 Y22.7324
G01 X9.5680 Y22.6828
G01 X9.5873 Y22.6719
G01 X9.6070 Y22.6619
G01 X9.6942 Y22.6208
G01 X9.7044 Y22.6165
G01 X9.7250 Y22.6085
G01 X9.8054 Y22.5798
G01 X9.8263 Y22.5728
G01 X9.8514 Y22.5660
G01 X11.0176 Y22.5660
G01 X9.8514 Y22.5660
G01 X9.8263 Y22.5592
G01 X9.8054 Y22.5522
G01 X9.7146 Y22.5196
G01 X9.7044 Y22.5155
G01 X9.6842 Y22.5066
G01 X9.6070 Y22.4701
G01 X9.5873 Y22.4601
G01 X9.5776 Y22.4548
G01 X9.4854 Y22.3996
G01 X9.4761 Y22.3935
G01 X9.4581 Y22.3808
G01 X9.3895 Y22.3300
G01 X9.3721 Y22.3164
G01 X9.3554 Y22.3019
G01 X9.2921 Y22.2446
G01 X9.2761 Y22.2294
G01 X9.2609 Y22.2134
G01 X9.2036 Y22.1501
G01 X9.1891 Y22.1334
G01 X9.1755 Y22.1160
G01 X9.1247 Y22.0474
G01 X9.1120 Y22.0294
G01 X9.1001 Y22.0107
G01 X9.0563 Y21.9375
G01 X9.0454 Y21.9182
G01 X9.0354 Y21.8985
G01 X8.9989 Y21.8213
G01 X8.9900 Y21.8011
G01 X8.9859 Y21.7909
G01 X8.9533 Y21.7001
G01 X8.9463 Y21.6792
G01 X8.9404 Y21.6579
G01 X8.9197 Y21.5751
G01 X8.9149 Y21.5535
G01 X8.9111 Y21.5318
G01 X8.8986 Y21.4473
G01 X8.8959 Y21.4254
G01 X8.8942 Y21.4034
G01 X8.8900 Y21.3181
G01 X8.8895 Y21.2960
G01 X8.8900 Y21.2739
G01 X8.8942 Y21.1886
G01 X8.8959 Y21.1666
G01 X8.8986 Y21.1447
G01 X8.9111 Y21.0602
G01 X8.9149 Y21.0385
G01 X8.9197 Y21.0169
G01 X8.9404 Y20.9341
G01 X8.9463 Y20.9128
G01 X8.9533 Y20.8919
G01 X8.9820 Y20.8115
G01 X8.9900 Y20.7909
G01 X8.9989 Y20.7707
G01 X9.0354 Y20.6935
G01 X9.0454 Y20.6738
G01 X9.0563 Y20.6545
G01 X9.1001 Y20.5813
G01 X9.1120 Y20.5626
G01 X9.1247 Y20.5446
G01 X9.1755 Y20.4760
G01 X9.1891 Y20.4586
G01 X9.2036 Y20.4419
G01 X9.2609 Y20.3786
G01 X9.2761 Y20.3626
G01 X9.2921 Y20.3474
G01 X9.3554 Y20.2901
G01 X9.3721 Y20.2756
G01 X9.3895 Y20.2620
G01 X9.4581 Y20.2112
G01 X9.4761 Y20.1985
G01 X9.4948 Y20.1866
G01 X9.5680 Y20.1428
G01 X9.5873 Y20.1319
G01 X9.6070 Y20.1219
G01 X9.6842 Y20.0854
G01 X9.7044 Y20.0765
G01 X9.7146 Y20.0724
G01 X9.8054 Y20.0398
G01 X9.8263 Y20.0328
G01 X9.8514 Y20.0260
G01 X11.0176 Y20.0260
G01 X9.8514 Y20.0260
G01 X9.8263 Y20.0192
G01 X9.8054 Y20.0122
G01 X9.7146 Y19.9796
G01 X9.7044 Y19.9755
G01 X9.6842 Y19.9666
G01 X9.6070 Y19.9301
G01 X9.5873 Y19.9201
G01 X9.5680 Y19.9092
G01 X9.4948 Y19.8654
G01 X9.4761 Y19.8535
G01 X9.4670 Y19.8473
G01 X9.3895 Y19.7900
G01 X9.3721 Y19.7764
G01 X9.3554 Y19.7619
G01 X9.2921 Y19.7046
G01 X9.2761 Y19.6894
G01 X9.2609 Y19.6734
G01 X9.2036 Y19.6101
G01 X9.1891 Y19.5934
G01 X9.1755 Y19.5760
G01 X9.1182 Y19.4985
G01 X9.1120 Y19.4894
G01 X9.1001 Y19.4707
G01 X9.0563 Y19.3975
G01 X9.0454 Y19.3782
G01 X9.0354 Y19.3585
G01 X8.9989 Y19.2813
G01 X8.9943 Y19.2713
G01 X8.9859 Y19.2509
G01 X8.9533 Y19.1601
G01 X8.9463 Y19.1392
G01 X8.9404 Y19.1179
G01 X8.9197 Y19.0351
G01 X8.9149 Y19.0135
G01 X8.9111 Y18.9918
G01 X8.8986 Y18.9073
G01 X8.8959 Y18.8854
G01 X8.8942 Y18.8634
G01 X8.8900 Y18.7781
G01 X8.8895 Y18.7560
G01 X8.8900 Y18.7339
G01 X8.8949 Y18.6376
G01 X8.8971 Y18.6156
G01 X8.8986 Y18.6047
G01 X8.9111 Y18.5202
G01 X8.9149 Y18.4985
G01 X8.9197 Y18.4769
G01 X8.9404 Y18.3941
G01 X8.9463 Y18.3728
G01 X8.9533 Y18.3519
G01 X8.9820 Y18.2715
G01 X8.9900 Y18.2509
G01 X8.9989 Y18.2307
G01 X9.0354 Y18.1535
G01 X9.0454 Y18.1338
G01 X9.0563 Y18.1145
G01 X9.1001 Y18.0413
G01 X9.1120 Y18.0226
G01 X9.1247 Y18.0046
G01 X9.1755 Y17.9360
G01 X9.1891 Y17.9186
G01 X9.2036 Y17.9019
G01 X9.2609 Y17.8386
G01 X9.2761 Y17.8226
G01 X9.2921 Y17.8074
G01 X9.3554 Y17.7501
G01 X9.3721 Y17.7356
G01 X9.3895 Y17.7220
G01 X9.4581 Y17.6712
G01 X9.4761 Y17.6585
G01 X9.4948 Y17.6466
G01 X9.5680 Y17.6028
G01 X9.5873 Y17.5919
G01 X9.6070 Y17.5819
G01 X9.6842 Y17.5454
G01 X9.7044 Y17.5365
G01 X9.7146 Y17.5324
G01 X9.8054 Y17.4998
G01 X9.8263 Y17.4928
G01 X9.8514 Y17.4860
G01 X11.0176 Y17.4860
G01 X9.8514 Y17.4860
G01 X9.8263 Y17.4792
G01 X9.8054 Y17.4722
G01 X9.7146 Y17.4396
G01 X9.7044 Y17.4355
G01 X9.6842 Y17.4266
G01 X9.6070 Y17.3901
G01 X9.5873 Y17.3801
G01 X9.5680 Y17.3692
G01 X9.4948 Y17.3254
G01 X9.4761 Y17.3135
G01 X9.4670 Y17.3073
G01 X9.3895 Y17.2500
G01 X9.3721 Y17.2364
G01 X9.3554 Y17.2219
G01 X9.2921 Y17.1646
G01 X9.2761 Y17.1494
G01 X9.2609 Y17.1334
G01 X9.2036 Y17.0701
G01 X9.1891 Y17.0534
G01 X9.1755 Y17.0360
G01 X9.1182 Y16.9585
G01 X9.1059 Y16.9401
G01 X9.1001 Y16.9307
G01 X9.0563 Y16.8575
G01 X9.0454 Y16.8382
G01 X9.0354 Y16.8185
G01 X8.9989 Y16.7413
G01 X8.9900 Y16.7211
G01 X8.9859 Y16.7109
G01 X8.9533 Y16.6201
G01 X8.9463 Y16.5992
G01 X8.9404 Y16.5779
G01 X8.9197 Y16.4951
G01 X8.9149 Y16.4735
G01 X8.9111 Y16.4518
G01 X8.8986 Y16.3673
G01 X8.8959 Y16.3454
G01 X8.8942 Y16.3234
G01 X8.8900 Y16.2381
G01 X8.8895 Y16.2160
G01 X8.8900 Y16.1939
G01 X8.8949 Y16.0976
G01 X8.8971 Y16.0756
G01 X8.8986 Y16.0647
G01 X8.9111 Y15.9802
G01 X8.9149 Y15.9585
G01 X8.9197 Y15.9369
G01 X8.9404 Y15.8541
G01 X8.9463 Y15.8328
G01 X8.9533 Y15.8119
G01 X8.9820 Y15.7315
G01 X8.9900 Y15.7109
G01 X8.9989 Y15.6907
G01 X9.0354 Y15.6135
G01 X9.0454 Y15.5938
G01 X9.0563 Y15.5745
G01 X9.1001 Y15.5013
G01 X9.1120 Y15.4826
G01 X9.1247 Y15.4646
G01 X9.1755 Y15.3960
G01 X9.1891 Y15.3786
G01 X9.2036 Y15.3619
G01 X9.2609 Y15.2986
G01 X9.2761 Y15.2826
G01 X9.2921 Y15.2674
G01 X9.3554 Y15.2101
G01 X9.3721 Y15.1956
G01 X9.3895 Y15.1820
G01 X9.4581 Y15.1312
G01 X9.4761 Y15.1185
G01 X9.4948 Y15.1066
G01 X9.5680 Y15.0628
G01 X9.5873 Y15.0519
G01 X9.6070 Y15.0419
G01 X9.6842 Y15.0054
G01 X9.6942 Y15.0008
G01 X9.7146 Y14.9924
G01 X9.8054 Y14.9598
G01 X9.8263 Y14.9528
G01 X9.8514 Y14.9460
G01 X11.0176 Y14.9460
G01 X9.8514 Y14.9460
G01 X9.8263 Y14.9392
G01 X9.8054 Y14.9322
G01 X9.7146 Y14.8996
G01 X9.6942 Y14.8912
G01 X9.6842 Y14.8866
G01 X9.6070 Y14.8501
G01 X9.5873 Y14.8401
G01 X9.5680 Y14.8292
G01 X9.4948 Y14.7854
G01 X9.4761 Y14.7735
G01 X9.4670 Y14.7673
G01 X9.3895 Y14.7100
G01 X9.3721 Y14.6964
G01 X9.3554 Y14.6819
G01 X9.2921 Y14.6246
G01 X9.2761 Y14.6094
G01 X9.2609 Y14.5934
G01 X9.2036 Y14.5301
G01 X9.1891 Y14.5134
G01 X9.1755 Y14.4960
G01 X9.1182 Y14.4185
G01 X9.1120 Y14.4094
G01 X9.1001 Y14.3907
G01 X9.0563 Y14.3175
G01 X9.0454 Y14.2982
G01 X9.0354 Y14.2785
G01 X8.9989 Y14.2013
G01 X8.9900 Y14.1811
G01 X8.9859 Y14.1709
G01 X8.9533 Y14.0801
G01 X8.9463 Y14.0592
G01 X8.9404 Y14.0379
G01 X8.9197 Y13.9551
G01 X8.9149 Y13.9335
G01 X8.9111 Y13.9118
G01 X8.8986 Y13.8273
G01 X8.8959 Y13.8054
G01 X8.8942 Y13.7834
G01 X8.8900 Y13.6981
G01 X8.8895 Y13.6760
G01 X8.8900 Y13.6539
G01 X8.8942 Y13.5686
G01 X8.8959 Y13.5466
G01 X8.8971 Y13.5356
G01 X8.9111 Y13.4402
G01 X8.9149 Y13.4185
G01 X8.9197 Y13.3969
G01 X8.9404 Y13.3141
G01 X8.9463 Y13.2928
G01 X8.9533 Y13.2719
G01 X8.9820 Y13.1915
G01 X8.9900 Y13.1709
G01 X8.9989 Y13.1507
G01 X9.0354 Y13.0735
G01 X9.0454 Y13.0538
G01 X9.0563 Y13.0345
G01 X9.1001 Y12.9613
G01 X9.1120 Y12.9426
G01 X9.1247 Y12.9246
G01 X9.1755 Y12.8560
G01 X9.1891 Y12.8386
G01 X9.2036 Y12.8219
G01 X9.2609 Y12.7586
G01 X9.2761 Y12.7426
G01 X9.2921 Y12.7274
G01 X9.3554 Y12.6701
G01 X9.3721 Y12.6556
G01 X9.3895 Y12.6420
G01 X9.4581 Y12.5912
G01 X9.4761 Y12.5785
G01 X9.4948 Y12.5666
G01 X9.5680 Y12.5228
G01 X9.5873 Y12.5119
G01 X9.6070 Y12.5019
G01 X9.6842 Y12.4654
G01 X9.6942 Y12.4608
G01 X9.7146 Y12.4524
G01 X9.8054 Y12.4198
G01 X9.8263 Y12.4128
G01 X9.8514 Y12.4060
G01 X11.0176 Y12.4060
G01 X9.8514 Y12.4060
G01 X9.8263 Y12.3992
G01 X9.8054 Y12.3922
G01 X9.7146 Y12.3596
G01 X9.6942 Y12.3512
G01 X9.6842 Y12.3466
G01 X9.6070 Y12.3101
G01 X9.5873 Y12.3001
G01 X9.5680 Y12.2892
G01 X9.4948 Y12.2454
G01 X9.4854 Y12.2396
G01 X9.4670 Y12.2273
G01 X9.3895 Y12.1700
G01 X9.3721 Y12.1564
G01 X9.3554 Y12.1419
G01 X9.2921 Y12.0846
G01 X9.2761 Y12.0694
G01 X9.2609 Y12.0534
G01 X9.2036 Y11.9901
G01 X9.1891 Y11.9734
G01 X9.1755 Y11.9560
G01 X9.1182 Y11.8785
G01 X9.1120 Y11.8694
G01 X9.1001 Y11.8507
G01 X9.0563 Y11.7775
G01 X9.0454 Y11.7582
G01 X9.0354 Y11.7385
G01 X8.9989 Y11.6613
G01 X8.9900 Y11.6411
G01 X8.9859 Y11.6309
G01 X8.9533 Y11.5401
G01 X8.9463 Y11.5192
G01 X8.9404 Y11.4979
G01 X8.9197 Y11.4151
G01 X8.9149 Y11.3935
G01 X8.9111 Y11.3718
G01 X8.8986 Y11.2873
G01 X8.8959 Y11.2654
G01 X8.8942 Y11.2434
G01 X8.8900 Y11.1581
G01 X8.8895 Y11.1360
G01 X8.8900 Y11.1139
G01 X8.8949 Y11.0176
G01 X8.8971 Y10.9956
G01 X8.8986 Y10.9847
G01 X8.9111 Y10.9002
G01 X8.9149 Y10.8785
G01 X8.9197 Y10.8569
G01 X8.9404 Y10.7741
G01 X8.9463 Y10.7528
G01 X8.9533 Y10.7319
G01 X8.9820 Y10.6515
G01 X8.9900 Y10.6309
G01 X8.9989 Y10.6107
G01 X9.0354 Y10.5335
G01 X9.0454 Y10.5138
G01 X9.0563 Y10.4945
G01 X9.1001 Y10.4213
G01 X9.1120 Y10.4026
G01 X9.1247 Y10.3846
G01 X9.1755 Y10.3160
G01 X9.1822 Y10.3072
G01 X9.1962 Y10.2902
G01 X9.2609 Y10.2186
G01 X9.2761 Y10.2026
G01 X9.2840 Y10.1949
G01 X9.3637 Y10.1227
G01 X9.3807 Y10.1087
G01 X9.3895 Y10.1020
G01 X9.4670 Y10.0447
G01 X9.4761 Y10.0385
G01 X9.4948 Y10.0266
G01 X9.5680 Y9.9828
G01 X9.5873 Y9.9719
G01 X9.6070 Y9.9619
G01 X9.6842 Y9.9254
G01 X9.7044 Y9.9165
G01 X9.7250 Y9.9085
G01 X9.8054 Y9.8798
G01 X9.8263 Y9.8728
G01 X9.8476 Y9.8669
G01 X9.9304 Y9.8462
G01 X9.9520 Y9.8414
G01 X9.9737 Y9.8376
G01 X10.0582 Y9.8251
G01 X10.0801 Y9.8224
G01 X10.1021 Y9.8207
G01 X10.1874 Y9.8165
G01 X10.2095 Y9.8160
G01 X10.6229 Y9.8160
G00 Z5.0000
G00 X1.2460 Y26.3778
G01 F120.00
G01 Z-0.2500
G01 F240.00
G01 X1.1838 Y6.8383
G01 X1.1843 Y6.8162
G01 X1.1864 Y6.7815
G01 X1.1909 Y6.7471
G01 X1.1946 Y6.7253
G01 X1.1994 Y6.7036
G01 X1.2053 Y6.6808
G01 X1.2117 Y6.6595
G01 X1.2194 Y6.6372
G01 X1.2274 Y6.6165
G01 X1.2317 Y6.6063
G01 X1.2417 Y6.5849
G01 X1.2516 Y6.5651
G01 X1.2625 Y6.5458
G01 X1.2748 Y6.5256
G01 X1.2808 Y6.5163
G01 X1.2936 Y6.4982
G01 X1.3146 Y6.4706
G01 X1.3291 Y6.4538
G01 X1.3451 Y6.4364
G01 X6.0453 Y1.7360
G01 X6.0613 Y1.7207
G01 X6.0788 Y1.7050
G01 X6.0959 Y1.6910
G01 X6.1147 Y1.6769
G01 X6.1328 Y1.6642
G01 X6.1514 Y1.6524
G01 X6.1717 Y1.6404
G01 X6.1912 Y1.6300
G01 X6.2124 Y1.6198
G01 X6.2325 Y1.6109
G01 X6.2532 Y1.6029
G01 X6.2753 Y1.5951
G01 X6.2965 Y1.5887
G01 X6.3193 Y1.5829
G01 X6.3408 Y1.5780
G01 X6.3626 Y1.5742
G01 X6.3858 Y1.5709
G01 X6.4078 Y1.5688
G01 X6.4313 Y1.5675
G01 X6.4534 Y1.5669
G01 X128.3346 Y1.5669
G01 X128.3567 Y1.5675
G01 X128.3802 Y1.5688
G01 X128.4022 Y1.5709
G01 X128.4363 Y1.5760
G01 X128.4580 Y1.5803
G01 X128.4808 Y1.5859
G01 X128.5021 Y1.5918
G01 X128.5348 Y1.6029
G01 X128.5555 Y1.6109
G01 X128.5756 Y1.6198
G01 X128.6066 Y1.6351
G01 X128.6366 Y1.6524
G01 X128.6552 Y1.6642
G01 X128.6733 Y1.6769
G01 X128.7007 Y1.6979
G01 X128.7174 Y1.7124
G01 X128.7348 Y1.7282
G01 X133.4360 Y6.4293
G01 X133.4513 Y6.4453
G01 X133.4670 Y6.4628
G01 X133.4810 Y6.4799
G01 X133.5016 Y6.5077
G01 X133.5138 Y6.5260
G01 X133.5260 Y6.5461
G01 X133.5369 Y6.5654
G01 X133.5522 Y6.5964
G01 X133.5611 Y6.6165
G01 X133.5691 Y6.6372
G01 X133.5769 Y6.6593
G01 X133.5833 Y6.6805
G01 X133.5917 Y6.7140
G01 X133.5960 Y6.7357
G01 X133.5996 Y6.7589
G01 X133.6023 Y6.7808
G01 X133.6039 Y6.8028
G01 X133.6051 Y6.8374
G01 X133.6049 Y165.8137
G01 X133.6039 Y165.8372
G01 X133.6023 Y165.8592
G01 X133.5986 Y165.8877
G01 X133.5940 Y165.9152
G01 X133.5876 Y165.9429
G01 X133.5802 Y165.9701
G01 X133.5733 Y165.9911
G01 X133.5611 Y166.0234
G01 X133.5514 Y166.0453
G01 X133.5369 Y166.0746
G01 X133.5196 Y166.1046
G01 X133.5078 Y166.1232
G01 X133.4913 Y166.1465
G01 X133.4741 Y166.1687
G01 X133.4596 Y166.1854
G01 X133.4438 Y166.2028
G01 X128.7427 Y170.9040
G01 X128.7267 Y170.9193
G01 X128.7092 Y170.9350
G01 X128.6921 Y170.9490
G01 X128.6643 Y170.9696
G01 X128.6460 Y170.9818
G01 X128.6259 Y170.9940
G01 X128.6066 Y171.0049
G01 X128.5756 Y171.0202
G01 X128.5555 Y171.0291
G01 X128.5348 Y171.0371
G01 X128.5127 Y171.0449
G01 X128.4915 Y171.0513
G01 X128.4580 Y171.0597
G01 X128.4363 Y171.0640
G01 X128.4131 Y171.0676
G01 X128.3912 Y171.0703
G01 X128.3692 Y171.0719
G01 X128.3346 Y171.0731
G01 X6.9614 Y171.0731
G01 X6.9393 Y171.0725
G01 X6.9158 Y171.0712
G01 X6.8938 Y171.0691
G01 X6.8597 Y171.0640
G01 X6.8380 Y171.0597
G01 X6.8152 Y171.0541
G01 X6.7939 Y171.0482
G01 X6.7612 Y171.0371
G01 X6.7405 Y171.0291
G01 X6.7204 Y171.0202
G01 X6.6894 Y171.0049
G01 X6.6594 Y170.9876
G01 X6.6408 Y170.9758
G01 X6.6227 Y170.9631
G01 X6.5953 Y170.9421
G01 X6.5786 Y170.9276
G01 X6.5612 Y170.9118
G01 X1.8591 Y166.2098
G01 X1.8439 Y166.1939
G01 X1.8283 Y166.1764
G01 X1.8143 Y166.1594
G01 X1.7938 Y166.1318
G01 X1.7816 Y166.1135
G01 X1.7694 Y166.0935
G01 X1.7585 Y166.0744
G01 X1.7433 Y166.0435
G01 X1.7343 Y166.0234
G01 X1.7264 Y166.0029
G01 X1.7186 Y165.9808
G01 X1.7122 Y165.9598
G01 X1.7037 Y165.9264
G01 X1.6994 Y165.9049
G01 X1.6958 Y165.8817
G01 X1.6930 Y165.8599
G01 X1.6907 Y165.8256
G01 X1.6901 Y165.8036
G01 X1.2460 Y26.3778
G00 Z5.0000
G00 X9.9244 Y40.2960
G01 F120.00
G01 Z-0.2500
G01 F240.00
G01 X12.6706 Y37.5500
G01 X12.7042 Y37.5194
G01 X12.7209 Y37.5050
G01 X12.7383 Y37.4914
G01 X12.7659 Y37.4709
G01 X12.7839 Y37.4582
G01 X12.7932 Y37.4522
G01 X12.8416 Y37.4231
G01 X12.8611 Y37.4127
G01 X12.8710 Y37.4079
G01 X12.9021 Y37.3932
G01 X12.9223 Y37.3842
G01 X12.9429 Y37.3763
G01 X12.9857 Y37.3611
G01 X13.0068 Y37.3547
G01 X13.0175 Y37.3519
G01 X13.0508 Y37.3435
G01 X13.0724 Y37.3387
G01 X13.0942 Y37.3349
G01 X13.1391 Y37.3284
G01 X13.1501 Y37.3272
G01 X13.1721 Y37.3256
G01 X13.2064 Y37.3239
G01 X13.2285 Y37.3233
G01 X17.9198 Y37.3233
G01 X17.9809 Y37.2556
G01 X17.9884 Y37.2475
G01 X18.0040 Y37.2319
G01 X18.0786 Y37.1643
G01 X18.0870 Y37.1572
G01 X18.1044 Y37.1436
G01 X18.1675 Y37.0969
G01 X18.1855 Y37.0842
G01 X18.2042 Y37.0723
G01 X18.2715 Y37.0320
G01 X18.2908 Y37.0211
G01 X18.3006 Y37.0160
G01 X18.3915 Y36.9730
G01 X18.4119 Y36.9645
G01 X18.4223 Y36.9607
G01 X18.4962 Y36.9343
G01 X18.5171 Y36.9273
G01 X18.5384 Y36.9214
G01 X18.6146 Y36.9024
G01 X18.6361 Y36.8975
G01 X18.6579 Y36.8937
G01 X18.7356 Y36.8822
G01 X18.7575 Y36.8795
G01 X18.7795 Y36.8779
G01 X18.8579 Y36.8740
G01 X18.8800 Y36.8735
G01 X18.9021 Y36.8740
G01 X18.9805 Y36.8779
G01 X19.0025 Y36.8795
G01 X19.0244 Y36.8822
G01 X19.1130 Y36.8955
G01 X19.1239 Y36.8975
G01 X19.1454 Y36.9024
G01 X19.2216 Y36.9214
G01 X19.2429 Y36.9273
G01 X19.2534 Y36.9307
G01 X19.3377 Y36.9607
G01 X19.3584 Y36.9687
G01 X19.3785 Y36.9776
G01 X19.4495 Y37.0112
G01 X19.4692 Y37.0211
G01 X19.4885 Y37.0320
G01 X19.5558 Y37.0723
G01 X19.5652 Y37.0781
G01 X19.5836 Y37.0904
G01 X19.6556 Y37.1436
G01 X19.6730 Y37.1572
G01 X19.6897 Y37.1717
G01 X19.7479 Y37.2244
G01 X19.7639 Y37.2396
G01 X19.7791 Y37.2556
G01 X19.8318 Y37.3138
G01 X19.8463 Y37.3305
G01 X19.8599 Y37.3479
G01 X19.9066 Y37.4110
G01 X19.9193 Y37.4290
G01 X19.9312 Y37.4477
G01 X19.9715 Y37.5150
G01 X19.9824 Y37.5343
G01 X19.9923 Y37.5540
G01 X20.0259 Y37.6250
G01 X20.0305 Y37.6350
G01 X20.0390 Y37.6554
G01 X20.0692 Y37.7397
G01 X20.0762 Y37.7606
G01 X20.0793 Y37.7713
G01 X20.1037 Y37.8688
G01 X20.1060 Y37.8796
G01 X20.1098 Y37.9014
G01 X20.1228 Y37.9900
G01 X20.1240 Y38.0010
G01 X20.1256 Y38.0230
G01 X20.1295 Y38.1014
G01 X20.1300 Y38.1235
G01 X20.1295 Y38.1456
G01 X20.1256 Y38.2240
G01 X20.1240 Y38.2460
G01 X20.1213 Y38.2679
G01 X20.1098 Y38.3456
G01 X20.1060 Y38.3674
G01 X20.1011 Y38.3889
G01 X20.0821 Y38.4651
G01 X20.0762 Y38.4864
G01 X20.0692 Y38.5073
G01 X20.0428 Y38.5812
G01 X20.0348 Y38.6019
G01 X20.0259 Y38.6220
G01 X19.9923 Y38.6930
G01 X19.9824 Y38.7127
G01 X19.9715 Y38.7320
G01 X19.9312 Y38.7993
G01 X19.9193 Y38.8180
G01 X19.9066 Y38.8360
G01 X19.8599 Y38.8991
G01 X19.8463 Y38.9165
G01 X19.8318 Y38.9332
G01 X19.7791 Y38.9914
G01 X19.7639 Y39.0074
G01 X19.7479 Y39.0226
G01 X19.6897 Y39.0753
G01 X19.6730 Y39.0898
G01 X19.6556 Y39.1034
G01 X19.5925 Y39.1501
G01 X19.5745 Y39.1628
G01 X19.5558 Y39.1747
G01 X19.4885 Y39.2150
G01 X19.4692 Y39.2259
G01 X19.4594 Y39.2310
G01 X19.3785 Y39.2694
G01 X19.3584 Y39.2783
G01 X19.3377 Y39.2863
G01 X19.2638 Y39.3127
G01 X19.2429 Y39.3197
G01 X19.2216 Y39.3256
G01 X19.1454 Y39.3446
G01 X19.1239 Y39.3495
G01 X19.1021 Y39.3533
G01 X19.0244 Y39.3648
G01 X19.0025 Y39.3675
G01 X18.9805 Y39.3691
G01 X18.9021 Y39.3730
G01 X18.8800 Y39.3735
G01 X18.8579 Y39.3730
G01 X18.7795 Y39.3691
G01 X18.7575 Y39.3675
G01 X18.7356 Y39.3648
G01 X18.6579 Y39.3533
G01 X18.6361 Y39.3495
G01 X18.6146 Y39.3446
G01 X18.5384 Y39.3256
G01 X18.5171 Y39.3197
G01 X18.4962 Y39.3127
G01 X18.4223 Y39.2863
G01 X18.4016 Y39.2783
G01 X18.3815 Y39.2694
G01 X18.3105 Y39.2358
G01 X18.2908 Y39.2259
G01 X18.2715 Y39.2150
G01 X18.2042 Y39.1747
G01 X18.1855 Y39.1628
G01 X18.1675 Y39.1501
G01 X18.1044 Y39.1034
G01 X18.0870 Y39.0898
G01 X18.0703 Y39.0753
G01 X18.0121 Y39.0226
G01 X17.9961 Y39.0074
G01 X17.9809 Y38.9914
G01 X17.9198 Y38.9237
G01 X13.5599 Y38.9237
G01 X11.2299 Y41.2537
G01 X11.2508 Y41.3369
G01 X11.2556 Y41.3585
G01 X11.2594 Y41.3802
G01 X11.2719 Y41.4647
G01 X11.2746 Y41.4866
G01 X11.2763 Y41.5086
G01 X11.2805 Y41.5939
G01 X11.2810 Y41.6160
G01 X11.2805 Y41.6381
G01 X11.2763 Y41.7234
G01 X11.2746 Y41.7454
G01 X11.2719 Y41.7673
G01 X11.2594 Y41.8518
G01 X11.2556 Y41.8735
G01 X11.2508 Y41.8951
G01 X11.2301 Y41.9779
G01 X11.2242 Y41.9992
G01 X11.2172 Y42.0201
G01 X11.1885 Y42.1005
G01 X11.1805 Y42.1211
G01 X11.1716 Y42.1413
G01 X11.1351 Y42.2185
G01 X11.1251 Y42.2382
G01 X11.1198 Y42.2479
G01 X11.0704 Y42.3307
G01 X11.0585 Y42.3494
G01 X11.0458 Y42.3674
G01 X10.9950 Y42.4360
G01 X10.9814 Y42.4534
G01 X10.9669 Y42.4701
G01 X10.9096 Y42.5334
G01 X10.8944 Y42.5494
G01 X10.8784 Y42.5646
G01 X10.8151 Y42.6219
G01 X10.8068 Y42.6293
G01 X10.7898 Y42.6433
G01 X10.7124 Y42.7008
G01 X10.6944 Y42.7135
G01 X10.6757 Y42.7254
G01 X10.6025 Y42.7692
G01 X10.5929 Y42.7748
G01 X10.5734 Y42.7852
G01 X10.4863 Y42.8266
G01 X10.4763 Y42.8312
G01 X10.4559 Y42.8396
G01 X10.3547 Y42.8758
G01 X10.3336 Y42.8822
G01 X10.3191 Y42.8860
G01 X10.3442 Y42.8928
G01 X10.3651 Y42.8998
G01 X10.4559 Y42.9324
G01 X10.4661 Y42.9365
G01 X10.4863 Y42.9454
G01 X10.5635 Y42.9819
G01 X10.5832 Y42.9919
G01 X10.6025 Y43.0028
G01 X10.6757 Y43.0466
G01 X10.6944 Y43.0585
G01 X10.7124 Y43.0712
G01 X10.7810 Y43.1220
G01 X10.7984 Y43.1356
G01 X10.8151 Y43.1501
G01 X10.8865 Y43.2149
G01 X10.9021 Y43.2305
G01 X10.9096 Y43.2386
G01 X10.9743 Y43.3102
G01 X10.9883 Y43.3272
G01 X11.0097 Y43.3558
G01 X12.9606 Y43.3558
G01 X15.2662 Y41.0502
G01 X15.2822 Y41.0350
G01 X15.3077 Y41.0119
G01 X15.3244 Y40.9975
G01 X15.3418 Y40.9839
G01 X15.3783 Y40.9569
G01 X15.3967 Y40.9447
G01 X15.4356 Y40.9212
G01 X15.4548 Y40.9103
G01 X15.4646 Y40.9052
G01 X15.5056 Y40.8857
G01 X15.5258 Y40.8767
G01 X15.5464 Y40.8688
G01 X15.5892 Y40.8536
G01 X15.6103 Y40.8472
G01 X15.6210 Y40.8444
G01 X15.6651 Y40.8335
G01 X15.6868 Y40.8292
G01 X15.7316 Y40.8224
G01 X15.7536 Y40.8197
G01 X15.7756 Y40.8181
G01 X15.8099 Y40.8164
G01 X15.8320 Y40.8158
G01 X17.9198 Y40.8158
G01 X17.9884 Y40.7400
G01 X18.0040 Y40.7244
G01 X18.0121 Y40.7169
G01 X18.0703 Y40.6642
G01 X18.0870 Y40.6497
G01 X18.1044 Y40.6361
G01 X18.1675 Y40.5894
G01 X18.1855 Y40.5767
G01 X18.2042 Y40.5648
G01 X18.2715 Y40.5245
G01 X18.2908 Y40.5136
G01 X18.3105 Y40.5037
G01 X18.3815 Y40.4701
G01 X18.4016 Y40.4612
G01 X18.4223 Y40.4532
G01 X18.4962 Y40.4268
G01 X18.5171 Y40.4198
G01 X18.5384 Y40.4139
G01 X18.6146 Y40.3949
G01 X18.6361 Y40.3900
G01 X18.6579 Y40.3862
G01 X18.7356 Y40.3747
G01 X18.7575 Y40.3720
G01 X18.7795 Y40.3704
G01 X18.8579 Y40.3665
G01 X18.8690 Y40.3661
G01 X18.8910 Y40.3661
G01 X18.9915 Y40.3711
G01 X19.0135 Y40.3732
G01 X19.0244 Y40.3747
G01 X19.1021 Y40.3862
G01 X19.1239 Y40.3900
G01 X19.1347 Y40.3923
G01 X19.2216 Y40.4139
G01 X19.2429 Y40.4198
G01 X19.2638 Y40.4268
G01 X19.3377 Y40.4532
G01 X19.3584 Y40.4612
G01 X19.3785 Y40.4701
G01 X19.4495 Y40.5037
G01 X19.4692 Y40.5136
G01 X19.4885 Y40.5245
G01 X19.5558 Y40.5648
G01 X19.5745 Y40.5767
G01 X19.5925 Y40.5894
G01 X19.6556 Y40.6361
G01 X19.6730 Y40.6497
G01 X19.6897 Y40.6642
G01 X19.7479 Y40.7169
G01 X19.7639 Y40.7321
G01 X19.7791 Y40.7481
G01 X19.8318 Y40.8063
G01 X19.8463 Y40.8230
G01 X19.8599 Y40.8404
G01 X19.9066 Y40.9035
G01 X19.9193 Y40.9215
G01 X19.9312 Y40.9402
G01 X19.9715 Y41.0075
G01 X19.9824 Y41.0268
G01 X19.9923 Y41.0465
G01 X20.0259 Y41.1175
G01 X20.0348 Y41.1376
G01 X20.0428 Y41.1583
G01 X20.0692 Y41.2322
G01 X20.0762 Y41.2531
G01 X20.0821 Y41.2744
G01 X20.1011 Y41.3506
G01 X20.1060 Y41.3721
G01 X20.1098 Y41.3939
G01 X20.1213 Y41.4716
G01 X20.1240 Y41.4935
G01 X20.1256 Y41.5155
G01 X20.1295 Y41.5939
G01 X20.1300 Y41.6160
G01 X20.1295 Y41.6381
G01 X20.1256 Y41.7165
G01 X20.1240 Y41.7385
G01 X20.1213 Y41.7604
G01 X20.1098 Y41.8381
G01 X20.1060 Y41.8599
G01 X20.1011 Y41.8814
G01 X20.0821 Y41.9576
G01 X20.0762 Y41.9789
G01 X20.0692 Y41.9998
G01 X20.0428 Y42.0737
G01 X20.0348 Y42.0944
G01 X20.0259 Y42.1145
G01 X19.9923 Y42.1855
G01 X19.9824 Y42.2052
G01 X19.9715 Y42.2245
G01 X19.9312 Y42.2918
G01 X19.9193 Y42.3105
G01 X19.9066 Y42.3285
G01 X19.8599 Y42.3916
G01 X19.8463 Y42.4090
G01 X19.8318 Y42.4257
G01 X19.7791 Y42.4839
G01 X19.7639 Y42.4999
G01 X19.7479 Y42.5151
G01 X19.6897 Y42.5678
G01 X19.6730 Y42.5823
G01 X19.6556 Y42.5959
G01 X19.5925 Y42.6426
G01 X19.5745 Y42.6553
G01 X19.5558 Y42.6672
G01 X19.4885 Y42.7075
G01 X19.4692 Y42.7184
G01 X19.4495 Y42.7283
G01 X19.3685 Y42.7665
G01 X19.3584 Y42.7708
G01 X19.3377 Y42.7788
G01 X19.2638 Y42.8052
G01 X19.2429 Y42.8122
G01 X19.2216 Y42.8181
G01 X19.1454 Y42.8371
G01 X19.1239 Y42.8420
G01 X19.1021 Y42.8458
G01 X19.0244 Y42.8573
G01 X19.0025 Y42.8600
G01 X18.9805 Y42.8616
G01 X18.9021 Y42.8655
G01 X18.8800 Y42.8660
G01 X18.8579 Y42.8655
G01 X18.7795 Y42.8616
G01 X18.7575 Y42.8600
G01 X18.7356 Y42.8573
G01 X18.6470 Y42.8440
G01 X18.6253 Y42.8397
G01 X18.6146 Y42.8371
G01 X18.5384 Y42.8181
G01 X18.5171 Y42.8122
G01 X18.4962 Y42.8052
G01 X18.4223 Y42.7788
G01 X18.4016 Y42.7708
G01 X18.3815 Y42.7619
G01 X18.3105 Y42.7283
G01 X18.2908 Y42.7184
G01 X18.2715 Y42.7075
G01 X18.2042 Y42.6672
G01 X18.1855 Y42.6553
G01 X18.1675 Y42.6426
G01 X18.1044 Y42.5959
G01 X18.0870 Y42.5823
G01 X18.0786 Y42.5752
G01 X18.0121 Y42.5151
G01 X17.9961 Y42.4999
G01 X17.9809 Y42.4839
G01 X17.9198 Y42.4162
G01 X16.1634 Y42.4162
G01 X13.8578 Y44.7218
G01 X13.8418 Y44.7370
G01 X13.8163 Y44.7601
G01 X13.7996 Y44.7745
G01 X13.7822 Y44.7881
G01 X13.7546 Y44.8086
G01 X13.7366 Y44.8213
G01 X13.7179 Y44.8331
G01 X13.6789 Y44.8564
G01 X13.6594 Y44.8668
G01 X13.6084 Y44.8909
G01 X13.5880 Y44.8994
G01 X13.5348 Y44.9184
G01 X13.5243 Y44.9217
G01 X13.5030 Y44.9276
G01 X13.4697 Y44.9360
G01 X13.4481 Y44.9408
G01 X13.4263 Y44.9446
G01 X13.3924 Y44.9496
G01 X13.3704 Y44.9523
G01 X13.3594 Y44.9533
G01 X13.3030 Y44.9560
G01 X11.0097 Y44.9562
G01 X10.9883 Y44.9848
G01 X10.9743 Y45.0018
G01 X10.9096 Y45.0734
G01 X10.9021 Y45.0815
G01 X10.8865 Y45.0971
G01 X10.8151 Y45.1619
G01 X10.7984 Y45.1764
G01 X10.7810 Y45.1900
G01 X10.7124 Y45.2408
G01 X10.6944 Y45.2535
G01 X10.6757 Y45.2654
G01 X10.6025 Y45.3092
G01 X10.5832 Y45.3201
G01 X10.5635 Y45.3301
G01 X10.4863 Y45.3666
G01 X10.4763 Y45.3712
G01 X10.4559 Y45.3796
G01 X10.3651 Y45.4122
G01 X10.3442 Y45.4192
G01 X10.3191 Y45.4260
G01 X10.3442 Y45.4328
G01 X10.3651 Y45.4398
G01 X10.4559 Y45.4724
G01 X10.4763 Y45.4808
G01 X10.4863 Y45.4854
G01 X10.5635 Y45.5219
G01 X10.5832 Y45.5319
G01 X10.6025 Y45.5428
G01 X10.6757 Y45.5866
G01 X10.6944 Y45.5985
G01 X10.7124 Y45.6112
G01 X10.7810 Y45.6620
G01 X10.7984 Y45.6756
G01 X10.8151 Y45.6901
G01 X10.8865 Y45.7549
G01 X10.9021 Y45.7705
G01 X10.9096 Y45.7786
G01 X10.9743 Y45.8502
G01 X10.9883 Y45.8672
G01 X11.0097 Y45.8958
G01 X13.9766 Y45.8958
G01 X15.2662 Y44.6062
G01 X15.2822 Y44.5910
G01 X15.3077 Y44.5679
G01 X15.3244 Y44.5535
G01 X15.3330 Y44.5466
G01 X15.3694 Y44.5194
G01 X15.3874 Y44.5067
G01 X15.4061 Y44.4949
G01 X15.4356 Y44.4772
G01 X15.4548 Y44.4663
G01 X15.4646 Y44.4612
G01 X15.5056 Y44.4417
G01 X15.5258 Y44.4327
G01 X15.5464 Y44.4248
G01 X15.5787 Y44.4132
G01 X15.5997 Y44.4063
G01 X15.6103 Y44.4032
G01 X15.6651 Y44.3895
G01 X15.6868 Y44.3852
G01 X15.6977 Y44.3834
G01 X15.7316 Y44.3784
G01 X15.7536 Y44.3757
G01 X15.7756 Y44.3741
G01 X15.8099 Y44.3724
G01 X15.8320 Y44.3718
G01 X17.9198 Y44.3718
G01 X17.9884 Y44.2960
G01 X17.9961 Y44.2881
G01 X18.0121 Y44.2729
G01 X18.0703 Y44.2202
G01 X18.0870 Y44.2057
G01 X18.1044 Y44.1921
G01 X18.1675 Y44.1454
G01 X18.1855 Y44.1327
G01 X18.2042 Y44.1208
G01 X18.2715 Y44.0805
G01 X18.2908 Y44.0696
G01 X18.3105 Y44.0597
G01 X18.3815 Y44.0261
G01 X18.4016 Y44.0172
G01 X18.4223 Y44.0092
G01 X18.4962 Y43.9828
G01 X18.5171 Y43.9758
G01 X18.5384 Y43.9699
G01 X18.6146 Y43.9509
G01 X18.6361 Y43.9460
G01 X18.6579 Y43.9422
G01 X18.7465 Y43.9292
G01 X18.7685 Y43.9271
G01 X18.7795 Y43.9264
G01 X18.8579 Y43.9225
G01 X18.8800 Y43.9220
G01 X18.9021 Y43.9225
G01 X18.9805 Y43.9264
G01 X19.0025 Y43.9280
G01 X19.0244 Y43.9307
G01 X19.1021 Y43.9422
G01 X19.1239 Y43.9460
G01 X19.1454 Y43.9509
G01 X19.2216 Y43.9699
G01 X19.2429 Y43.9758
G01 X19.2638 Y43.9828
G01 X19.3377 Y44.0092
G01 X19.3584 Y44.0172
G01 X19.3785 Y44.0261
G01 X19.4495 Y44.0597
G01 X19.4692 Y44.0696
G01 X19.4885 Y44.0805
G01 X19.5558 Y44.1208
G01 X19.5745 Y44.1327
G01 X19.5925 Y44.1454
G01 X19.6556 Y44.1921
G01 X19.6730 Y44.2057
G01 X19.6897 Y44.2202
G01 X19.7479 Y44.2729
G01 X19.7639 Y44.2881
G01 X19.7791 Y44.3041
G01 X19.8318 Y44.3623
G01 X19.8463 Y44.3790
G01 X19.8599 Y44.3964
G01 X19.9066 Y44.4595
G01 X19.9193 Y44.4775
G01 X19.9312 Y44.4962
G01 X19.9715 Y44.5635
G01 X19.9824 Y44.5828
G01 X19.9923 Y44.6025
G01 X20.0259 Y44.6735
G01 X20.0305 Y44.6835
G01 X20.0390 Y44.7039
G01 X20.0728 Y44.7986
G01 X20.0793 Y44.8198
G01 X20.0821 Y44.8304
G01 X20.1011 Y44.9066
G01 X20.1060 Y44.9281
G01 X20.1098 Y44.9499
G01 X20.1213 Y45.0276
G01 X20.1240 Y45.0495
G01 X20.1249 Y45.0605
G01 X20.1295 Y45.1499
G01 X20.1300 Y45.1720
G01 X20.1295 Y45.1941
G01 X20.1256 Y45.2725
G01 X20.1240 Y45.2945
G01 X20.1213 Y45.3164
G01 X20.1098 Y45.3941
G01 X20.1060 Y45.4159
G01 X20.1011 Y45.4374
G01 X20.0821 Y45.5136
G01 X20.0762 Y45.5349
G01 X20.0692 Y45.5558
G01 X20.0428 Y45.6297
G01 X20.0348 Y45.6504
G01 X20.0259 Y45.6705
G01 X19.9923 Y45.7415
G01 X19.9824 Y45.7612
G01 X19.9715 Y45.7805
G01 X19.9312 Y45.8478
G01 X19.9193 Y45.8665
G01 X19.9066 Y45.8845
G01 X19.8599 Y45.9476
G01 X19.8463 Y45.9650
G01 X19.8318 Y45.9817
G01 X19.7791 Y46.0399
G01 X19.7639 Y46.0559
G01 X19.7479 Y46.0711
G01 X19.6897 Y46.1238
G01 X19.6730 Y46.1383
G01 X19.6644 Y46.1452
G01 X19.5836 Y46.2051
G01 X19.5652 Y46.2174
G01 X19.5558 Y46.2232
G01 X19.4789 Y46.2691
G01 X19.4692 Y46.2744
G01 X19.4495 Y46.2843
G01 X19.3785 Y46.3179
G01 X19.3584 Y46.3268
G01 X19.3377 Y46.3348
G01 X19.2638 Y46.3612
G01 X19.2429 Y46.3682
G01 X19.2216 Y46.3741
G01 X19.1454 Y46.3931
G01 X19.1239 Y46.3980
G01 X19.1130 Y46.4000
G01 X19.0244 Y46.4133
G01 X19.0025 Y46.4160
G01 X18.9805 Y46.4176
G01 X18.8910 Y46.4219
G01 X18.8690 Y46.4219
G01 X18.8579 Y46.4215
G01 X18.7795 Y46.4176
G01 X18.7575 Y46.4160
G01 X18.7356 Y46.4133
G01 X18.6579 Y46.4018
G01 X18.6361 Y46.3980
G01 X18.6146 Y46.3931
G01 X18.5278 Y46.3713
G01 X18.5066 Y46.3648
G01 X18.4962 Y46.3612
G01 X18.4223 Y46.3348
G01 X18.4016 Y46.3268
G01 X18.3815 Y46.3179
G01 X18.3105 Y46.2843
G01 X18.2908 Y46.2744
G01 X18.2715 Y46.2635
G01 X18.2042 Y46.2232
G01 X18.1855 Y46.2113
G01 X18.1675 Y46.1986
G01 X18.1044 Y46.1519
G01 X18.0870 Y46.1383
G01 X18.0703 Y46.1238
G01 X18.0121 Y46.0711
G01 X17.9961 Y46.0559
G01 X17.9809 Y46.0399
G01 X17.9198 Y45.9722
G01 X16.1634 Y45.9722
G01 X14.8738 Y47.2618
G01 X14.8578 Y47.2770
G01 X14.8323 Y47.3001
G01 X14.8156 Y47.3145
G01 X14.7982 Y47.3281
G01 X14.7706 Y47.3486
G01 X14.7526 Y47.3613
G01 X14.7433 Y47.3673
G01 X14.7044 Y47.3908
G01 X14.6949 Y47.3964
G01 X14.6754 Y47.4068
G01 X14.6244 Y47.4309
G01 X14.6040 Y47.4394
G01 X14.5508 Y47.4584
G01 X14.5297 Y47.4648
G01 X14.4857 Y47.4760
G01 X14.4641 Y47.4808
G01 X14.4423 Y47.4846
G01 X14.4084 Y47.4896
G01 X14.3864 Y47.4923
G01 X14.3644 Y47.4939
G01 X14.3301 Y47.4956
G01 X14.3080 Y47.4962
G01 X11.0097 Y47.4962
G01 X10.9883 Y47.5248
G01 X10.9743 Y47.5418
G01 X10.9096 Y47.6134
G01 X10.9021 Y47.6215
G01 X10.8865 Y47.6371
G01 X10.8151 Y47.7019
G01 X10.7984 Y47.7164
G01 X10.7810 Y47.7300
G01 X10.7124 Y47.7808
G01 X10.6944 Y47.7935
G01 X10.6757 Y47.8054
G01 X10.6025 Y47.8492
G01 X10.5832 Y47.8601
G01 X10.5635 Y47.8701
G01 X10.4863 Y47.9066
G01 X10.4763 Y47.9112
G01 X10.4559 Y47.9196
G01 X10.3651 Y47.9522
G01 X10.3442 Y47.9592
G01 X10.3191 Y47.9660
G01 X10.3442 Y47.9728
G01 X10.3651 Y47.9798
G01 X10.4559 Y48.0124
G01 X10.4763 Y48.0208
G01 X10.4863 Y48.0254
G01 X10.5635 Y48.0619
G01 X10.5832 Y48.0719
G01 X10.6025 Y48.0828
G01 X10.6757 Y48.1266
G01 X10.6944 Y48.1385
G01 X10.7124 Y48.1512
G01 X10.7810 Y48.2020
G01 X10.7984 Y48.2156
G01 X10.8151 Y48.2301
G01 X10.8865 Y48.2949
G01 X10.9021 Y48.3105
G01 X10.9096 Y48.3186
G01 X10.9743 Y48.3902
G01 X10.9883 Y48.4072
G01 X11.0097 Y48.4358
G01 X14.9926 Y48.4358
G01 X15.2741 Y48.1545
G01 X15.3077 Y48.1239
G01 X15.3244 Y48.1095
G01 X15.3418 Y48.0959
G01 X15.3694 Y48.0754
G01 X15.3874 Y48.0627
G01 X15.3967 Y48.0567
G01 X15.4451 Y48.0276
G01 X15.4646 Y48.0172
G01 X15.5156 Y47.9931
G01 X15.5360 Y47.9846
G01 X15.5892 Y47.9656
G01 X15.6103 Y47.9592
G01 X15.6543 Y47.9480
G01 X15.6651 Y47.9455
G01 X15.6868 Y47.9412
G01 X15.7426 Y47.9329
G01 X15.7536 Y47.9317
G01 X15.7756 Y47.9301
G01 X15.8099 Y47.9284
G01 X15.8320 Y47.9278
G01 X17.9198 Y47.9278
G01 X17.9809 Y47.8601
G01 X17.9884 Y47.8520
G01 X18.0040 Y47.8364
G01 X18.0786 Y47.7688
G01 X18.0870 Y47.7617
G01 X18.1044 Y47.7481
G01 X18.1675 Y47.7014
G01 X18.1855 Y47.6887
G01 X18.2042 Y47.6768
G01 X18.2715 Y47.6365
G01 X18.2908 Y47.6256
G01 X18.3006 Y47.6205
G01 X18.3815 Y47.5821
G01 X18.4016 Y47.5732
G01 X18.4223 Y47.5652
G01 X18.4962 Y47.5388
G01 X18.5171 Y47.5318
G01 X18.5384 Y47.5259
G01 X18.6146 Y47.5069
G01 X18.6361 Y47.5020
G01 X18.6579 Y47.4982
G01 X18.7356 Y47.4867
G01 X18.7575 Y47.4840
G01 X18.7795 Y47.4824
G01 X18.8579 Y47.4785
G01 X18.8690 Y47.4781
G01 X18.8910 Y47.4781
G01 X18.9805 Y47.4824
G01 X19.0025 Y47.4840
G01 X19.0244 Y47.4867
G01 X19.1021 Y47.4982
G01 X19.1239 Y47.5020
G01 X19.1454 Y47.5069
G01 X19.2216 Y47.5259
G01 X19.2429 Y47.5318
G01 X19.2638 Y47.5388
G01 X19.3377 Y47.5652
G01 X19.3584 Y47.5732
G01 X19.3785 Y47.5821
G01 X19.4495 Y47.6157
G01 X19.4692 Y47.6256
G01 X19.4885 Y47.6365
G01 X19.5558 Y47.6768
G01 X19.5745 Y47.6887
G01 X19.5925 Y47.7014
G01 X19.6556 Y47.7481
G01 X19.6730 Y47.7617
G01 X19.6897 Y47.7762
G01 X19.7479 Y47.8289
G01 X19.7560 Y47.8364
G01 X19.7716 Y47.8520
G01 X19.8392 Y47.9266
G01 X19.8532 Y47.9436
G01 X19.8599 Y47.9524
G01 X19.9066 Y48.0155
G01 X19.9193 Y48.0335
G01 X19.9312 Y48.0522
G01 X19.9771 Y48.1291
G01 X19.9875 Y48.1486
G01 X19.9923 Y48.1585
G01 X20.0259 Y48.2295
G01 X20.0348 Y48.2496
G01 X20.0428 Y48.2703
G01 X20.0692 Y48.3442
G01 X20.0762 Y48.3651
G01 X20.0821 Y48.3864
G01 X20.1011 Y48.4626
G01 X20.1060 Y48.4841
G01 X20.1098 Y48.5059
G01 X20.1213 Y48.5836
G01 X20.1240 Y48.6055
G01 X20.1256 Y48.6275
G01 X20.1295 Y48.7059
G01 X20.1300 Y48.7280
G01 X20.1295 Y48.7501
G01 X20.1256 Y48.8285
G01 X20.1240 Y48.8505
G01 X20.1228 Y48.8615
G01 X20.1080 Y48.9610
G01 X20.1037 Y48.9827
G01 X20.1011 Y48.9934
G01 X20.0821 Y49.0696
G01 X20.0762 Y49.0909
G01 X20.0692 Y49.1118
G01 X20.0428 Y49.1857
G01 X20.0348 Y49.2064
G01 X20.0305 Y49.2165
G01 X19.9875 Y49.3074
G01 X19.9771 Y49.3269
G01 X19.9715 Y49.3365
G01 X19.9312 Y49.4038
G01 X19.9193 Y49.4225
G01 X19.9066 Y49.4405
G01 X19.8599 Y49.5036
G01 X19.8463 Y49.5210
G01 X19.8318 Y49.5377
G01 X19.7791 Y49.5959
G01 X19.7639 Y49.6119
G01 X19.7479 Y49.6271
G01 X19.6897 Y49.6798
G01 X19.6730 Y49.6943
G01 X19.6556 Y49.7079
G01 X19.5925 Y49.7546
G01 X19.5745 Y49.7673
G01 X19.5558 Y49.7792
G01 X19.4885 Y49.8195
G01 X19.4692 Y49.8304
G01 X19.4495 Y49.8403
G01 X19.3785 Y49.8739
G01 X19.3584 Y49.8828
G01 X19.3377 Y49.8908
G01 X19.2638 Y49.9172
G01 X19.2534 Y49.9208
G01 X19.2322 Y49.9273
G01 X19.1454 Y49.9491
G01 X19.1239 Y49.9540
G01 X19.1021 Y49.9578
G01 X19.0244 Y49.9693
G01 X19.0025 Y49.9720
G01 X18.9805 Y49.9736
G01 X18.9021 Y49.9775
G01 X18.8800 Y49.9780
G01 X18.8579 Y49.9775
G01 X18.7795 Y49.9736
G01 X18.7575 Y49.9720
G01 X18.7356 Y49.9693
G01 X18.6470 Y49.9560
G01 X18.6253 Y49.9517
G01 X18.6146 Y49.9491
G01 X18.5384 Y49.9301
G01 X18.5278 Y49.9273
G01 X18.5066 Y49.9208
G01 X18.4223 Y49.8908
G01 X18.4016 Y49.8828
G01 X18.3815 Y49.8739
G01 X18.3105 Y49.8403
G01 X18.2908 Y49.8304
G01 X18.2715 Y49.8195
G01 X18.2042 Y49.7792
G01 X18.1855 Y49.7673
G01 X18.1675 Y49.7546
G01 X18.1044 Y49.7079
G01 X18.0870 Y49.6943
G01 X18.0703 Y49.6798
G01 X18.0121 Y49.6271
G01 X17.9961 Y49.6119
G01 X17.9809 Y49.5959
G01 X17.9198 Y49.5282
G01 X16.1634 Y49.5282
G01 X15.8819 Y49.8095
G01 X15.8483 Y49.8401
G01 X15.8316 Y49.8545
G01 X15.8142 Y49.8681
G01 X15.7777 Y49.8951
G01 X15.7686 Y49.9013
G01 X15.7499 Y49.9131
G01 X15.7204 Y49.9308
G01 X15.7012 Y49.9417
G01 X15.6815 Y49.9516
G01 X15.6504 Y49.9663
G01 X15.6302 Y49.9753
G01 X15.6096 Y49.9832
G01 X15.5773 Y49.9948
G01 X15.5563 Y50.0017
G01 X15.5350 Y50.0076
G01 X15.5017 Y50.0160
G01 X15.4801 Y50.0208
G01 X15.4692 Y50.0228
G01 X15.4244 Y50.0296
G01 X15.4024 Y50.0323
G01 X15.3804 Y50.0339
G01 X15.3461 Y50.0356
G01 X15.3240 Y50.0362
G01 X11.0097 Y50.0362
G01 X10.9883 Y50.0648
G01 X10.9743 Y50.0818
G01 X10.9096 Y50.1534
G01 X10.9021 Y50.1615
G01 X10.8865 Y50.1771
G01 X10.8151 Y50.2419
G01 X10.7984 Y50.2564
G01 X10.7810 Y50.2700
G01 X10.7124 Y50.3208
G01 X10.6944 Y50.3335
G01 X10.6757 Y50.3454
G01 X10.6025 Y50.3892
G01 X10.5832 Y50.4001
G01 X10.5635 Y50.4101
G01 X10.4863 Y50.4466
G01 X10.4763 Y50.4512
G01 X10.4559 Y50.4596
G01 X10.3651 Y50.4922
G01 X10.3442 Y50.4992
G01 X10.3191 Y50.5060
G01 X10.3442 Y50.5128
G01 X10.3651 Y50.5198
G01 X10.4559 Y50.5524
G01 X10.4763 Y50.5608
G01 X10.4863 Y50.5654
G01 X10.5635 Y50.6019
G01 X10.5832 Y50.6119
G01 X10.6025 Y50.6228
G01 X10.6757 Y50.6666
G01 X10.6944 Y50.6785
G01 X10.7124 Y50.6912
G01 X10.7810 Y50.7420
G01 X10.7984 Y50.7556
G01 X10.8151 Y50.7701
G01 X10.8865 Y50.8349
G01 X10.9021 Y50.8505
G01 X10.9096 Y50.8586
G01 X10.9743 Y50.9302
G01 X10.9883 Y50.9472
G01 X11.0097 Y50.9758
G01 X15.3240 Y50.9758
G01 X15.3461 Y50.9764
G01 X15.3804 Y50.9781
G01 X15.4024 Y50.9797
G01 X15.4244 Y50.9824
G01 X15.4692 Y50.9892
G01 X15.4801 Y50.9912
G01 X15.5017 Y50.9960
G01 X15.5350 Y51.0044
G01 X15.5563 Y51.0103
G01 X15.5773 Y51.0172
G01 X15.6096 Y51.0288
G01 X15.6302 Y51.0367
G01 X15.6504 Y51.0457
G01 X15.6815 Y51.0604
G01 X15.7012 Y51.0703
G01 X15.7204 Y51.0812
G01 X15.7499 Y51.0989
G01 X15.7686 Y51.1107
G01 X15.7777 Y51.1169
G01 X15.8142 Y51.1439
G01 X15.8316 Y51.1575
G01 X15.8483 Y51.1719
G01 X15.8819 Y51.2025
G01 X16.1634 Y51.4838
G01 X17.9198 Y51.4838
G01 X17.9884 Y51.4080
G01 X18.0040 Y51.3924
G01 X18.0121 Y51.3849
G01 X18.0703 Y51.3322
G01 X18.0870 Y51.3177
G01 X18.1044 Y51.3041
G01 X18.1675 Y51.2574
G01 X18.1855 Y51.2447
G01 X18.2042 Y51.2328
G01 X18.2715 Y51.1925
G01 X18.2908 Y51.1816
G01 X18.3105 Y51.1717
G01 X18.3815 Y51.1381
G01 X18.4016 Y51.1292
G01 X18.4223 Y51.1212
G01 X18.4962 Y51.0948
G01 X18.5171 Y51.0878
G01 X18.5384 Y51.0819
G01 X18.6146 Y51.0629
G01 X18.6361 Y51.0580
G01 X18.6579 Y51.0542
G01 X18.7356 Y51.0427
G01 X18.7575 Y51.0400
G01 X18.7795 Y51.0384
G01 X18.8579 Y51.0345
G01 X18.8800 Y51.0340
G01 X18.9021 Y51.0345
G01 X18.9805 Y51.0384
G01 X18.9915 Y51.0391
G01 X19.0135 Y51.0412
G01 X19.1021 Y51.0542
G01 X19.1130 Y51.0560
G01 X19.1347 Y51.0603
G01 X19.2322 Y51.0847
G01 X19.2534 Y51.0912
G01 X19.2638 Y51.0948
G01 X19.3377 Y51.1212
G01 X19.3584 Y51.1292
G01 X19.3785 Y51.1381
G01 X19.4495 Y51.1717
G01 X19.4692 Y51.1816
G01 X19.4789 Y51.1869
G01 X19.5558 Y51.2328
G01 X19.5745 Y51.2447
G01 X19.5925 Y51.2574
G01 X19.6556 Y51.3041
G01 X19.6730 Y51.3177
G01 X19.6897 Y51.3322
G01 X19.7479 Y51.3849
G01 X19.7639 Y51.4001
G01 X19.7791 Y51.4161
G01 X19.8318 Y51.4743
G01 X19.8463 Y51.4910
G01 X19.8599 Y51.5084
G01 X19.9066 Y51.5715
G01 X19.9193 Y51.5895
G01 X19.9312 Y51.6082
G01 X19.9715 Y51.6755
G01 X19.9824 Y51.6948
G01 X19.9923 Y51.7145
G01 X20.0259 Y51.7855
G01 X20.0348 Y51.8056
G01 X20.0428 Y51.8263
G01 X20.0692 Y51.9002
G01 X20.0762 Y51.9211
G01 X20.0821 Y51.9424
G01 X20.1011 Y52.0186
G01 X20.1060 Y52.0401
G01 X20.1098 Y52.0619
G01 X20.1213 Y52.1396
G01 X20.1240 Y52.1615
G01 X20.1256 Y52.1835
G01 X20.1295 Y52.2619
G01 X20.1300 Y52.2840
G01 X20.1295 Y52.3061
G01 X20.1256 Y52.3845
G01 X20.1240 Y52.4065
G01 X20.1213 Y52.4284
G01 X20.1098 Y52.5061
G01 X20.1060 Y52.5279
G01 X20.1011 Y52.5494
G01 X20.0821 Y52.6256
G01 X20.0762 Y52.6469
G01 X20.0692 Y52.6678
G01 X20.0428 Y52.7417
G01 X20.0348 Y52.7624
G01 X20.0259 Y52.7825
G01 X19.9923 Y52.8535
G01 X19.9824 Y52.8732
G01 X19.9715 Y52.8925
G01 X19.9312 Y52.9598
G01 X19.9193 Y52.9785
G01 X19.9066 Y52.9965
G01 X19.8599 Y53.0596
G01 X19.8463 Y53.0770
G01 X19.8318 Y53.0937
G01 X19.7791 Y53.1519
G01 X19.7639 Y53.1679
G01 X19.7479 Y53.1831
G01 X19.6897 Y53.2358
G01 X19.6730 Y53.2503
G01 X19.6556 Y53.2639
G01 X19.5925 Y53.3106
G01 X19.5745 Y53.3233
G01 X19.5558 Y53.3352
G01 X19.4885 Y53.3755
G01 X19.4692 Y53.3864
G01 X19.4495 Y53.3963
G01 X19.3785 Y53.4299
G01 X19.3584 Y53.4388
G01 X19.3377 Y53.4468
G01 X19.2638 Y53.4732
G01 X19.2429 Y53.4802
G01 X19.2216 Y53.4861
G01 X19.1454 Y53.5051
G01 X19.1239 Y53.5100
G01 X19.1021 Y53.5138
G01 X19.0244 Y53.5253
G01 X19.0025 Y53.5280
G01 X18.9805 Y53.5296
G01 X18.9021 Y53.5335
G01 X18.8800 Y53.5340
G01 X18.8579 Y53.5335
G01 X18.7795 Y53.5296
G01 X18.7575 Y53.5280
G01 X18.7356 Y53.5253
G01 X18.6579 Y53.5138
G01 X18.6361 Y53.5100
G01 X18.6146 Y53.5051
G01 X18.5384 Y53.4861
G01 X18.5171 Y53.4802
G01 X18.4962 Y53.4732
G01 X18.4223 Y53.4468
G01 X18.4016 Y53.4388
G01 X18.3815 Y53.4299
G01 X18.3105 Y53.3963
G01 X18.2908 Y53.3864
G01 X18.2715 Y53.3755
G01 X18.2042 Y53.3352
G01 X18.1948 Y53.3294
G01 X18.1764 Y53.3171
G01 X18.1044 Y53.2639
G01 X18.0870 Y53.2503
G01 X18.0703 Y53.2358
G01 X18.0121 Y53.1831
G01 X18.0040 Y53.1756
G01 X17.9884 Y53.1600
G01 X17.9198 Y53.0842
G01 X15.8320 Y53.0842
G01 X15.8099 Y53.0836
G01 X15.7756 Y53.0819
G01 X15.7536 Y53.0803
G01 X15.7316 Y53.0776
G01 X15.6977 Y53.0726
G01 X15.6868 Y53.0708
G01 X15.6651 Y53.0665
G01 X15.6103 Y53.0528
G01 X15.5892 Y53.0464
G01 X15.5360 Y53.0274
G01 X15.5156 Y53.0189
G01 X15.4646 Y52.9948
G01 X15.4451 Y52.9844
G01 X15.3967 Y52.9553
G01 X15.3874 Y52.9493
G01 X15.3694 Y52.9366
G01 X15.3418 Y52.9161
G01 X15.3244 Y52.9025
G01 X15.3077 Y52.8881
G01 X15.2741 Y52.8575
G01 X14.9926 Y52.5762
G01 X11.0097 Y52.5762
G01 X10.9883 Y52.6048
G01 X10.9743 Y52.6218
G01 X10.9096 Y52.6934
G01 X10.9021 Y52.7015
G01 X10.8865 Y52.7171
G01 X10.8151 Y52.7819
G01 X10.7984 Y52.7964
G01 X10.7810 Y52.8100
G01 X10.7124 Y52.8608
G01 X10.6944 Y52.8735
G01 X10.6757 Y52.8854
G01 X10.6025 Y52.9292
G01 X10.5832 Y52.9401
G01 X10.5635 Y52.9501
G01 X10.4863 Y52.9866
G01 X10.4763 Y52.9912
G01 X10.4559 Y52.9996
G01 X10.3651 Y53.0322
G01 X10.3442 Y53.0392
G01 X10.3191 Y53.0460
G01 X10.3442 Y53.0528
G01 X10.3651 Y53.0598
G01 X10.4559 Y53.0924
G01 X10.4763 Y53.1008
G01 X10.4863 Y53.1054
G01 X10.5635 Y53.1419
G01 X10.5832 Y53.1519
G01 X10.6025 Y53.1628
G01 X10.6757 Y53.2066
G01 X10.6944 Y53.2185
G01 X10.7124 Y53.2312
G01 X10.7810 Y53.2820
G01 X10.7984 Y53.2956
G01 X10.8151 Y53.3101
G01 X10.8865 Y53.3749
G01 X10.9021 Y53.3905
G01 X10.9096 Y53.3986
G01 X10.9743 Y53.4702
G01 X10.9883 Y53.4872
G01 X11.0097 Y53.5158
G01 X14.3080 Y53.5158
G01 X14.3301 Y53.5164
G01 X14.3644 Y53.5181
G01 X14.3864 Y53.5197
G01 X14.4084 Y53.5224
G01 X14.4423 Y53.5274
G01 X14.4641 Y53.5312
G01 X14.4857 Y53.5360
G01 X14.5297 Y53.5472
G01 X14.5508 Y53.5536
G01 X14.6040 Y53.5726
G01 X14.6244 Y53.5811
G01 X14.6754 Y53.6052
G01 X14.6949 Y53.6156
G01 X14.7044 Y53.6212
G01 X14.7433 Y53.6447
G01 X14.7526 Y53.6507
G01 X14.7706 Y53.6634
G01 X14.7982 Y53.6839
G01 X14.8156 Y53.6975
G01 X14.8323 Y53.7119
G01 X14.8578 Y53.7350
G01 X14.8738 Y53.7502
G01 X16.1634 Y55.0398
G01 X17.9198 Y55.0398
G01 X17.9809 Y54.9721
G01 X17.9961 Y54.9561
G01 X18.0040 Y54.9484
G01 X18.0786 Y54.8808
G01 X18.0956 Y54.8668
G01 X18.1044 Y54.8601
G01 X18.1675 Y54.8134
G01 X18.1855 Y54.8007
G01 X18.2042 Y54.7888
G01 X18.2715 Y54.7485
G01 X18.2908 Y54.7376
G01 X18.3006 Y54.7325
G01 X18.3815 Y54.6941
G01 X18.4016 Y54.6852
G01 X18.4223 Y54.6772
G01 X18.4962 Y54.6508
G01 X18.5171 Y54.6438
G01 X18.5384 Y54.6379
G01 X18.6146 Y54.6189
G01 X18.6361 Y54.6140
G01 X18.6579 Y54.6102
G01 X18.7356 Y54.5987
G01 X18.7575 Y54.5960
G01 X18.7795 Y54.5944
G01 X18.8579 Y54.5905
G01 X18.8800 Y54.5900
G01 X18.9021 Y54.5905
G01 X18.9805 Y54.5944
G01 X19.0025 Y54.5960
G01 X19.0244 Y54.5987
G01 X19.1021 Y54.6102
G01 X19.1239 Y54.6140
G01 X19.1454 Y54.6189
G01 X19.2322 Y54.6407
G01 X19.2429 Y54.6438
G01 X19.2638 Y54.6508
G01 X19.3377 Y54.6772
G01 X19.3584 Y54.6852
G01 X19.3785 Y54.6941
G01 X19.4495 Y54.7277
G01 X19.4692 Y54.7376
G01 X19.4885 Y54.7485
G01 X19.5558 Y54.7888
G01 X19.5745 Y54.8007
G01 X19.5925 Y54.8134
G01 X19.6556 Y54.8601
G01 X19.6730 Y54.8737
G01 X19.6897 Y54.8882
G01 X19.7479 Y54.9409
G01 X19.7639 Y54.9561
G01 X19.7791 Y54.9721
G01 X19.8318 Y55.0303
G01 X19.8463 Y55.0470
G01 X19.8599 Y55.0644
G01 X19.9066 Y55.1275
G01 X19.9193 Y55.1455
G01 X19.9312 Y55.1642
G01 X19.9715 Y55.2315
G01 X19.9824 Y55.2508
G01 X19.9923 Y55.2705
G01 X20.0259 Y55.3415
G01 X20.0348 Y55.3616
G01 X20.0428 Y55.3823
G01 X20.0692 Y55.4562
G01 X20.0762 Y55.4771
G01 X20.0821 Y55.4984
G01 X20.1011 Y55.5746
G01 X20.1060 Y55.5961
G01 X20.1098 Y55.6179
G01 X20.1213 Y55.6956
G01 X20.1240 Y55.7175
G01 X20.1256 Y55.7395
G01 X20.1295 Y55.8179
G01 X20.1300 Y55.8400
G01 X20.1295 Y55.8621
G01 X20.1256 Y55.9405
G01 X20.1240 Y55.9625
G01 X20.1213 Y55.9844
G01 X20.1098 Y56.0621
G01 X20.1060 Y56.0839
G01 X20.1011 Y56.1054
G01 X20.0821 Y56.1816
G01 X20.0762 Y56.2029
G01 X20.0692 Y56.2238
G01 X20.0428 Y56.2977
G01 X20.0348 Y56.3184
G01 X20.0259 Y56.3385
G01 X19.9923 Y56.4095
G01 X19.9824 Y56.4292
G01 X19.9715 Y56.4485
G01 X19.9312 Y56.5158
G01 X19.9193 Y56.5345
G01 X19.9066 Y56.5525
G01 X19.8599 Y56.6156
G01 X19.8463 Y56.6330
G01 X19.8318 Y56.6497
G01 X19.7791 Y56.7079
G01 X19.7639 Y56.7239
G01 X19.7479 Y56.7391
G01 X19.6897 Y56.7918
G01 X19.6730 Y56.8063
G01 X19.6556 Y56.8199
G01 X19.5925 Y56.8666
G01 X19.5745 Y56.8793
G01 X19.5558 Y56.8912
G01 X19.4885 Y56.9315
G01 X19.4692 Y56.9424
G01 X19.4594 Y56.9475
G01 X19.3785 Y56.9859
G01 X19.3584 Y56.9948
G01 X19.3377 Y57.0028
G01 X19.2638 Y57.0292
G01 X19.2429 Y57.0362
G01 X19.2216 Y57.0421
G01 X19.1454 Y57.0611
G01 X19.1239 Y57.0660
G01 X19.1021 Y57.0698
G01 X19.0244 Y57.0813
G01 X19.0025 Y57.0840
G01 X18.9805 Y57.0856
G01 X18.9021 Y57.0895
G01 X18.8800 Y57.0900
G01 X18.8579 Y57.0895
G01 X18.7795 Y57.0856
G01 X18.7685 Y57.0849
G01 X18.7465 Y57.0828
G01 X18.6579 Y57.0698
G01 X18.6361 Y57.0660
G01 X18.6146 Y57.0611
G01 X18.5384 Y57.0421
G01 X18.5171 Y57.0362
G01 X18.4962 Y57.0292
G01 X18.4223 Y57.0028
G01 X18.4016 Y56.9948
G01 X18.3815 Y56.9859
G01 X18.3105 Y56.9523
G01 X18.2908 Y56.9424
G01 X18.2715 Y56.9315
G01 X18.2042 Y56.8912
G01 X18.1855 Y56.8793
G01 X18.1675 Y56.8666
G01 X18.1044 Y56.8199
G01 X18.0870 Y56.8063
G01 X18.0703 Y56.7918
G01 X18.0121 Y56.7391
G01 X17.9961 Y56.7239
G01 X17.9884 Y56.7160
G01 X17.9198 Y56.6402
G01 X15.8210 Y56.6400
G01 X15.7756 Y56.6379
G01 X15.7536 Y56.6363
G01 X15.7316 Y56.6336
G01 X15.6977 Y56.6286
G01 X15.6759 Y56.6248
G01 X15.6543 Y56.6200
G01 X15.6210 Y56.6116
G01 X15.5997 Y56.6057
G01 X15.5787 Y56.5988
G01 X15.5360 Y56.5834
G01 X15.5156 Y56.5749
G01 X15.4646 Y56.5508
G01 X15.4451 Y56.5404
G01 X15.3967 Y56.5113
G01 X15.3783 Y56.4991
G01 X15.3330 Y56.4654
G01 X15.3159 Y56.4514
G01 X15.2741 Y56.4135
G01 X13.9766 Y55.1162
G01 X11.0097 Y55.1162
G01 X10.9883 Y55.1448
G01 X10.9743 Y55.1618
G01 X10.9096 Y55.2334
G01 X10.9021 Y55.2415
G01 X10.8865 Y55.2571
G01 X10.8151 Y55.3219
G01 X10.7984 Y55.3364
G01 X10.7810 Y55.3500
G01 X10.7124 Y55.4008
G01 X10.6944 Y55.4135
G01 X10.6757 Y55.4254
G01 X10.6025 Y55.4692
G01 X10.5832 Y55.4801
G01 X10.5635 Y55.4901
G01 X10.4863 Y55.5266
G01 X10.4763 Y55.5312
G01 X10.4559 Y55.5396
G01 X10.3651 Y55.5722
G01 X10.3442 Y55.5792
G01 X10.3191 Y55.5860
G01 X10.3442 Y55.5928
G01 X10.3651 Y55.5998
G01 X10.4559 Y55.6324
G01 X10.4763 Y55.6408
G01 X10.4863 Y55.6454
G01 X10.5635 Y55.6819
G01 X10.5832 Y55.6919
G01 X10.6025 Y55.7028
G01 X10.6757 Y55.7466
G01 X10.6944 Y55.7585
G01 X10.7124 Y55.7712
G01 X10.7810 Y55.8220
G01 X10.7984 Y55.8356
G01 X10.8151 Y55.8501
G01 X10.8865 Y55.9149
G01 X10.9021 Y55.9305
G01 X10.9096 Y55.9386
G01 X10.9743 Y56.0102
G01 X10.9883 Y56.0272
G01 X11.0097 Y56.0558
G01 X13.3030 Y56.0560
G01 X13.3594 Y56.0587
G01 X13.3704 Y56.0597
G01 X13.3924 Y56.0624
G01 X13.4263 Y56.0674
G01 X13.4481 Y56.0712
G01 X13.4697 Y56.0760
G01 X13.5030 Y56.0844
G01 X13.5243 Y56.0903
G01 X13.5348 Y56.0936
G01 X13.5880 Y56.1126
G01 X13.6084 Y56.1211
G01 X13.6594 Y56.1452
G01 X13.6789 Y56.1556
G01 X13.7179 Y56.1789
G01 X13.7366 Y56.1907
G01 X13.7546 Y56.2034
G01 X13.7822 Y56.2239
G01 X13.7996 Y56.2375
G01 X13.8163 Y56.2519
G01 X13.8418 Y56.2750
G01 X13.8578 Y56.2902
G01 X16.1634 Y58.5958
G01 X17.9198 Y58.5958
G01 X17.9809 Y58.5281
G01 X17.9961 Y58.5121
G01 X18.0121 Y58.4969
G01 X18.0703 Y58.4442
G01 X18.0870 Y58.4297
G01 X18.0956 Y58.4228
G01 X18.1675 Y58.3694
G01 X18.1764 Y58.3629
G01 X18.1948 Y58.3506
G01 X18.2811 Y58.2989
G01 X18.2908 Y58.2936
G01 X18.3105 Y58.2837
G01 X18.3815 Y58.2501
G01 X18.4016 Y58.2412
G01 X18.4223 Y58.2332
G01 X18.4962 Y58.2068
G01 X18.5171 Y58.1998
G01 X18.5278 Y58.1967
G01 X18.6146 Y58.1749
G01 X18.6253 Y58.1723
G01 X18.6470 Y58.1680
G01 X18.7465 Y58.1532
G01 X18.7685 Y58.1511
G01 X18.7795 Y58.1504
G01 X18.8690 Y58.1461
G01 X18.8800 Y58.1460
G01 X18.9021 Y58.1465
G01 X18.9805 Y58.1504
G01 X19.0025 Y58.1520
G01 X19.0244 Y58.1547
G01 X19.1021 Y58.1662
G01 X19.1239 Y58.1700
G01 X19.1454 Y58.1749
G01 X19.2216 Y58.1939
G01 X19.2429 Y58.1998
G01 X19.2638 Y58.2068
G01 X19.3377 Y58.2332
G01 X19.3584 Y58.2412
G01 X19.3785 Y58.2501
G01 X19.4495 Y58.2837
G01 X19.4692 Y58.2936
G01 X19.4885 Y58.3045
G01 X19.5558 Y58.3448
G01 X19.5745 Y58.3567
G01 X19.5925 Y58.3694
G01 X19.6556 Y58.4161
G01 X19.6730 Y58.4297
G01 X19.6897 Y58.4442
G01 X19.7560 Y58.5044
G01 X19.7716 Y58.5200
G01 X19.7791 Y58.5281
G01 X19.8318 Y58.5863
G01 X19.8463 Y58.6030
G01 X19.8599 Y58.6204
G01 X19.9066 Y58.6835
G01 X19.9193 Y58.7015
G01 X19.9312 Y58.7202
G01 X19.9715 Y58.7875
G01 X19.9824 Y58.8068
G01 X19.9923 Y58.8265
G01 X20.0259 Y58.8975
G01 X20.0348 Y58.9176
G01 X20.0428 Y58.9383
G01 X20.0692 Y59.0122
G01 X20.0762 Y59.0331
G01 X20.0821 Y59.0544
G01 X20.1011 Y59.1306
G01 X20.1060 Y59.1521
G01 X20.1098 Y59.1739
G01 X20.1213 Y59.2516
G01 X20.1240 Y59.2735
G01 X20.1256 Y59.2955
G01 X20.1295 Y59.3739
G01 X20.1300 Y59.3960
G01 X20.1295 Y59.4181
G01 X20.1256 Y59.4965
G01 X20.1240 Y59.5185
G01 X20.1213 Y59.5404
G01 X20.1098 Y59.6181
G01 X20.1060 Y59.6399
G01 X20.1011 Y59.6614
G01 X20.0821 Y59.7376
G01 X20.0762 Y59.7589
G01 X20.0692 Y59.7798
G01 X20.0428 Y59.8537
G01 X20.0348 Y59.8744
G01 X20.0259 Y59.8945
G01 X19.9923 Y59.9655
G01 X19.9824 Y59.9852
G01 X19.9715 Y60.0045
G01 X19.9312 Y60.0718
G01 X19.9193 Y60.0905
G01 X19.9066 Y60.1085
G01 X19.8599 Y60.1716
G01 X19.8463 Y60.1890
G01 X19.8318 Y60.2057
G01 X19.7791 Y60.2639
G01 X19.7639 Y60.2799
G01 X19.7479 Y60.2951
G01 X19.6897 Y60.3478
G01 X19.6730 Y60.3623
G01 X19.6556 Y60.3759
G01 X19.5925 Y60.4226
G01 X19.5745 Y60.4353
G01 X19.5558 Y60.4472
G01 X19.4885 Y60.4875
G01 X19.4692 Y60.4984
G01 X19.4495 Y60.5083
G01 X19.3785 Y60.5419
G01 X19.3584 Y60.5508
G01 X19.3377 Y60.5588
G01 X19.2638 Y60.5852
G01 X19.2429 Y60.5922
G01 X19.2216 Y60.5981
G01 X19.1454 Y60.6171
G01 X19.1239 Y60.6220
G01 X19.1021 Y60.6258
G01 X19.0244 Y60.6373
G01 X19.0025 Y60.6400
G01 X18.9805 Y60.6416
G01 X18.8910 Y60.6459
G01 X18.8690 Y60.6459
G01 X18.8579 Y60.6455
G01 X18.7685 Y60.6409
G01 X18.7465 Y60.6388
G01 X18.7356 Y60.6373
G01 X18.6579 Y60.6258
G01 X18.6361 Y60.6220
G01 X18.6146 Y60.6171
G01 X18.5384 Y60.5981
G01 X18.5278 Y60.5953
G01 X18.5066 Y60.5888
G01 X18.4119 Y60.5550
G01 X18.4016 Y60.5508
G01 X18.3815 Y60.5419
G01 X18.3105 Y60.5083
G01 X18.2908 Y60.4984
G01 X18.2811 Y60.4931
G01 X18.1948 Y60.4414
G01 X18.1764 Y60.4291
G01 X18.1675 Y60.4226
G01 X18.0956 Y60.3692
G01 X18.0870 Y60.3623
G01 X18.0703 Y60.3478
G01 X18.0121 Y60.2951
G01 X17.9961 Y60.2799
G01 X17.9809 Y60.2639
G01 X17.9198 Y60.1962
G01 X15.8210 Y60.1960
G01 X15.7646 Y60.1933
G01 X15.7426 Y60.1911
G01 X15.7316 Y60.1896
G01 X15.6977 Y60.1846
G01 X15.6759 Y60.1808
G01 X15.6543 Y60.1760
G01 X15.6210 Y60.1676
G01 X15.6103 Y60.1648
G01 X15.5892 Y60.1584
G01 X15.5360 Y60.1394
G01 X15.5156 Y60.1309
G01 X15.4646 Y60.1068
G01 X15.4451 Y60.0964
G01 X15.4061 Y60.0731
G01 X15.3874 Y60.0613
G01 X15.3694 Y60.0486
G01 X15.3418 Y60.0281
G01 X15.3244 Y60.0145
G01 X15.3077 Y60.0001
G01 X15.2822 Y59.9770
G01 X15.2662 Y59.9618
G01 X12.9606 Y57.6562
G01 X11.0097 Y57.6562
G01 X10.9883 Y57.6848
G01 X10.9743 Y57.7018
G01 X10.9021 Y57.7815
G01 X10.8944 Y57.7894
G01 X10.8784 Y57.8046
G01 X10.8151 Y57.8619
G01 X10.8068 Y57.8693
G01 X10.7898 Y57.8833
G01 X10.7124 Y57.9408
G01 X10.6944 Y57.9535
G01 X10.6757 Y57.9654
G01 X10.6025 Y58.0092
G01 X10.5832 Y58.0201
G01 X10.5635 Y58.0301
G01 X10.4863 Y58.0666
G01 X10.4649 Y58.0760
G01 X10.5810 Y58.0760
G01 X10.6031 Y58.0765
G01 X10.6276 Y58.0777
G01 X10.6496 Y58.0794
G01 X10.6715 Y58.0821
G01 X10.7067 Y58.0874
G01 X10.7284 Y58.0917
G01 X10.7629 Y58.1003
G01 X10.7842 Y58.1061
G01 X10.8052 Y58.1131
G01 X10.8386 Y58.1252
G01 X10.8590 Y58.1336
G01 X10.8913 Y58.1487
G01 X10.9110 Y58.1587
G01 X10.9302 Y58.1695
G01 X10.9606 Y58.1879
G01 X10.9790 Y58.2002
G01 X11.0077 Y58.2213
G01 X11.0251 Y58.2349
G01 X11.0418 Y58.2493
G01 X11.0681 Y58.2733
G01 X11.0837 Y58.2889
G01 X11.1077 Y58.3152
G01 X11.1221 Y58.3319
G01 X11.1357 Y58.3493
G01 X11.1503 Y58.3690
G01 X11.1630 Y58.3871
G01 X11.1748 Y58.4058
G01 X11.1930 Y58.4363
G01 X11.2034 Y58.4558
G01 X11.2188 Y58.4879
G01 X11.2234 Y58.4980
G01 X11.2318 Y58.5184
G01 X11.2475 Y58.5623
G01 X11.2539 Y58.5834
G01 X11.2653 Y58.6286
G01 X11.2696 Y58.6503
G01 X11.2764 Y58.6964
G01 X11.2786 Y58.7184
G01 X11.2805 Y58.7539
G01 X11.2810 Y58.7760
G01 X11.2810 Y59.8094
G01 X13.6234 Y62.1518
G01 X17.9198 Y62.1518
G01 X17.9809 Y62.0841
G01 X17.9961 Y62.0681
G01 X18.0121 Y62.0529
G01 X18.0703 Y62.0002
G01 X18.0786 Y61.9928
G01 X18.0956 Y61.9788
G01 X18.1675 Y61.9254
G01 X18.1764 Y61.9189
G01 X18.1948 Y61.9066
G01 X18.2811 Y61.8549
G01 X18.2908 Y61.8496
G01 X18.3105 Y61.8397
G01 X18.3815 Y61.8061
G01 X18.4016 Y61.7972
G01 X18.4119 Y61.7930
G01 X18.5066 Y61.7592
G01 X18.5278 Y61.7527
G01 X18.5384 Y61.7499
G01 X18.6146 Y61.7309
G01 X18.6361 Y61.7260
G01 X18.6579 Y61.7222
G01 X18.7356 Y61.7107
G01 X18.7465 Y61.7092
G01 X18.7685 Y61.7071
G01 X18.8579 Y61.7025
G01 X18.8690 Y61.7021
G01 X18.8910 Y61.7021
G01 X18.9805 Y61.7064
G01 X19.0025 Y61.7080
G01 X19.0244 Y61.7107
G01 X19.1021 Y61.7222
G01 X19.1239 Y61.7260
G01 X19.1454 Y61.7309
G01 X19.2216 Y61.7499
G01 X19.2429 Y61.7558
G01 X19.2638 Y61.7628
G01 X19.3377 Y61.7892
G01 X19.3584 Y61.7972
G01 X19.3785 Y61.8061
G01 X19.4495 Y61.8397
G01 X19.4692 Y61.8496
G01 X19.4885 Y61.8605
G01 X19.5558 Y61.9008
G01 X19.5745 Y61.9127
G01 X19.5925 Y61.9254
G01 X19.6556 Y61.9721
G01 X19.6730 Y61.9857
G01 X19.6897 Y62.0002
G01 X19.7479 Y62.0529
G01 X19.7639 Y62.0681
G01 X19.7791 Y62.0841
G01 X19.8318 Y62.1423
G01 X19.8463 Y62.1590
G01 X19.8599 Y62.1764
G01 X19.9066 Y62.2395
G01 X19.9193 Y62.2575
G01 X19.9312 Y62.2762
G01 X19.9715 Y62.3435
G01 X19.9824 Y62.3628
G01 X19.9923 Y62.3825
G01 X20.0259 Y62.4535
G01 X20.0348 Y62.4736
G01 X20.0428 Y62.4943
G01 X20.0692 Y62.5682
G01 X20.0762 Y62.5891
G01 X20.0821 Y62.6104
G01 X20.1011 Y62.6866
G01 X20.1060 Y62.7081
G01 X20.1098 Y62.7299
G01 X20.1213 Y62.8076
G01 X20.1240 Y62.8295
G01 X20.1256 Y62.8515
G01 X20.1295 Y62.9299
G01 X20.1300 Y62.9520
G01 X20.1295 Y62.9741
G01 X20.1256 Y63.0525
G01 X20.1240 Y63.0745
G01 X20.1213 Y63.0964
G01 X20.1098 Y63.1741
G01 X20.1060 Y63.1959
G01 X20.1011 Y63.2174
G01 X20.0821 Y63.2936
G01 X20.0762 Y63.3149
G01 X20.0692 Y63.3358
G01 X20.0428 Y63.4097
G01 X20.0348 Y63.4304
G01 X20.0259 Y63.4505
G01 X19.9923 Y63.5215
G01 X19.9824 Y63.5412
G01 X19.9715 Y63.5605
G01 X19.9312 Y63.6278
G01 X19.9193 Y63.6465
G01 X19.9066 Y63.6645
G01 X19.8599 Y63.7276
G01 X19.8463 Y63.7450
G01 X19.8318 Y63.7617
G01 X19.7791 Y63.8199
G01 X19.7639 Y63.8359
G01 X19.7479 Y63.8511
G01 X19.6897 Y63.9038
G01 X19.6730 Y63.9183
G01 X19.6556 Y63.9319
G01 X19.5925 Y63.9786
G01 X19.5745 Y63.9913
G01 X19.5558 Y64.0032
G01 X19.4789 Y64.0491
G01 X19.4692 Y64.0544
G01 X19.4495 Y64.0643
G01 X19.3785 Y64.0979
G01 X19.3685 Y64.1025
G01 X19.3481 Y64.1110
G01 X19.2638 Y64.1412
G01 X19.2429 Y64.1482
G01 X19.2216 Y64.1541
G01 X19.1347 Y64.1757
G01 X19.1239 Y64.1780
G01 X19.1021 Y64.1818
G01 X19.0244 Y64.1933
G01 X19.0025 Y64.1960
G01 X18.9805 Y64.1976
G01 X18.9021 Y64.2015
G01 X18.8800 Y64.2020
G01 X18.8579 Y64.2015
G01 X18.7795 Y64.1976
G01 X18.7575 Y64.1960
G01 X18.7356 Y64.1933
G01 X18.6579 Y64.1818
G01 X18.6361 Y64.1780
G01 X18.6146 Y64.1731
G01 X18.5384 Y64.1541
G01 X18.5171 Y64.1482
G01 X18.4962 Y64.1412
G01 X18.4223 Y64.1148
G01 X18.4119 Y64.1110
G01 X18.3915 Y64.1025
G01 X18.3105 Y64.0643
G01 X18.2908 Y64.0544
G01 X18.2715 Y64.0435
G01 X18.1948 Y63.9974
G01 X18.1764 Y63.9851
G01 X18.1675 Y63.9786
G01 X18.1044 Y63.9319
G01 X18.0870 Y63.9183
G01 X18.0703 Y63.9038
G01 X18.0121 Y63.8511
G01 X17.9961 Y63.8359
G01 X17.9809 Y63.8199
G01 X17.9198 Y63.7522
G01 X13.2920 Y63.7522
G01 X13.2699 Y63.7516
G01 X13.2356 Y63.7499
G01 X13.2136 Y63.7483
G01 X13.1916 Y63.7456
G01 X13.1468 Y63.7388
G01 X13.1251 Y63.7345
G01 X13.0810 Y63.7236
G01 X13.0597 Y63.7177
G01 X13.0387 Y63.7108
G01 X13.0064 Y63.6992
G01 X12.9858 Y63.6913
G01 X12.9656 Y63.6823
G01 X12.9345 Y63.6676
G01 X12.9246 Y63.6628
G01 X12.9051 Y63.6524
G01 X12.8661 Y63.6291
G01 X12.8474 Y63.6173
G01 X12.8383 Y63.6111
G01 X12.7930 Y63.5774
G01 X12.7759 Y63.5634
G01 X12.7341 Y63.5255
G01 X9.9244 Y60.7160
G01 X8.8800 Y60.7159
G01 X8.8334 Y60.7136
G01 X8.8224 Y60.7126
G01 X8.8005 Y60.7099
G01 X8.7762 Y60.7063
G01 X8.7544 Y60.7025
G01 X8.7329 Y60.6977
G01 X8.7091 Y60.6917
G01 X8.6878 Y60.6859
G01 X8.6773 Y60.6825
G01 X8.6334 Y60.6668
