(G-CODE GENERATED BY FLATCAM v8.994 - www.flatcam.org - Version Date: 2020/11/7)

(Name: placaCub-B_Cu.gbr_0.5000_iso_cnc)
(Type: G-code from Geometry)
(Units: MM)

(Created on Thursday, 07 April 2022 at 10:33)

(This preprocessor is the default preprocessor used by FlatCAM.)
(It is made to work with MACH3 compatible motion controllers.)

(TOOL DIAMETER: 0.5 mm)
(Feedrate_XY: 240.0 mm/min)
(Feedrate_Z: 120.0 mm/min)
(Feedrate rapids 1500.0 mm/min)

(Z_Cut: -0.1866 mm)
(Z_Move: 5.0 mm)
(Z Start: None mm)
(Z End: 45.0 mm)
(X,Y End: None mm)
(Steps per circle: 64)
(Preprocessor Geometry: default)

(X range:    1.3838 ...  227.2900  mm)
(Y range:    1.7669 ...  170.8731  mm)

(Spindle Speed: 24000.0 RPM)
G21
G90
G94

G01 F240.00

M5
G00 Z15.0000
G00 X0.0000 Y0.0000
T1
M6    
(MSG, Change to Tool Dia = 0.5000)
M0
G00 Z15.0000

M03 S24000.0
G01 F240.00
G00 X9.8086 Y6.2495
G01 F120.00
G01 Z-0.1866
G01 F240.00
G01 X9.7258 Y6.3734
G01 X9.5454 Y6.5538
G01 X9.3333 Y6.6955
G01 X9.0977 Y6.7931
G01 X8.8475 Y6.8428
G01 X8.5925 Y6.8428
G01 X8.3423 Y6.7931
G01 X8.1067 Y6.6955
G01 X7.8946 Y6.5538
G01 X7.7142 Y6.3734
G01 X7.5725 Y6.1613
G01 X7.4749 Y5.9257
G01 X7.4252 Y5.6755
G01 X7.4252 Y5.4205
G01 X7.4749 Y5.1703
G01 X7.5725 Y4.9347
G01 X7.7142 Y4.7226
G01 X7.8946 Y4.5422
G01 X8.1067 Y4.4005
G01 X8.3423 Y4.3029
G01 X8.5925 Y4.2532
G01 X8.8475 Y4.2532
G01 X9.0977 Y4.3029
G01 X9.3333 Y4.4005
G01 X9.5454 Y4.5422
G01 X9.7258 Y4.7226
G01 X9.8672 Y4.9342
G01 X9.9651 Y5.1703
G01 X10.0148 Y5.4205
G01 X10.0148 Y5.6755
G01 X9.9651 Y5.9257
G01 X9.8675 Y6.1613
G01 X9.8086 Y6.2495
G00 Z5.0000
G00 X10.7038 Y10.0179
G01 F120.00
G01 Z-0.1866
G01 F240.00
G01 X13.5705 Y7.1513
G01 X13.6051 Y7.1200
G01 X13.6194 Y7.1085
G01 X13.6571 Y7.0810
G01 X13.6969 Y7.0567
G01 X13.7130 Y7.0479
G01 X13.7608 Y7.0255
G01 X13.8046 Y7.0095
G01 X13.8163 Y7.0057
G01 X13.8674 Y6.9926
G01 X13.8855 Y6.9893
G01 X13.9317 Y6.9827
G01 X13.9782 Y6.9801
G01 X13.9905 Y6.9798
G01 X18.0191 Y6.9798
G01 X18.0608 Y6.9236
G01 X18.0683 Y6.9139
G01 X18.0764 Y6.9046
G01 X18.1291 Y6.8464
G01 X18.1375 Y6.8375
G01 X18.1464 Y6.8291
G01 X18.2046 Y6.7764
G01 X18.2139 Y6.7683
G01 X18.2236 Y6.7608
G01 X18.2866 Y6.7140
G01 X18.2967 Y6.7070
G01 X18.3070 Y6.7004
G01 X18.3744 Y6.6600
G01 X18.3905 Y6.6512
G01 X18.4670 Y6.6149
G01 X18.4782 Y6.6099
G01 X18.4896 Y6.6055
G01 X18.5635 Y6.5791
G01 X18.5752 Y6.5752
G01 X18.5870 Y6.5719
G01 X18.6632 Y6.5529
G01 X18.6752 Y6.5502
G01 X18.6872 Y6.5481
G01 X18.7649 Y6.5366
G01 X18.7771 Y6.5351
G01 X18.7893 Y6.5342
G01 X18.8677 Y6.5303
G01 X18.8800 Y6.5300
G01 X18.8923 Y6.5303
G01 X18.9707 Y6.5342
G01 X18.9829 Y6.5351
G01 X18.9951 Y6.5366
G01 X19.0728 Y6.5481
G01 X19.0848 Y6.5502
G01 X19.0968 Y6.5529
G01 X19.1730 Y6.5719
G01 X19.1848 Y6.5752
G01 X19.1965 Y6.5791
G01 X19.2704 Y6.6055
G01 X19.2818 Y6.6099
G01 X19.2930 Y6.6149
G01 X19.3640 Y6.6485
G01 X19.3750 Y6.6540
G01 X19.3856 Y6.6600
G01 X19.4530 Y6.7004
G01 X19.4633 Y6.7070
G01 X19.4734 Y6.7140
G01 X19.5364 Y6.7608
G01 X19.5461 Y6.7683
G01 X19.5554 Y6.7764
G01 X19.6136 Y6.8291
G01 X19.6225 Y6.8375
G01 X19.6309 Y6.8464
G01 X19.6836 Y6.9046
G01 X19.6917 Y6.9139
G01 X19.6992 Y6.9236
G01 X19.7460 Y6.9866
G01 X19.7530 Y6.9967
G01 X19.7596 Y7.0070
G01 X19.8000 Y7.0744
G01 X19.8060 Y7.0850
G01 X19.8115 Y7.0960
G01 X19.8451 Y7.1670
G01 X19.8501 Y7.1782
G01 X19.8545 Y7.1896
G01 X19.8809 Y7.2635
G01 X19.8848 Y7.2752
G01 X19.8881 Y7.2870
G01 X19.9071 Y7.3632
G01 X19.9098 Y7.3752
G01 X19.9119 Y7.3872
G01 X19.9234 Y7.4649
G01 X19.9249 Y7.4771
G01 X19.9258 Y7.4893
G01 X19.9297 Y7.5677
G01 X19.9300 Y7.5800
G01 X19.9297 Y7.5923
G01 X19.9258 Y7.6707
G01 X19.9249 Y7.6829
G01 X19.9234 Y7.6951
G01 X19.9119 Y7.7728
G01 X19.9098 Y7.7848
G01 X19.9071 Y7.7968
G01 X19.8881 Y7.8730
G01 X19.8848 Y7.8848
G01 X19.8809 Y7.8965
G01 X19.8545 Y7.9704
G01 X19.8501 Y7.9818
G01 X19.8451 Y7.9930
G01 X19.8115 Y8.0640
G01 X19.8060 Y8.0750
G01 X19.8000 Y8.0856
G01 X19.7596 Y8.1530
G01 X19.7530 Y8.1633
G01 X19.7460 Y8.1734
G01 X19.6992 Y8.2364
G01 X19.6917 Y8.2461
G01 X19.6836 Y8.2554
G01 X19.6309 Y8.3136
G01 X19.6225 Y8.3225
G01 X19.6136 Y8.3309
G01 X19.5554 Y8.3836
G01 X19.5461 Y8.3917
G01 X19.5364 Y8.3992
G01 X19.4734 Y8.4460
G01 X19.4633 Y8.4530
G01 X19.4530 Y8.4596
G01 X19.3856 Y8.5000
G01 X19.3750 Y8.5060
G01 X19.3640 Y8.5115
G01 X19.2930 Y8.5451
G01 X19.2818 Y8.5501
G01 X19.2704 Y8.5545
G01 X19.1965 Y8.5809
G01 X19.1848 Y8.5848
G01 X19.1730 Y8.5881
G01 X19.0968 Y8.6071
G01 X19.0848 Y8.6098
G01 X19.0728 Y8.6119
G01 X18.9951 Y8.6234
G01 X18.9829 Y8.6249
G01 X18.9707 Y8.6258
G01 X18.8923 Y8.6297
G01 X18.8800 Y8.6300
G01 X18.8677 Y8.6297
G01 X18.7893 Y8.6258
G01 X18.7771 Y8.6249
G01 X18.7649 Y8.6234
G01 X18.6872 Y8.6119
G01 X18.6752 Y8.6098
G01 X18.6632 Y8.6071
G01 X18.5870 Y8.5881
G01 X18.5752 Y8.5848
G01 X18.5635 Y8.5809
G01 X18.4896 Y8.5545
G01 X18.4782 Y8.5501
G01 X18.4670 Y8.5451
G01 X18.3960 Y8.5115
G01 X18.3850 Y8.5060
G01 X18.3744 Y8.5000
G01 X18.3070 Y8.4596
G01 X18.2967 Y8.4530
G01 X18.2866 Y8.4460
G01 X18.2236 Y8.3992
G01 X18.2139 Y8.3917
G01 X18.2046 Y8.3836
G01 X18.1464 Y8.3309
G01 X18.1375 Y8.3225
G01 X18.1291 Y8.3136
G01 X18.0764 Y8.2554
G01 X18.0683 Y8.2461
G01 X18.0608 Y8.2364
G01 X18.0191 Y8.1802
G01 X14.2391 Y8.1802
G01 X11.6991 Y10.7201
G01 X11.7274 Y10.7992
G01 X11.7313 Y10.8109
G01 X11.7345 Y10.8227
G01 X11.7553 Y10.9055
G01 X11.7580 Y10.9175
G01 X11.7601 Y10.9296
G01 X11.7726 Y11.0140
G01 X11.7741 Y11.0262
G01 X11.7750 Y11.0385
G01 X11.7792 Y11.1237
G01 X11.7795 Y11.1360
G01 X11.7792 Y11.1483
G01 X11.7750 Y11.2335
G01 X11.7741 Y11.2458
G01 X11.7726 Y11.2580
G01 X11.7601 Y11.3424
G01 X11.7580 Y11.3545
G01 X11.7553 Y11.3665
G01 X11.7345 Y11.4493
G01 X11.7313 Y11.4611
G01 X11.7274 Y11.4728
G01 X11.6987 Y11.5532
G01 X11.6942 Y11.5646
G01 X11.6893 Y11.5758
G01 X11.6528 Y11.6530
G01 X11.6473 Y11.6640
G01 X11.6412 Y11.6746
G01 X11.5973 Y11.7479
G01 X11.5907 Y11.7582
G01 X11.5837 Y11.7683
G01 X11.5328 Y11.8368
G01 X11.5253 Y11.8465
G01 X11.5173 Y11.8558
G01 X11.4599 Y11.9191
G01 X11.4515 Y11.9280
G01 X11.4426 Y11.9364
G01 X11.3793 Y11.9938
G01 X11.3700 Y12.0018
G01 X11.3603 Y12.0093
G01 X11.2918 Y12.0602
G01 X11.2817 Y12.0672
G01 X11.2714 Y12.0738
G01 X11.1981 Y12.1177
G01 X11.1875 Y12.1238
G01 X11.1765 Y12.1293
G01 X11.0993 Y12.1658
G01 X11.0881 Y12.1707
G01 X11.0767 Y12.1752
G01 X10.9963 Y12.2039
G01 X10.9846 Y12.2078
G01 X10.9728 Y12.2110
G01 X10.8900 Y12.2318
G01 X10.8780 Y12.2345
G01 X10.8659 Y12.2366
G01 X10.7815 Y12.2491
G01 X10.7693 Y12.2506
G01 X10.7570 Y12.2515
G01 X10.6718 Y12.2557
G01 X10.6595 Y12.2560
G01 X10.2095 Y12.2560
G01 X10.1972 Y12.2557
G01 X10.1058 Y12.2511
G01 X10.0875 Y12.2491
G01 X10.0031 Y12.2366
G01 X9.9910 Y12.2345
G01 X9.9790 Y12.2318
G01 X9.8962 Y12.2110
G01 X9.8844 Y12.2078
G01 X9.8727 Y12.2039
G01 X9.7923 Y12.1752
G01 X9.7753 Y12.1683
G01 X9.6925 Y12.1293
G01 X9.6815 Y12.1238
G01 X9.6709 Y12.1177
G01 X9.5976 Y12.0738
G01 X9.5873 Y12.0672
G01 X9.5772 Y12.0602
G01 X9.5087 Y12.0093
G01 X9.4990 Y12.0018
G01 X9.4897 Y11.9938
G01 X9.4264 Y11.9364
G01 X9.4175 Y11.9280
G01 X9.4091 Y11.9191
G01 X9.3517 Y11.8558
G01 X9.3437 Y11.8465
G01 X9.3362 Y11.8368
G01 X9.2853 Y11.7683
G01 X9.2783 Y11.7582
G01 X9.2717 Y11.7479
G01 X9.2278 Y11.6746
G01 X9.2217 Y11.6640
G01 X9.2162 Y11.6530
G01 X9.1797 Y11.5758
G01 X9.1748 Y11.5646
G01 X9.1703 Y11.5532
G01 X9.1416 Y11.4728
G01 X9.1377 Y11.4611
G01 X9.1345 Y11.4493
G01 X9.1137 Y11.3665
G01 X9.1110 Y11.3545
G01 X9.1089 Y11.3424
G01 X9.0964 Y11.2580
G01 X9.0949 Y11.2458
G01 X9.0940 Y11.2335
G01 X9.0898 Y11.1483
G01 X9.0895 Y11.1360
G01 X9.0898 Y11.1237
G01 X9.0940 Y11.0385
G01 X9.0949 Y11.0262
G01 X9.0964 Y11.0140
G01 X9.1089 Y10.9296
G01 X9.1110 Y10.9175
G01 X9.1137 Y10.9055
G01 X9.1345 Y10.8227
G01 X9.1377 Y10.8109
G01 X9.1416 Y10.7992
G01 X9.1703 Y10.7188
G01 X9.1772 Y10.7018
G01 X9.2162 Y10.6190
G01 X9.2217 Y10.6080
G01 X9.2278 Y10.5974
G01 X9.2717 Y10.5241
G01 X9.2783 Y10.5138
G01 X9.2853 Y10.5037
G01 X9.3362 Y10.4352
G01 X9.3437 Y10.4255
G01 X9.3517 Y10.4162
G01 X9.4091 Y10.3529
G01 X9.4175 Y10.3440
G01 X9.4264 Y10.3356
G01 X9.4897 Y10.2782
G01 X9.4990 Y10.2702
G01 X9.5087 Y10.2627
G01 X9.5772 Y10.2118
G01 X9.5873 Y10.2048
G01 X9.5976 Y10.1982
G01 X9.6709 Y10.1543
G01 X9.6815 Y10.1482
G01 X9.6925 Y10.1427
G01 X9.7753 Y10.1037
G01 X9.7923 Y10.0968
G01 X9.8727 Y10.0681
G01 X9.8844 Y10.0642
G01 X9.8962 Y10.0610
G01 X9.9790 Y10.0402
G01 X9.9910 Y10.0375
G01 X10.0031 Y10.0354
G01 X10.0875 Y10.0229
G01 X10.0997 Y10.0214
G01 X10.1120 Y10.0205
G01 X10.1972 Y10.0163
G01 X10.2095 Y10.0160
G01 X10.6595 Y10.0160
G01 X10.7038 Y10.0179
G00 Z5.0000
G00 X10.2095 Y12.5560
G01 F120.00
G01 Z-0.1866
G01 F240.00
G01 X10.6595 Y12.5560
G01 X10.6718 Y12.5563
G01 X10.7570 Y12.5605
G01 X10.7693 Y12.5614
G01 X10.7815 Y12.5629
G01 X10.8659 Y12.5754
G01 X10.8780 Y12.5775
G01 X10.8900 Y12.5802
G01 X10.9728 Y12.6010
G01 X10.9846 Y12.6042
G01 X10.9963 Y12.6081
G01 X11.0824 Y12.6390
G01 X11.0993 Y12.6462
G01 X11.1765 Y12.6827
G01 X11.1875 Y12.6882
G01 X11.1981 Y12.6943
G01 X11.2714 Y12.7382
G01 X11.2817 Y12.7448
G01 X11.2918 Y12.7518
G01 X11.3603 Y12.8027
G01 X11.3700 Y12.8102
G01 X11.3793 Y12.8182
G01 X11.4426 Y12.8756
G01 X11.4515 Y12.8840
G01 X11.4599 Y12.8929
G01 X11.5213 Y12.9608
G01 X11.5328 Y12.9752
G01 X11.5873 Y13.0487
G01 X11.5941 Y13.0589
G01 X11.6043 Y13.0758
G01 X13.5514 Y13.0758
G01 X15.9200 Y10.7073
G01 X15.9546 Y10.6760
G01 X15.9689 Y10.6645
G01 X16.0066 Y10.6370
G01 X16.0464 Y10.6127
G01 X16.0625 Y10.6039
G01 X16.1047 Y10.5839
G01 X16.1218 Y10.5771
G01 X16.1599 Y10.5635
G01 X16.1717 Y10.5600
G01 X16.2109 Y10.5500
G01 X16.2229 Y10.5474
G01 X16.2350 Y10.5453
G01 X16.2812 Y10.5387
G01 X16.3339 Y10.5359
G01 X18.0191 Y10.5358
G01 X18.0608 Y10.4796
G01 X18.0683 Y10.4699
G01 X18.0764 Y10.4606
G01 X18.1291 Y10.4024
G01 X18.1375 Y10.3935
G01 X18.1464 Y10.3851
G01 X18.2046 Y10.3324
G01 X18.2139 Y10.3243
G01 X18.2236 Y10.3168
G01 X18.2866 Y10.2700
G01 X18.2967 Y10.2630
G01 X18.3070 Y10.2564
G01 X18.3744 Y10.2160
G01 X18.3850 Y10.2100
G01 X18.3960 Y10.2045
G01 X18.4670 Y10.1709
G01 X18.4782 Y10.1659
G01 X18.4896 Y10.1615
G01 X18.5635 Y10.1351
G01 X18.5752 Y10.1312
G01 X18.5870 Y10.1279
G01 X18.6632 Y10.1089
G01 X18.6752 Y10.1062
G01 X18.6872 Y10.1041
G01 X18.7649 Y10.0926
G01 X18.7771 Y10.0911
G01 X18.7893 Y10.0902
G01 X18.8677 Y10.0863
G01 X18.8800 Y10.0860
G01 X18.8923 Y10.0863
G01 X18.9707 Y10.0902
G01 X18.9829 Y10.0911
G01 X18.9951 Y10.0926
G01 X19.0728 Y10.1041
G01 X19.0848 Y10.1062
G01 X19.0968 Y10.1089
G01 X19.1730 Y10.1279
G01 X19.1848 Y10.1312
G01 X19.1965 Y10.1351
G01 X19.2704 Y10.1615
G01 X19.2818 Y10.1659
G01 X19.2930 Y10.1709
G01 X19.3640 Y10.2045
G01 X19.3750 Y10.2100
G01 X19.3856 Y10.2160
G01 X19.4530 Y10.2564
G01 X19.4633 Y10.2630
G01 X19.4734 Y10.2700
G01 X19.5364 Y10.3168
G01 X19.5461 Y10.3243
G01 X19.5554 Y10.3324
G01 X19.6136 Y10.3851
G01 X19.6225 Y10.3935
G01 X19.6309 Y10.4024
G01 X19.6836 Y10.4606
G01 X19.6917 Y10.4699
G01 X19.6992 Y10.4796
G01 X19.7460 Y10.5426
G01 X19.7530 Y10.5527
G01 X19.7596 Y10.5630
G01 X19.8000 Y10.6304
G01 X19.8060 Y10.6410
G01 X19.8115 Y10.6520
G01 X19.8451 Y10.7230
G01 X19.8501 Y10.7342
G01 X19.8545 Y10.7456
G01 X19.8809 Y10.8195
G01 X19.8848 Y10.8312
G01 X19.8881 Y10.8430
G01 X19.9071 Y10.9192
G01 X19.9109 Y10.9372
G01 X19.9234 Y11.0209
G01 X19.9249 Y11.0331
G01 X19.9258 Y11.0453
G01 X19.9297 Y11.1237
G01 X19.9300 Y11.1360
G01 X19.9297 Y11.1483
G01 X19.9258 Y11.2267
G01 X19.9249 Y11.2389
G01 X19.9234 Y11.2511
G01 X19.9119 Y11.3288
G01 X19.9098 Y11.3408
G01 X19.9071 Y11.3528
G01 X19.8881 Y11.4290
G01 X19.8848 Y11.4408
G01 X19.8809 Y11.4525
G01 X19.8545 Y11.5264
G01 X19.8501 Y11.5378
G01 X19.8451 Y11.5490
G01 X19.8115 Y11.6200
G01 X19.8060 Y11.6310
G01 X19.8000 Y11.6416
G01 X19.7596 Y11.7090
G01 X19.7530 Y11.7193
G01 X19.7460 Y11.7294
G01 X19.6992 Y11.7924
G01 X19.6917 Y11.8021
G01 X19.6836 Y11.8114
G01 X19.6309 Y11.8696
G01 X19.6225 Y11.8785
G01 X19.6136 Y11.8869
G01 X19.5554 Y11.9396
G01 X19.5461 Y11.9477
G01 X19.5364 Y11.9552
G01 X19.4734 Y12.0020
G01 X19.4633 Y12.0090
G01 X19.4530 Y12.0156
G01 X19.3856 Y12.0560
G01 X19.3750 Y12.0620
G01 X19.3640 Y12.0675
G01 X19.2930 Y12.1011
G01 X19.2818 Y12.1061
G01 X19.2704 Y12.1105
G01 X19.1965 Y12.1369
G01 X19.1848 Y12.1408
G01 X19.1730 Y12.1441
G01 X19.0968 Y12.1631
G01 X19.0848 Y12.1658
G01 X19.0728 Y12.1679
G01 X18.9951 Y12.1794
G01 X18.9829 Y12.1809
G01 X18.9707 Y12.1818
G01 X18.8923 Y12.1857
G01 X18.8800 Y12.1860
G01 X18.8677 Y12.1857
G01 X18.7893 Y12.1818
G01 X18.7771 Y12.1809
G01 X18.7649 Y12.1794
G01 X18.6872 Y12.1679
G01 X18.6752 Y12.1658
G01 X18.6632 Y12.1631
G01 X18.5870 Y12.1441
G01 X18.5752 Y12.1408
G01 X18.5635 Y12.1369
G01 X18.4896 Y12.1105
G01 X18.4782 Y12.1061
G01 X18.4670 Y12.1011
G01 X18.3960 Y12.0675
G01 X18.3850 Y12.0620
G01 X18.3744 Y12.0560
G01 X18.3070 Y12.0156
G01 X18.2967 Y12.0090
G01 X18.2866 Y12.0020
G01 X18.2236 Y11.9552
G01 X18.2139 Y11.9477
G01 X18.2046 Y11.9396
G01 X18.1464 Y11.8869
G01 X18.1375 Y11.8785
G01 X18.1291 Y11.8696
G01 X18.0764 Y11.8114
G01 X18.0683 Y11.8021
G01 X18.0608 Y11.7924
G01 X18.0191 Y11.7362
G01 X16.5886 Y11.7362
G01 X14.2244 Y14.1004
G01 X14.2155 Y14.1088
G01 X14.1807 Y14.1399
G01 X14.1435 Y14.1680
G01 X14.1283 Y14.1784
G01 X14.0829 Y14.2053
G01 X14.0720 Y14.2108
G01 X14.0297 Y14.2305
G01 X13.9801 Y14.2485
G01 X13.9624 Y14.2536
G01 X13.9171 Y14.2646
G01 X13.8710 Y14.2718
G01 X13.8527 Y14.2738
G01 X13.8061 Y14.2761
G01 X11.6043 Y14.2762
G01 X11.5941 Y14.2931
G01 X11.5873 Y14.3033
G01 X11.5291 Y14.3817
G01 X11.5173 Y14.3958
G01 X11.4557 Y14.4636
G01 X11.4426 Y14.4764
G01 X11.3793 Y14.5338
G01 X11.3700 Y14.5418
G01 X11.3603 Y14.5493
G01 X11.2918 Y14.6002
G01 X11.2817 Y14.6072
G01 X11.2714 Y14.6138
G01 X11.1981 Y14.6577
G01 X11.1875 Y14.6638
G01 X11.1765 Y14.6693
G01 X11.0993 Y14.7058
G01 X11.0881 Y14.7107
G01 X11.0767 Y14.7152
G01 X10.9963 Y14.7439
G01 X10.9846 Y14.7478
G01 X10.9728 Y14.7510
G01 X10.8900 Y14.7718
G01 X10.8720 Y14.7756
G01 X10.7815 Y14.7891
G01 X10.7693 Y14.7906
G01 X10.7570 Y14.7915
G01 X10.6656 Y14.7959
G01 X10.2095 Y14.7960
G01 X10.1972 Y14.7957
G01 X10.1120 Y14.7915
G01 X10.0997 Y14.7906
G01 X10.0875 Y14.7891
G01 X10.0031 Y14.7766
G01 X9.9910 Y14.7745
G01 X9.9790 Y14.7718
G01 X9.8962 Y14.7510
G01 X9.8844 Y14.7478
G01 X9.8727 Y14.7439
G01 X9.7923 Y14.7152
G01 X9.7753 Y14.7083
G01 X9.6925 Y14.6693
G01 X9.6815 Y14.6638
G01 X9.6709 Y14.6577
G01 X9.5976 Y14.6138
G01 X9.5873 Y14.6072
G01 X9.5772 Y14.6002
G01 X9.5087 Y14.5493
G01 X9.4990 Y14.5418
G01 X9.4897 Y14.5338
G01 X9.4264 Y14.4764
G01 X9.4175 Y14.4680
G01 X9.4091 Y14.4591
G01 X9.3517 Y14.3958
G01 X9.3437 Y14.3865
G01 X9.3362 Y14.3768
G01 X9.2853 Y14.3083
G01 X9.2783 Y14.2982
G01 X9.2717 Y14.2879
G01 X9.2278 Y14.2146
G01 X9.2217 Y14.2040
G01 X9.2162 Y14.1930
G01 X9.1797 Y14.1158
G01 X9.1748 Y14.1046
G01 X9.1703 Y14.0932
G01 X9.1416 Y14.0128
G01 X9.1377 Y14.0011
G01 X9.1345 Y13.9893
G01 X9.1137 Y13.9065
G01 X9.1110 Y13.8945
G01 X9.1089 Y13.8824
G01 X9.0964 Y13.7980
G01 X9.0949 Y13.7858
G01 X9.0940 Y13.7735
G01 X9.0898 Y13.6883
G01 X9.0895 Y13.6760
G01 X9.0898 Y13.6637
G01 X9.0940 Y13.5785
G01 X9.0949 Y13.5662
G01 X9.0964 Y13.5540
G01 X9.1089 Y13.4696
G01 X9.1110 Y13.4575
G01 X9.1137 Y13.4455
G01 X9.1345 Y13.3627
G01 X9.1377 Y13.3509
G01 X9.1416 Y13.3392
G01 X9.1703 Y13.2588
G01 X9.1748 Y13.2474
G01 X9.1797 Y13.2362
G01 X9.2162 Y13.1590
G01 X9.2217 Y13.1480
G01 X9.2278 Y13.1374
G01 X9.2717 Y13.0641
G01 X9.2783 Y13.0538
G01 X9.2853 Y13.0437
G01 X9.3362 Y12.9752
G01 X9.3437 Y12.9655
G01 X9.3517 Y12.9562
G01 X9.4091 Y12.8929
G01 X9.4175 Y12.8840
G01 X9.4264 Y12.8756
G01 X9.4897 Y12.8182
G01 X9.4990 Y12.8102
G01 X9.5087 Y12.8027
G01 X9.5772 Y12.7518
G01 X9.5873 Y12.7448
G01 X9.5976 Y12.7382
G01 X9.6709 Y12.6943
G01 X9.6815 Y12.6882
G01 X9.6925 Y12.6827
G01 X9.7697 Y12.6462
G01 X9.7809 Y12.6413
G01 X9.7923 Y12.6368
G01 X9.8727 Y12.6081
G01 X9.8844 Y12.6042
G01 X9.8962 Y12.6010
G01 X9.9790 Y12.5802
G01 X9.9910 Y12.5775
G01 X10.0031 Y12.5754
G01 X10.0875 Y12.5629
G01 X10.0997 Y12.5614
G01 X10.1120 Y12.5605
G01 X10.1972 Y12.5563
G01 X10.2095 Y12.5560
G00 Z5.0000
G00 X10.2095 Y15.0960
G01 F120.00
G01 Z-0.1866
G01 F240.00
G01 X10.6595 Y15.0960
G01 X10.6718 Y15.0963
G01 X10.7570 Y15.1005
G01 X10.7693 Y15.1014
G01 X10.7815 Y15.1029
G01 X10.8659 Y15.1154
G01 X10.8780 Y15.1175
G01 X10.8900 Y15.1202
G01 X10.9728 Y15.1410
G01 X10.9846 Y15.1442
G01 X10.9963 Y15.1481
G01 X11.0824 Y15.1790
G01 X11.0993 Y15.1862
G01 X11.1765 Y15.2227
G01 X11.1875 Y15.2282
G01 X11.1981 Y15.2343
G01 X11.2714 Y15.2782
G01 X11.2817 Y15.2848
G01 X11.2918 Y15.2918
G01 X11.3603 Y15.3427
G01 X11.3700 Y15.3502
G01 X11.3793 Y15.3582
G01 X11.4426 Y15.4156
G01 X11.4515 Y15.4240
G01 X11.4599 Y15.4329
G01 X11.5213 Y15.5008
G01 X11.5328 Y15.5152
G01 X11.5873 Y15.5887
G01 X11.5941 Y15.5989
G01 X11.6043 Y15.6158
G01 X14.5674 Y15.6158
G01 X15.9200 Y14.2633
G01 X15.9593 Y14.2281
G01 X15.9965 Y14.2000
G01 X16.0066 Y14.1930
G01 X16.0464 Y14.1687
G01 X16.0571 Y14.1627
G01 X16.0991 Y14.1425
G01 X16.1160 Y14.1352
G01 X16.1599 Y14.1195
G01 X16.1776 Y14.1144
G01 X16.2169 Y14.1046
G01 X16.2350 Y14.1013
G01 X16.2812 Y14.0947
G01 X16.3339 Y14.0919
G01 X18.0191 Y14.0918
G01 X18.0608 Y14.0356
G01 X18.0683 Y14.0259
G01 X18.0764 Y14.0166
G01 X18.1291 Y13.9584
G01 X18.1375 Y13.9495
G01 X18.1464 Y13.9411
G01 X18.2046 Y13.8884
G01 X18.2139 Y13.8803
G01 X18.2236 Y13.8728
G01 X18.2866 Y13.8260
G01 X18.2967 Y13.8190
G01 X18.3070 Y13.8124
G01 X18.3744 Y13.7720
G01 X18.3850 Y13.7660
G01 X18.3960 Y13.7605
G01 X18.4670 Y13.7269
G01 X18.4782 Y13.7219
G01 X18.4896 Y13.7175
G01 X18.5635 Y13.6911
G01 X18.5752 Y13.6872
G01 X18.5870 Y13.6839
G01 X18.6632 Y13.6649
G01 X18.6752 Y13.6622
G01 X18.6872 Y13.6601
G01 X18.7649 Y13.6486
G01 X18.7771 Y13.6471
G01 X18.7893 Y13.6462
G01 X18.8677 Y13.6423
G01 X18.8800 Y13.6420
G01 X18.8923 Y13.6423
G01 X18.9707 Y13.6462
G01 X18.9829 Y13.6471
G01 X18.9951 Y13.6486
G01 X19.0728 Y13.6601
G01 X19.0848 Y13.6622
G01 X19.0968 Y13.6649
G01 X19.1730 Y13.6839
G01 X19.1848 Y13.6872
G01 X19.1965 Y13.6911
G01 X19.2704 Y13.7175
G01 X19.2818 Y13.7219
G01 X19.2930 Y13.7269
G01 X19.3640 Y13.7605
G01 X19.3750 Y13.7660
G01 X19.3856 Y13.7720
G01 X19.4530 Y13.8124
G01 X19.4633 Y13.8190
G01 X19.4734 Y13.8260
G01 X19.5364 Y13.8728
G01 X19.5461 Y13.8803
G01 X19.5554 Y13.8884
G01 X19.6136 Y13.9411
G01 X19.6225 Y13.9495
G01 X19.6309 Y13.9584
G01 X19.6836 Y14.0166
G01 X19.6917 Y14.0259
G01 X19.6992 Y14.0356
G01 X19.7460 Y14.0986
G01 X19.7530 Y14.1087
G01 X19.7596 Y14.1190
G01 X19.8000 Y14.1864
G01 X19.8060 Y14.1970
G01 X19.8115 Y14.2080
G01 X19.8451 Y14.2790
G01 X19.8501 Y14.2902
G01 X19.8545 Y14.3016
G01 X19.8809 Y14.3755
G01 X19.8848 Y14.3872
G01 X19.8881 Y14.3990
G01 X19.9071 Y14.4752
G01 X19.9098 Y14.4872
G01 X19.9119 Y14.4992
G01 X19.9234 Y14.5769
G01 X19.9249 Y14.5891
G01 X19.9258 Y14.6013
G01 X19.9297 Y14.6797
G01 X19.9300 Y14.6920
G01 X19.9297 Y14.7043
G01 X19.9258 Y14.7827
G01 X19.9249 Y14.7949
G01 X19.9234 Y14.8071
G01 X19.9119 Y14.8848
G01 X19.9098 Y14.8968
G01 X19.9071 Y14.9088
G01 X19.8881 Y14.9850
G01 X19.8848 Y14.9968
G01 X19.8809 Y15.0085
G01 X19.8545 Y15.0824
G01 X19.8501 Y15.0938
G01 X19.8451 Y15.1050
G01 X19.8115 Y15.1760
G01 X19.8060 Y15.1870
G01 X19.8000 Y15.1976
G01 X19.7596 Y15.2650
G01 X19.7530 Y15.2753
G01 X19.7460 Y15.2854
G01 X19.6992 Y15.3484
G01 X19.6917 Y15.3581
G01 X19.6836 Y15.3674
G01 X19.6309 Y15.4256
G01 X19.6225 Y15.4345
G01 X19.6136 Y15.4429
G01 X19.5554 Y15.4956
G01 X19.5461 Y15.5037
G01 X19.5364 Y15.5112
G01 X19.4734 Y15.5580
G01 X19.4633 Y15.5650
G01 X19.4530 Y15.5716
G01 X19.3856 Y15.6120
G01 X19.3750 Y15.6180
G01 X19.3640 Y15.6235
G01 X19.2930 Y15.6571
G01 X19.2818 Y15.6621
G01 X19.2704 Y15.6665
G01 X19.1965 Y15.6929
G01 X19.1789 Y15.6985
G01 X19.0968 Y15.7191
G01 X19.0848 Y15.7218
G01 X19.0728 Y15.7239
G01 X18.9951 Y15.7354
G01 X18.9829 Y15.7369
G01 X18.9707 Y15.7378
G01 X18.8923 Y15.7417
G01 X18.8800 Y15.7420
G01 X18.8677 Y15.7417
G01 X18.7893 Y15.7378
G01 X18.7771 Y15.7369
G01 X18.7649 Y15.7354
G01 X18.6872 Y15.7239
G01 X18.6752 Y15.7218
G01 X18.6632 Y15.7191
G01 X18.5870 Y15.7001
G01 X18.5752 Y15.6968
G01 X18.5635 Y15.6929
G01 X18.4896 Y15.6665
G01 X18.4782 Y15.6621
G01 X18.4670 Y15.6571
G01 X18.3960 Y15.6235
G01 X18.3850 Y15.6180
G01 X18.3744 Y15.6120
G01 X18.3070 Y15.5716
G01 X18.2967 Y15.5650
G01 X18.2866 Y15.5580
G01 X18.2236 Y15.5112
G01 X18.2139 Y15.5037
G01 X18.2046 Y15.4956
G01 X18.1464 Y15.4429
G01 X18.1375 Y15.4345
G01 X18.1291 Y15.4256
G01 X18.0764 Y15.3674
G01 X18.0683 Y15.3581
G01 X18.0608 Y15.3484
G01 X18.0191 Y15.2922
G01 X16.5886 Y15.2922
G01 X15.2360 Y16.6447
G01 X15.2060 Y16.6719
G01 X15.1920 Y16.6838
G01 X15.1545 Y16.7116
G01 X15.1391 Y16.7216
G01 X15.1043 Y16.7423
G01 X15.0880 Y16.7508
G01 X15.0457 Y16.7705
G01 X15.0019 Y16.7865
G01 X14.9902 Y16.7903
G01 X14.9784 Y16.7936
G01 X14.9391 Y16.8034
G01 X14.9210 Y16.8067
G01 X14.8748 Y16.8133
G01 X14.8283 Y16.8159
G01 X14.8160 Y16.8162
G01 X11.6043 Y16.8162
G01 X11.5941 Y16.8331
G01 X11.5873 Y16.8433
G01 X11.5328 Y16.9168
G01 X11.5253 Y16.9265
G01 X11.5173 Y16.9358
G01 X11.4599 Y16.9991
G01 X11.4471 Y17.0122
G01 X11.3793 Y17.0738
G01 X11.3700 Y17.0818
G01 X11.3603 Y17.0893
G01 X11.2918 Y17.1402
G01 X11.2817 Y17.1472
G01 X11.2714 Y17.1538
G01 X11.1928 Y17.2008
G01 X11.1765 Y17.2093
G01 X11.0993 Y17.2458
G01 X11.0881 Y17.2507
G01 X11.0767 Y17.2552
G01 X10.9963 Y17.2839
G01 X10.9846 Y17.2878
G01 X10.9728 Y17.2910
G01 X10.8900 Y17.3118
G01 X10.8780 Y17.3145
G01 X10.8659 Y17.3166
G01 X10.7815 Y17.3291
G01 X10.7693 Y17.3306
G01 X10.7570 Y17.3315
G01 X10.6718 Y17.3357
G01 X10.6595 Y17.3360
G01 X10.2095 Y17.3360
G01 X10.1972 Y17.3357
G01 X10.1120 Y17.3315
G01 X10.0936 Y17.3299
G01 X10.0031 Y17.3166
G01 X9.9910 Y17.3145
G01 X9.9790 Y17.3118
G01 X9.8962 Y17.2910
G01 X9.8844 Y17.2878
G01 X9.8727 Y17.2839
G01 X9.7923 Y17.2552
G01 X9.7809 Y17.2507
G01 X9.7697 Y17.2458
G01 X9.6925 Y17.2093
G01 X9.6762 Y17.2008
G01 X9.5976 Y17.1538
G01 X9.5873 Y17.1472
G01 X9.5772 Y17.1402
G01 X9.5087 Y17.0893
G01 X9.4990 Y17.0818
G01 X9.4897 Y17.0738
G01 X9.4264 Y17.0164
G01 X9.4175 Y17.0080
G01 X9.4091 Y16.9991
G01 X9.3517 Y16.9358
G01 X9.3437 Y16.9265
G01 X9.3362 Y16.9168
G01 X9.2853 Y16.8483
G01 X9.2783 Y16.8382
G01 X9.2717 Y16.8279
G01 X9.2278 Y16.7546
G01 X9.2217 Y16.7440
G01 X9.2162 Y16.7330
G01 X9.1797 Y16.6558
G01 X9.1748 Y16.6446
G01 X9.1703 Y16.6332
G01 X9.1416 Y16.5528
G01 X9.1377 Y16.5411
G01 X9.1345 Y16.5293
G01 X9.1137 Y16.4465
G01 X9.1110 Y16.4345
G01 X9.1089 Y16.4224
G01 X9.0964 Y16.3380
G01 X9.0949 Y16.3258
G01 X9.0940 Y16.3135
G01 X9.0898 Y16.2283
G01 X9.0895 Y16.2160
G01 X9.0898 Y16.2037
G01 X9.0940 Y16.1185
G01 X9.0949 Y16.1062
G01 X9.0964 Y16.0940
G01 X9.1089 Y16.0096
G01 X9.1110 Y15.9975
G01 X9.1137 Y15.9855
G01 X9.1345 Y15.9027
G01 X9.1377 Y15.8909
G01 X9.1416 Y15.8792
G01 X9.1703 Y15.7988
G01 X9.1748 Y15.7874
G01 X9.1797 Y15.7762
G01 X9.2162 Y15.6990
G01 X9.2217 Y15.6880
G01 X9.2278 Y15.6774
G01 X9.2717 Y15.6041
G01 X9.2783 Y15.5938
G01 X9.2853 Y15.5837
G01 X9.3362 Y15.5152
G01 X9.3437 Y15.5055
G01 X9.3517 Y15.4962
G01 X9.4091 Y15.4329
G01 X9.4175 Y15.4240
G01 X9.4264 Y15.4156
G01 X9.4897 Y15.3582
G01 X9.4990 Y15.3502
G01 X9.5087 Y15.3427
G01 X9.5772 Y15.2918
G01 X9.5873 Y15.2848
G01 X9.5976 Y15.2782
G01 X9.6709 Y15.2343
G01 X9.6815 Y15.2282
G01 X9.6925 Y15.2227
G01 X9.7697 Y15.1862
G01 X9.7809 Y15.1813
G01 X9.7923 Y15.1768
G01 X9.8727 Y15.1481
G01 X9.8844 Y15.1442
G01 X9.8962 Y15.1410
G01 X9.9790 Y15.1202
G01 X9.9910 Y15.1175
G01 X10.0031 Y15.1154
G01 X10.0875 Y15.1029
G01 X10.0997 Y15.1014
G01 X10.1120 Y15.1005
G01 X10.1972 Y15.0963
G01 X10.2095 Y15.0960
G00 Z5.0000
G00 X10.2095 Y17.6360
G01 F120.00
G01 Z-0.1866
G01 F240.00
G01 X10.6595 Y17.6360
G01 X10.6718 Y17.6363
G01 X10.7570 Y17.6405
G01 X10.7693 Y17.6414
G01 X10.7815 Y17.6429
G01 X10.8659 Y17.6554
G01 X10.8780 Y17.6575
G01 X10.8900 Y17.6602
G01 X10.9728 Y17.6810
G01 X10.9846 Y17.6842
G01 X10.9963 Y17.6881
G01 X11.0824 Y17.7190
G01 X11.0993 Y17.7262
G01 X11.1765 Y17.7627
G01 X11.1875 Y17.7682
G01 X11.1981 Y17.7743
G01 X11.2714 Y17.8182
G01 X11.2817 Y17.8248
G01 X11.2918 Y17.8318
G01 X11.3603 Y17.8827
G01 X11.3700 Y17.8902
G01 X11.3793 Y17.8982
G01 X11.4426 Y17.9556
G01 X11.4515 Y17.9640
G01 X11.4599 Y17.9729
G01 X11.5213 Y18.0408
G01 X11.5328 Y18.0552
G01 X11.5873 Y18.1287
G01 X11.5941 Y18.1389
G01 X11.6043 Y18.1558
G01 X15.5834 Y18.1558
G01 X15.9156 Y17.8236
G01 X15.9245 Y17.8152
G01 X15.9593 Y17.7841
G01 X15.9965 Y17.7560
G01 X16.0066 Y17.7490
G01 X16.0464 Y17.7247
G01 X16.0571 Y17.7187
G01 X16.0680 Y17.7132
G01 X16.1103 Y17.6935
G01 X16.1541 Y17.6775
G01 X16.1717 Y17.6720
G01 X16.2169 Y17.6606
G01 X16.2350 Y17.6573
G01 X16.2812 Y17.6507
G01 X16.3339 Y17.6479
G01 X18.0191 Y17.6478
G01 X18.0608 Y17.5916
G01 X18.0683 Y17.5819
G01 X18.0764 Y17.5726
G01 X18.1291 Y17.5144
G01 X18.1375 Y17.5055
G01 X18.1464 Y17.4971
G01 X18.2046 Y17.4444
G01 X18.2139 Y17.4363
G01 X18.2236 Y17.4288
G01 X18.2866 Y17.3820
G01 X18.2967 Y17.3750
G01 X18.3070 Y17.3684
G01 X18.3744 Y17.3280
G01 X18.3850 Y17.3220
G01 X18.3960 Y17.3165
G01 X18.4670 Y17.2829
G01 X18.4782 Y17.2779
G01 X18.4896 Y17.2735
G01 X18.5635 Y17.2471
G01 X18.5752 Y17.2432
G01 X18.5870 Y17.2399
G01 X18.6632 Y17.2209
G01 X18.6752 Y17.2182
G01 X18.6872 Y17.2161
G01 X18.7649 Y17.2046
G01 X18.7771 Y17.2031
G01 X18.7893 Y17.2022
G01 X18.8677 Y17.1983
G01 X18.8800 Y17.1980
G01 X18.8923 Y17.1983
G01 X18.9768 Y17.2025
G01 X18.9951 Y17.2046
G01 X19.0728 Y17.2161
G01 X19.0848 Y17.2182
G01 X19.0968 Y17.2209
G01 X19.1730 Y17.2399
G01 X19.1848 Y17.2432
G01 X19.1965 Y17.2471
G01 X19.2704 Y17.2735
G01 X19.2818 Y17.2779
G01 X19.2930 Y17.2829
G01 X19.3640 Y17.3165
G01 X19.3750 Y17.3220
G01 X19.3856 Y17.3280
G01 X19.4530 Y17.3684
G01 X19.4633 Y17.3750
G01 X19.4734 Y17.3820
G01 X19.5364 Y17.4288
G01 X19.5461 Y17.4363
G01 X19.5554 Y17.4444
G01 X19.6136 Y17.4971
G01 X19.6225 Y17.5055
G01 X19.6309 Y17.5144
G01 X19.6836 Y17.5726
G01 X19.6917 Y17.5819
G01 X19.6992 Y17.5916
G01 X19.7460 Y17.6546
G01 X19.7530 Y17.6647
G01 X19.7596 Y17.6750
G01 X19.8000 Y17.7424
G01 X19.8060 Y17.7530
G01 X19.8115 Y17.7640
G01 X19.8451 Y17.8350
G01 X19.8501 Y17.8462
G01 X19.8545 Y17.8576
G01 X19.8809 Y17.9315
G01 X19.8848 Y17.9432
G01 X19.8881 Y17.9550
G01 X19.9071 Y18.0312
G01 X19.9098 Y18.0432
G01 X19.9119 Y18.0552
G01 X19.9234 Y18.1329
G01 X19.9249 Y18.1451
G01 X19.9258 Y18.1573
G01 X19.9297 Y18.2357
G01 X19.9300 Y18.2480
G01 X19.9297 Y18.2603
G01 X19.9255 Y18.3448
G01 X19.9234 Y18.3631
G01 X19.9119 Y18.4408
G01 X19.9098 Y18.4528
G01 X19.9071 Y18.4648
G01 X19.8881 Y18.5410
G01 X19.8848 Y18.5528
G01 X19.8809 Y18.5645
G01 X19.8545 Y18.6384
G01 X19.8501 Y18.6498
G01 X19.8451 Y18.6610
G01 X19.8115 Y18.7320
G01 X19.8060 Y18.7430
G01 X19.8000 Y18.7536
G01 X19.7596 Y18.8210
G01 X19.7530 Y18.8313
G01 X19.7460 Y18.8414
G01 X19.6992 Y18.9044
G01 X19.6917 Y18.9141
G01 X19.6836 Y18.9234
G01 X19.6309 Y18.9816
G01 X19.6225 Y18.9905
G01 X19.6136 Y18.9989
G01 X19.5554 Y19.0516
G01 X19.5461 Y19.0597
G01 X19.5364 Y19.0672
G01 X19.4734 Y19.1140
G01 X19.4633 Y19.1210
G01 X19.4530 Y19.1276
G01 X19.3856 Y19.1680
G01 X19.3750 Y19.1740
G01 X19.3640 Y19.1795
G01 X19.2930 Y19.2131
G01 X19.2818 Y19.2181
G01 X19.2704 Y19.2225
G01 X19.1965 Y19.2489
G01 X19.1848 Y19.2528
G01 X19.1730 Y19.2561
G01 X19.0968 Y19.2751
G01 X19.0848 Y19.2778
G01 X19.0728 Y19.2799
G01 X18.9951 Y19.2914
G01 X18.9829 Y19.2929
G01 X18.9707 Y19.2938
G01 X18.8923 Y19.2977
G01 X18.8800 Y19.2980
G01 X18.8677 Y19.2977
G01 X18.7893 Y19.2938
G01 X18.7771 Y19.2929
G01 X18.7649 Y19.2914
G01 X18.6872 Y19.2799
G01 X18.6752 Y19.2778
G01 X18.6632 Y19.2751
G01 X18.5870 Y19.2561
G01 X18.5752 Y19.2528
G01 X18.5635 Y19.2489
G01 X18.4896 Y19.2225
G01 X18.4782 Y19.2181
G01 X18.4670 Y19.2131
G01 X18.3960 Y19.1795
G01 X18.3850 Y19.1740
G01 X18.3744 Y19.1680
G01 X18.3070 Y19.1276
G01 X18.2967 Y19.1210
G01 X18.2866 Y19.1140
G01 X18.2236 Y19.0672
G01 X18.2139 Y19.0597
G01 X18.2046 Y19.0516
G01 X18.1464 Y18.9989
G01 X18.1375 Y18.9905
G01 X18.1291 Y18.9816
G01 X18.0764 Y18.9234
G01 X18.0683 Y18.9141
G01 X18.0608 Y18.9044
G01 X18.0191 Y18.8482
G01 X16.5886 Y18.8482
G01 X16.2564 Y19.1804
G01 X16.2220 Y19.2119
G01 X16.2080 Y19.2238
G01 X16.1654 Y19.2550
G01 X16.1256 Y19.2793
G01 X16.1095 Y19.2881
G01 X16.0673 Y19.3081
G01 X16.0502 Y19.3149
G01 X16.0062 Y19.3303
G01 X15.9551 Y19.3434
G01 X15.9370 Y19.3467
G01 X15.8908 Y19.3533
G01 X15.8443 Y19.3559
G01 X15.8320 Y19.3562
G01 X11.6043 Y19.3562
G01 X11.5941 Y19.3731
G01 X11.5837 Y19.3883
G01 X11.5328 Y19.4568
G01 X11.5253 Y19.4665
G01 X11.5173 Y19.4758
G01 X11.4599 Y19.5391
G01 X11.4515 Y19.5480
G01 X11.4426 Y19.5564
G01 X11.3793 Y19.6138
G01 X11.3652 Y19.6256
G01 X11.2918 Y19.6802
G01 X11.2817 Y19.6872
G01 X11.2714 Y19.6938
G01 X11.1981 Y19.7377
G01 X11.1875 Y19.7438
G01 X11.1765 Y19.7493
G01 X11.0993 Y19.7858
G01 X11.0881 Y19.7907
G01 X11.0767 Y19.7952
G01 X10.9905 Y19.8259
G01 X10.9728 Y19.8310
G01 X10.8900 Y19.8518
G01 X10.8780 Y19.8545
G01 X10.8659 Y19.8566
G01 X10.7815 Y19.8691
G01 X10.7693 Y19.8706
G01 X10.7570 Y19.8715
G01 X10.6718 Y19.8757
G01 X10.6595 Y19.8760
G01 X10.2095 Y19.8760
G01 X10.1972 Y19.8757
G01 X10.1058 Y19.8711
G01 X10.0875 Y19.8691
G01 X10.0031 Y19.8566
G01 X9.9910 Y19.8545
G01 X9.9790 Y19.8518
G01 X9.8962 Y19.8310
G01 X9.8844 Y19.8278
G01 X9.8727 Y19.8239
G01 X9.7923 Y19.7952
G01 X9.7809 Y19.7907
G01 X9.7697 Y19.7858
G01 X9.6925 Y19.7493
G01 X9.6815 Y19.7438
G01 X9.6709 Y19.7377
G01 X9.5976 Y19.6938
G01 X9.5873 Y19.6872
G01 X9.5772 Y19.6802
G01 X9.5087 Y19.6293
G01 X9.4990 Y19.6218
G01 X9.4897 Y19.6138
G01 X9.4264 Y19.5564
G01 X9.4175 Y19.5480
G01 X9.4091 Y19.5391
G01 X9.3517 Y19.4758
G01 X9.3437 Y19.4665
G01 X9.3362 Y19.4568
G01 X9.2853 Y19.3883
G01 X9.2783 Y19.3782
G01 X9.2717 Y19.3679
G01 X9.2278 Y19.2946
G01 X9.2217 Y19.2840
G01 X9.2162 Y19.2730
G01 X9.1797 Y19.1958
G01 X9.1748 Y19.1846
G01 X9.1703 Y19.1732
G01 X9.1416 Y19.0928
G01 X9.1377 Y19.0811
G01 X9.1345 Y19.0693
G01 X9.1137 Y18.9865
G01 X9.1110 Y18.9745
G01 X9.1089 Y18.9624
G01 X9.0964 Y18.8780
G01 X9.0949 Y18.8658
G01 X9.0940 Y18.8535
G01 X9.0898 Y18.7683
G01 X9.0895 Y18.7560
G01 X9.0898 Y18.7437
G01 X9.0940 Y18.6585
G01 X9.0949 Y18.6462
G01 X9.0964 Y18.6340
G01 X9.1089 Y18.5496
G01 X9.1110 Y18.5375
G01 X9.1137 Y18.5255
G01 X9.1345 Y18.4427
G01 X9.1377 Y18.4309
G01 X9.1416 Y18.4192
G01 X9.1703 Y18.3388
G01 X9.1748 Y18.3274
G01 X9.1797 Y18.3162
G01 X9.2162 Y18.2390
G01 X9.2217 Y18.2280
G01 X9.2278 Y18.2174
G01 X9.2717 Y18.1441
G01 X9.2783 Y18.1338
G01 X9.2853 Y18.1237
G01 X9.3362 Y18.0552
G01 X9.3437 Y18.0455
G01 X9.3517 Y18.0362
G01 X9.4091 Y17.9729
G01 X9.4175 Y17.9640
G01 X9.4264 Y17.9556
G01 X9.4897 Y17.8982
G01 X9.4990 Y17.8902
G01 X9.5087 Y17.8827
G01 X9.5772 Y17.8318
G01 X9.5873 Y17.8248
G01 X9.5976 Y17.8182
G01 X9.6709 Y17.7743
G01 X9.6815 Y17.7682
G01 X9.6925 Y17.7627
G01 X9.7697 Y17.7262
G01 X9.7809 Y17.7213
G01 X9.7923 Y17.7168
G01 X9.8727 Y17.6881
G01 X9.8844 Y17.6842
G01 X9.8962 Y17.6810
G01 X9.9790 Y17.6602
G01 X9.9910 Y17.6575
G01 X10.0031 Y17.6554
G01 X10.0875 Y17.6429
G01 X10.0997 Y17.6414
G01 X10.1120 Y17.6405
G01 X10.1972 Y17.6363
G01 X10.2095 Y17.6360
G00 Z5.0000
G00 X10.2095 Y20.1760
G01 F120.00
G01 Z-0.1866
G01 F240.00
G01 X10.6595 Y20.1760
G01 X10.6718 Y20.1763
G01 X10.7570 Y20.1805
G01 X10.7693 Y20.1814
G01 X10.7815 Y20.1829
G01 X10.8659 Y20.1954
G01 X10.8780 Y20.1975
G01 X10.8900 Y20.2002
G01 X10.9728 Y20.2210
G01 X10.9846 Y20.2242
G01 X10.9963 Y20.2281
G01 X11.0824 Y20.2590
G01 X11.0993 Y20.2662
G01 X11.1765 Y20.3027
G01 X11.1875 Y20.3082
G01 X11.1981 Y20.3143
G01 X11.2714 Y20.3582
G01 X11.2817 Y20.3648
G01 X11.2918 Y20.3718
G01 X11.3603 Y20.4227
G01 X11.3700 Y20.4302
G01 X11.3793 Y20.4382
G01 X11.4426 Y20.4956
G01 X11.4515 Y20.5040
G01 X11.4599 Y20.5129
G01 X11.5213 Y20.5808
G01 X11.5328 Y20.5952
G01 X11.5873 Y20.6687
G01 X11.5941 Y20.6789
G01 X11.6043 Y20.6958
G01 X15.8320 Y20.6958
G01 X15.8443 Y20.6961
G01 X15.8908 Y20.6987
G01 X15.9431 Y20.7062
G01 X15.9611 Y20.7100
G01 X16.0062 Y20.7217
G01 X16.0560 Y20.7392
G01 X16.0729 Y20.7465
G01 X16.1149 Y20.7667
G01 X16.1551 Y20.7904
G01 X16.1705 Y20.8004
G01 X16.2080 Y20.8282
G01 X16.2220 Y20.8401
G01 X16.2564 Y20.8716
G01 X16.5886 Y21.2038
G01 X18.0191 Y21.2038
G01 X18.0608 Y21.1476
G01 X18.0683 Y21.1379
G01 X18.0764 Y21.1286
G01 X18.1291 Y21.0704
G01 X18.1375 Y21.0615
G01 X18.1464 Y21.0531
G01 X18.2046 Y21.0004
G01 X18.2139 Y20.9923
G01 X18.2236 Y20.9848
G01 X18.2866 Y20.9380
G01 X18.2967 Y20.9310
G01 X18.3070 Y20.9244
G01 X18.3744 Y20.8840
G01 X18.3850 Y20.8780
G01 X18.3960 Y20.8725
G01 X18.4670 Y20.8389
G01 X18.4782 Y20.8339
G01 X18.4896 Y20.8295
G01 X18.5635 Y20.8031
G01 X18.5752 Y20.7992
G01 X18.5870 Y20.7959
G01 X18.6632 Y20.7769
G01 X18.6752 Y20.7742
G01 X18.6872 Y20.7721
G01 X18.7649 Y20.7606
G01 X18.7771 Y20.7591
G01 X18.7893 Y20.7582
G01 X18.8677 Y20.7543
G01 X18.8800 Y20.7540
G01 X18.8923 Y20.7543
G01 X18.9707 Y20.7582
G01 X18.9829 Y20.7591
G01 X18.9951 Y20.7606
G01 X19.0728 Y20.7721
G01 X19.0848 Y20.7742
G01 X19.0968 Y20.7769
G01 X19.1730 Y20.7959
G01 X19.1848 Y20.7992
G01 X19.1965 Y20.8031
G01 X19.2704 Y20.8295
G01 X19.2818 Y20.8339
G01 X19.2930 Y20.8389
G01 X19.3640 Y20.8725
G01 X19.3750 Y20.8780
G01 X19.3856 Y20.8840
G01 X19.4530 Y20.9244
G01 X19.4633 Y20.9310
G01 X19.4734 Y20.9380
G01 X19.5364 Y20.9848
G01 X19.5461 Y20.9923
G01 X19.5554 Y21.0004
G01 X19.6136 Y21.0531
G01 X19.6225 Y21.0615
G01 X19.6309 Y21.0704
G01 X19.6836 Y21.1286
G01 X19.6917 Y21.1379
G01 X19.6992 Y21.1476
G01 X19.7460 Y21.2106
G01 X19.7530 Y21.2207
G01 X19.7596 Y21.2310
G01 X19.8000 Y21.2984
G01 X19.8060 Y21.3090
G01 X19.8115 Y21.3200
G01 X19.8451 Y21.3910
G01 X19.8501 Y21.4022
G01 X19.8545 Y21.4136
G01 X19.8809 Y21.4875
G01 X19.8848 Y21.4992
G01 X19.8881 Y21.5110
G01 X19.9071 Y21.5872
G01 X19.9098 Y21.5992
G01 X19.9119 Y21.6112
G01 X19.9234 Y21.6889
G01 X19.9249 Y21.7011
G01 X19.9258 Y21.7133
G01 X19.9297 Y21.7917
G01 X19.9300 Y21.8040
G01 X19.9297 Y21.8163
G01 X19.9258 Y21.8947
G01 X19.9249 Y21.9069
G01 X19.9234 Y21.9191
G01 X19.9119 Y21.9968
G01 X19.9098 Y22.0088
G01 X19.9071 Y22.0208
G01 X19.8881 Y22.0970
G01 X19.8848 Y22.1088
G01 X19.8809 Y22.1205
G01 X19.8545 Y22.1944
G01 X19.8501 Y22.2058
G01 X19.8451 Y22.2170
G01 X19.8115 Y22.2880
G01 X19.8060 Y22.2990
G01 X19.8000 Y22.3096
G01 X19.7596 Y22.3770
G01 X19.7530 Y22.3873
G01 X19.7460 Y22.3974
G01 X19.6992 Y22.4604
G01 X19.6917 Y22.4701
G01 X19.6836 Y22.4794
G01 X19.6309 Y22.5376
G01 X19.6225 Y22.5465
G01 X19.6136 Y22.5549
G01 X19.5554 Y22.6076
G01 X19.5461 Y22.6157
G01 X19.5364 Y22.6232
G01 X19.4734 Y22.6700
G01 X19.4633 Y22.6770
G01 X19.4530 Y22.6836
G01 X19.3856 Y22.7240
G01 X19.3750 Y22.7300
G01 X19.3640 Y22.7355
G01 X19.2930 Y22.7691
G01 X19.2818 Y22.7741
G01 X19.2704 Y22.7785
G01 X19.1965 Y22.8049
G01 X19.1848 Y22.8088
G01 X19.1730 Y22.8121
G01 X19.0968 Y22.8311
G01 X19.0848 Y22.8338
G01 X19.0728 Y22.8359
G01 X18.9951 Y22.8474
G01 X18.9829 Y22.8489
G01 X18.9707 Y22.8498
G01 X18.8923 Y22.8537
G01 X18.8800 Y22.8540
G01 X18.8677 Y22.8537
G01 X18.7893 Y22.8498
G01 X18.7771 Y22.8489
G01 X18.7649 Y22.8474
G01 X18.6872 Y22.8359
G01 X18.6752 Y22.8338
G01 X18.6632 Y22.8311
G01 X18.5870 Y22.8121
G01 X18.5752 Y22.8088
G01 X18.5635 Y22.8049
G01 X18.4896 Y22.7785
G01 X18.4782 Y22.7741
G01 X18.4670 Y22.7691
G01 X18.3905 Y22.7328
G01 X18.3744 Y22.7240
G01 X18.3070 Y22.6836
G01 X18.2967 Y22.6770
G01 X18.2866 Y22.6700
G01 X18.2236 Y22.6232
G01 X18.2139 Y22.6157
G01 X18.2046 Y22.6076
G01 X18.1464 Y22.5549
G01 X18.1375 Y22.5465
G01 X18.1291 Y22.5376
G01 X18.0764 Y22.4794
G01 X18.0683 Y22.4701
G01 X18.0608 Y22.4604
G01 X18.0191 Y22.4042
G01 X16.3339 Y22.4041
G01 X16.2812 Y22.4013
G01 X16.2350 Y22.3947
G01 X16.2169 Y22.3914
G01 X16.1717 Y22.3800
G01 X16.1541 Y22.3745
G01 X16.1103 Y22.3585
G01 X16.0680 Y22.3388
G01 X16.0571 Y22.3333
G01 X16.0464 Y22.3273
G01 X16.0066 Y22.3030
G01 X15.9965 Y22.2960
G01 X15.9593 Y22.2679
G01 X15.9245 Y22.2368
G01 X15.9156 Y22.2284
G01 X15.5834 Y21.8962
G01 X11.6043 Y21.8962
G01 X11.5941 Y21.9131
G01 X11.5837 Y21.9283
G01 X11.5328 Y21.9968
G01 X11.5253 Y22.0065
G01 X11.5173 Y22.0158
G01 X11.4599 Y22.0791
G01 X11.4515 Y22.0880
G01 X11.4426 Y22.0964
G01 X11.3793 Y22.1538
G01 X11.3652 Y22.1656
G01 X11.2918 Y22.2202
G01 X11.2817 Y22.2272
G01 X11.2714 Y22.2338
G01 X11.1981 Y22.2777
G01 X11.1875 Y22.2838
G01 X11.1765 Y22.2893
G01 X11.0993 Y22.3258
G01 X11.0881 Y22.3307
G01 X11.0767 Y22.3352
G01 X10.9963 Y22.3639
G01 X10.9846 Y22.3678
G01 X10.9728 Y22.3710
G01 X10.8900 Y22.3918
G01 X10.8780 Y22.3945
G01 X10.8659 Y22.3966
G01 X10.7815 Y22.4091
G01 X10.7693 Y22.4106
G01 X10.7570 Y22.4115
G01 X10.6656 Y22.4159
G01 X10.2034 Y22.4159
G01 X10.1120 Y22.4115
G01 X10.0997 Y22.4106
G01 X10.0875 Y22.4091
G01 X10.0031 Y22.3966
G01 X9.9910 Y22.3945
G01 X9.9790 Y22.3918
G01 X9.8962 Y22.3710
G01 X9.8844 Y22.3678
G01 X9.8727 Y22.3639
G01 X9.7923 Y22.3352
G01 X9.7809 Y22.3307
G01 X9.7697 Y22.3258
G01 X9.6925 Y22.2893
G01 X9.6815 Y22.2838
G01 X9.6709 Y22.2777
G01 X9.5976 Y22.2338
G01 X9.5873 Y22.2272
G01 X9.5772 Y22.2202
G01 X9.5087 Y22.1693
G01 X9.4990 Y22.1618
G01 X9.4897 Y22.1538
G01 X9.4264 Y22.0964
G01 X9.4175 Y22.0880
G01 X9.4091 Y22.0791
G01 X9.3517 Y22.0158
G01 X9.3437 Y22.0065
G01 X9.3362 Y21.9968
G01 X9.2853 Y21.9283
G01 X9.2783 Y21.9182
G01 X9.2717 Y21.9079
G01 X9.2278 Y21.8346
G01 X9.2217 Y21.8240
G01 X9.2162 Y21.8130
G01 X9.1797 Y21.7358
G01 X9.1748 Y21.7246
G01 X9.1703 Y21.7132
G01 X9.1416 Y21.6328
G01 X9.1377 Y21.6211
G01 X9.1345 Y21.6093
G01 X9.1137 Y21.5265
G01 X9.1110 Y21.5145
G01 X9.1089 Y21.5024
G01 X9.0964 Y21.4180
G01 X9.0949 Y21.4058
G01 X9.0940 Y21.3935
G01 X9.0898 Y21.3083
G01 X9.0895 Y21.2960
G01 X9.0898 Y21.2837
G01 X9.0940 Y21.1985
G01 X9.0949 Y21.1862
G01 X9.0964 Y21.1740
G01 X9.1089 Y21.0896
G01 X9.1110 Y21.0775
G01 X9.1137 Y21.0655
G01 X9.1345 Y20.9827
G01 X9.1377 Y20.9709
G01 X9.1416 Y20.9592
G01 X9.1703 Y20.8788
G01 X9.1748 Y20.8674
G01 X9.1797 Y20.8562
G01 X9.2162 Y20.7790
G01 X9.2217 Y20.7680
G01 X9.2278 Y20.7574
G01 X9.2717 Y20.6841
G01 X9.2783 Y20.6738
G01 X9.2853 Y20.6637
G01 X9.3362 Y20.5952
G01 X9.3437 Y20.5855
G01 X9.3517 Y20.5762
G01 X9.4091 Y20.5129
G01 X9.4175 Y20.5040
G01 X9.4264 Y20.4956
G01 X9.4897 Y20.4382
G01 X9.4990 Y20.4302
G01 X9.5087 Y20.4227
G01 X9.5772 Y20.3718
G01 X9.5873 Y20.3648
G01 X9.5976 Y20.3582
G01 X9.6709 Y20.3143
G01 X9.6815 Y20.3082
G01 X9.6925 Y20.3027
G01 X9.7697 Y20.2662
G01 X9.7809 Y20.2613
G01 X9.7923 Y20.2568
G01 X9.8727 Y20.2281
G01 X9.8844 Y20.2242
G01 X9.8962 Y20.2210
G01 X9.9790 Y20.2002
G01 X9.9910 Y20.1975
G01 X10.0031 Y20.1954
G01 X10.0875 Y20.1829
G01 X10.0997 Y20.1814
G01 X10.1120 Y20.1805
G01 X10.1972 Y20.1763
G01 X10.2095 Y20.1760
G00 Z5.0000
G00 X10.2095 Y22.7160
G01 F120.00
G01 Z-0.1866
G01 F240.00
G01 X10.6595 Y22.7160
G01 X10.6718 Y22.7163
G01 X10.7570 Y22.7205
G01 X10.7693 Y22.7214
G01 X10.7815 Y22.7229
G01 X10.8659 Y22.7354
G01 X10.8780 Y22.7375
G01 X10.8900 Y22.7402
G01 X10.9728 Y22.7610
G01 X10.9846 Y22.7642
G01 X10.9963 Y22.7681
G01 X11.0824 Y22.7990
G01 X11.0993 Y22.8062
G01 X11.1765 Y22.8427
G01 X11.1875 Y22.8482
G01 X11.1981 Y22.8543
G01 X11.2714 Y22.8982
G01 X11.2817 Y22.9048
G01 X11.2918 Y22.9118
G01 X11.3603 Y22.9627
G01 X11.3700 Y22.9702
G01 X11.3793 Y22.9782
G01 X11.4426 Y23.0356
G01 X11.4515 Y23.0440
G01 X11.4599 Y23.0529
G01 X11.5213 Y23.1208
G01 X11.5328 Y23.1352
G01 X11.5873 Y23.2087
G01 X11.5941 Y23.2189
G01 X11.6043 Y23.2358
G01 X14.8160 Y23.2358
G01 X14.8283 Y23.2361
G01 X14.8748 Y23.2387
G01 X14.9210 Y23.2453
G01 X14.9331 Y23.2474
G01 X14.9451 Y23.2500
G01 X14.9843 Y23.2600
G01 X14.9961 Y23.2635
G01 X15.0342 Y23.2771
G01 X15.0513 Y23.2839
G01 X15.0935 Y23.3039
G01 X15.1096 Y23.3127
G01 X15.1494 Y23.3370
G01 X15.1871 Y23.3645
G01 X15.2014 Y23.3760
G01 X15.2360 Y23.4073
G01 X16.5886 Y24.7598
G01 X18.0191 Y24.7598
G01 X18.0608 Y24.7036
G01 X18.0683 Y24.6939
G01 X18.0764 Y24.6846
G01 X18.1291 Y24.6264
G01 X18.1375 Y24.6175
G01 X18.1464 Y24.6091
G01 X18.2046 Y24.5564
G01 X18.2139 Y24.5483
G01 X18.2236 Y24.5408
G01 X18.2866 Y24.4940
G01 X18.2967 Y24.4870
G01 X18.3070 Y24.4804
G01 X18.3744 Y24.4400
G01 X18.3850 Y24.4340
G01 X18.3960 Y24.4285
G01 X18.4670 Y24.3949
G01 X18.4782 Y24.3899
G01 X18.4896 Y24.3855
G01 X18.5635 Y24.3591
G01 X18.5752 Y24.3552
G01 X18.5870 Y24.3519
G01 X18.6632 Y24.3329
G01 X18.6752 Y24.3302
G01 X18.6872 Y24.3281
G01 X18.7649 Y24.3166
G01 X18.7771 Y24.3151
G01 X18.7893 Y24.3142
G01 X18.8677 Y24.3103
G01 X18.8800 Y24.3100
G01 X18.8923 Y24.3103
G01 X18.9707 Y24.3142
G01 X18.9829 Y24.3151
G01 X18.9951 Y24.3166
G01 X19.0728 Y24.3281
G01 X19.0848 Y24.3302
G01 X19.0968 Y24.3329
G01 X19.1730 Y24.3519
G01 X19.1848 Y24.3552
G01 X19.1965 Y24.3591
G01 X19.2704 Y24.3855
G01 X19.2818 Y24.3899
G01 X19.2930 Y24.3949
G01 X19.3640 Y24.4285
G01 X19.3750 Y24.4340
G01 X19.3856 Y24.4400
G01 X19.4530 Y24.4804
G01 X19.4633 Y24.4870
G01 X19.4734 Y24.4940
G01 X19.5364 Y24.5408
G01 X19.5461 Y24.5483
G01 X19.5554 Y24.5564
G01 X19.6136 Y24.6091
G01 X19.6225 Y24.6175
G01 X19.6309 Y24.6264
G01 X19.6836 Y24.6846
G01 X19.6917 Y24.6939
G01 X19.6992 Y24.7036
G01 X19.7460 Y24.7666
G01 X19.7530 Y24.7767
G01 X19.7596 Y24.7870
G01 X19.8000 Y24.8544
G01 X19.8060 Y24.8650
G01 X19.8115 Y24.8760
G01 X19.8451 Y24.9470
G01 X19.8501 Y24.9582
G01 X19.8545 Y24.9696
G01 X19.8809 Y25.0435
G01 X19.8848 Y25.0552
G01 X19.8881 Y25.0670
G01 X19.9071 Y25.1432
G01 X19.9098 Y25.1552
G01 X19.9119 Y25.1672
G01 X19.9234 Y25.2449
G01 X19.9249 Y25.2571
G01 X19.9258 Y25.2693
G01 X19.9297 Y25.3477
G01 X19.9300 Y25.3600
G01 X19.9297 Y25.3723
G01 X19.9258 Y25.4507
G01 X19.9249 Y25.4629
G01 X19.9234 Y25.4751
G01 X19.9119 Y25.5528
G01 X19.9098 Y25.5648
G01 X19.9071 Y25.5768
G01 X19.8881 Y25.6530
G01 X19.8848 Y25.6648
G01 X19.8809 Y25.6765
G01 X19.8545 Y25.7504
G01 X19.8501 Y25.7618
G01 X19.8451 Y25.7730
G01 X19.8115 Y25.8440
G01 X19.8060 Y25.8550
G01 X19.8000 Y25.8656
G01 X19.7596 Y25.9330
G01 X19.7530 Y25.9433
G01 X19.7460 Y25.9534
G01 X19.6992 Y26.0164
G01 X19.6917 Y26.0261
G01 X19.6836 Y26.0354
G01 X19.6309 Y26.0936
G01 X19.6225 Y26.1025
G01 X19.6136 Y26.1109
G01 X19.5554 Y26.1636
G01 X19.5461 Y26.1717
G01 X19.5364 Y26.1792
G01 X19.4734 Y26.2260
G01 X19.4633 Y26.2330
G01 X19.4530 Y26.2396
G01 X19.3856 Y26.2800
G01 X19.3750 Y26.2860
G01 X19.3640 Y26.2915
G01 X19.2930 Y26.3251
G01 X19.2818 Y26.3301
G01 X19.2704 Y26.3345
G01 X19.1965 Y26.3609
G01 X19.1848 Y26.3648
G01 X19.1730 Y26.3681
G01 X19.0968 Y26.3871
G01 X19.0848 Y26.3898
G01 X19.0728 Y26.3919
G01 X18.9951 Y26.4034
G01 X18.9768 Y26.4055
G01 X18.8923 Y26.4097
G01 X18.8800 Y26.4100
G01 X18.8677 Y26.4097
G01 X18.7893 Y26.4058
G01 X18.7771 Y26.4049
G01 X18.7649 Y26.4034
G01 X18.6872 Y26.3919
G01 X18.6752 Y26.3898
G01 X18.6632 Y26.3871
G01 X18.5870 Y26.3681
G01 X18.5752 Y26.3648
G01 X18.5635 Y26.3609
G01 X18.4896 Y26.3345
G01 X18.4782 Y26.3301
G01 X18.4670 Y26.3251
G01 X18.3960 Y26.2915
G01 X18.3850 Y26.2860
G01 X18.3744 Y26.2800
G01 X18.3070 Y26.2396
G01 X18.2967 Y26.2330
G01 X18.2866 Y26.2260
G01 X18.2236 Y26.1792
G01 X18.2139 Y26.1717
G01 X18.2046 Y26.1636
G01 X18.1464 Y26.1109
G01 X18.1375 Y26.1025
G01 X18.1291 Y26.0936
G01 X18.0764 Y26.0354
G01 X18.0683 Y26.0261
G01 X18.0608 Y26.0164
G01 X18.0191 Y25.9602
G01 X16.3400 Y25.9602
G01 X16.3277 Y25.9599
G01 X16.2812 Y25.9573
G01 X16.2350 Y25.9507
G01 X16.2169 Y25.9474
G01 X16.1658 Y25.9343
G01 X16.1218 Y25.9189
G01 X16.1047 Y25.9121
G01 X16.0571 Y25.8893
G01 X16.0117 Y25.8624
G01 X15.9965 Y25.8520
G01 X15.9593 Y25.8239
G01 X15.9245 Y25.7928
G01 X15.9156 Y25.7844
G01 X14.5674 Y24.4362
G01 X11.6043 Y24.4362
G01 X11.5941 Y24.4531
G01 X11.5837 Y24.4683
G01 X11.5328 Y24.5368
G01 X11.5253 Y24.5465
G01 X11.5173 Y24.5558
G01 X11.4599 Y24.6191
G01 X11.4515 Y24.6280
G01 X11.4426 Y24.6364
G01 X11.3793 Y24.6938
G01 X11.3700 Y24.7018
G01 X11.3603 Y24.7093
G01 X11.2918 Y24.7602
G01 X11.2817 Y24.7672
G01 X11.2714 Y24.7738
G01 X11.1981 Y24.8177
G01 X11.1875 Y24.8238
G01 X11.1765 Y24.8293
G01 X11.0993 Y24.8658
G01 X11.0881 Y24.8707
G01 X11.0767 Y24.8752
G01 X10.9963 Y24.9039
G01 X10.9787 Y24.9095
G01 X10.8900 Y24.9318
G01 X10.8780 Y24.9345
G01 X10.8659 Y24.9366
G01 X10.7815 Y24.9491
G01 X10.7693 Y24.9506
G01 X10.7570 Y24.9515
G01 X10.6718 Y24.9557
G01 X10.6595 Y24.9560
G01 X10.2095 Y24.9560
G01 X10.1972 Y24.9557
G01 X10.1120 Y24.9515
G01 X10.0997 Y24.9506
G01 X10.0875 Y24.9491
G01 X10.0031 Y24.9366
G01 X9.9910 Y24.9345
G01 X9.9790 Y24.9318
G01 X9.8962 Y24.9110
G01 X9.8844 Y24.9078
G01 X9.8727 Y24.9039
G01 X9.7923 Y24.8752
G01 X9.7809 Y24.8707
G01 X9.7697 Y24.8658
G01 X9.6925 Y24.8293
G01 X9.6815 Y24.8238
G01 X9.6709 Y24.8177
G01 X9.5976 Y24.7738
G01 X9.5873 Y24.7672
G01 X9.5772 Y24.7602
G01 X9.5087 Y24.7093
G01 X9.4990 Y24.7018
G01 X9.4897 Y24.6938
G01 X9.4264 Y24.6364
G01 X9.4175 Y24.6280
G01 X9.4091 Y24.6191
G01 X9.3517 Y24.5558
G01 X9.3437 Y24.5465
G01 X9.3362 Y24.5368
G01 X9.2853 Y24.4683
G01 X9.2783 Y24.4582
G01 X9.2717 Y24.4479
G01 X9.2278 Y24.3746
G01 X9.2217 Y24.3640
G01 X9.2162 Y24.3530
G01 X9.1797 Y24.2758
G01 X9.1748 Y24.2646
G01 X9.1703 Y24.2532
G01 X9.1416 Y24.1728
G01 X9.1377 Y24.1611
G01 X9.1345 Y24.1493
G01 X9.1137 Y24.0665
G01 X9.1110 Y24.0545
G01 X9.1089 Y24.0424
G01 X9.0964 Y23.9580
G01 X9.0949 Y23.9458
G01 X9.0940 Y23.9335
G01 X9.0898 Y23.8483
G01 X9.0895 Y23.8360
G01 X9.0898 Y23.8237
G01 X9.0940 Y23.7385
G01 X9.0949 Y23.7262
G01 X9.0964 Y23.7140
G01 X9.1089 Y23.6296
G01 X9.1110 Y23.6175
G01 X9.1137 Y23.6055
G01 X9.1345 Y23.5227
G01 X9.1377 Y23.5109
G01 X9.1416 Y23.4992
G01 X9.1703 Y23.4188
G01 X9.1748 Y23.4074
G01 X9.1797 Y23.3962
G01 X9.2162 Y23.3190
G01 X9.2217 Y23.3080
G01 X9.2278 Y23.2974
G01 X9.2717 Y23.2241
G01 X9.2783 Y23.2138
G01 X9.2853 Y23.2037
G01 X9.3362 Y23.1352
G01 X9.3437 Y23.1255
G01 X9.3517 Y23.1162
G01 X9.4091 Y23.0529
G01 X9.4175 Y23.0440
G01 X9.4264 Y23.0356
G01 X9.4897 Y22.9782
G01 X9.4990 Y22.9702
G01 X9.5087 Y22.9627
G01 X9.5772 Y22.9118
G01 X9.5873 Y22.9048
G01 X9.5976 Y22.8982
G01 X9.6709 Y22.8543
G01 X9.6815 Y22.8482
G01 X9.6925 Y22.8427
G01 X9.7697 Y22.8062
G01 X9.7809 Y22.8013
G01 X9.7923 Y22.7968
G01 X9.8727 Y22.7681
G01 X9.8844 Y22.7642
G01 X9.8962 Y22.7610
G01 X9.9790 Y22.7402
G01 X9.9910 Y22.7375
G01 X10.0031 Y22.7354
G01 X10.0875 Y22.7229
G01 X10.0997 Y22.7214
G01 X10.1120 Y22.7205
G01 X10.1972 Y22.7163
G01 X10.2095 Y22.7160
G00 Z5.0000
G00 X10.2095 Y25.2560
G01 F120.00
G01 Z-0.1866
G01 F240.00
G01 X10.6595 Y25.2560
G01 X10.6718 Y25.2563
G01 X10.7570 Y25.2605
G01 X10.7693 Y25.2614
G01 X10.7815 Y25.2629
G01 X10.8659 Y25.2754
G01 X10.8780 Y25.2775
G01 X10.8900 Y25.2802
G01 X10.9728 Y25.3010
G01 X10.9846 Y25.3042
G01 X10.9963 Y25.3081
G01 X11.0824 Y25.3390
G01 X11.0993 Y25.3462
G01 X11.1765 Y25.3827
G01 X11.1875 Y25.3882
G01 X11.1981 Y25.3943
G01 X11.2714 Y25.4382
G01 X11.2817 Y25.4448
G01 X11.2918 Y25.4518
G01 X11.3603 Y25.5027
G01 X11.3700 Y25.5102
G01 X11.3793 Y25.5182
G01 X11.4426 Y25.5756
G01 X11.4515 Y25.5840
G01 X11.4599 Y25.5929
G01 X11.5213 Y25.6608
G01 X11.5328 Y25.6752
G01 X11.5873 Y25.7487
G01 X11.5941 Y25.7589
G01 X11.6043 Y25.7758
G01 X13.8061 Y25.7759
G01 X13.8466 Y25.7778
G01 X13.8649 Y25.7794
G01 X13.9111 Y25.7862
G01 X13.9291 Y25.7900
G01 X13.9683 Y25.8000
G01 X13.9859 Y25.8055
G01 X14.0297 Y25.8215
G01 X14.0720 Y25.8412
G01 X14.0829 Y25.8467
G01 X14.0936 Y25.8527
G01 X14.1283 Y25.8736
G01 X14.1435 Y25.8840
G01 X14.1807 Y25.9121
G01 X14.2155 Y25.9432
G01 X14.2244 Y25.9516
G01 X16.5886 Y28.3158
G01 X18.0191 Y28.3158
G01 X18.0608 Y28.2596
G01 X18.0683 Y28.2499
G01 X18.0764 Y28.2406
G01 X18.1291 Y28.1824
G01 X18.1375 Y28.1735
G01 X18.1464 Y28.1651
G01 X18.2046 Y28.1124
G01 X18.2139 Y28.1043
G01 X18.2236 Y28.0968
G01 X18.2866 Y28.0500
G01 X18.2967 Y28.0430
G01 X18.3070 Y28.0364
G01 X18.3744 Y27.9960
G01 X18.3850 Y27.9900
G01 X18.3960 Y27.9845
G01 X18.4670 Y27.9509
G01 X18.4782 Y27.9459
G01 X18.4896 Y27.9415
G01 X18.5635 Y27.9151
G01 X18.5752 Y27.9112
G01 X18.5870 Y27.9079
G01 X18.6632 Y27.8889
G01 X18.6752 Y27.8862
G01 X18.6872 Y27.8841
G01 X18.7649 Y27.8726
G01 X18.7771 Y27.8711
G01 X18.7893 Y27.8702
G01 X18.8677 Y27.8663
G01 X18.8800 Y27.8660
G01 X18.8923 Y27.8663
G01 X18.9707 Y27.8702
G01 X18.9829 Y27.8711
G01 X18.9951 Y27.8726
G01 X19.0728 Y27.8841
G01 X19.0848 Y27.8862
G01 X19.0968 Y27.8889
G01 X19.1730 Y27.9079
G01 X19.1848 Y27.9112
G01 X19.1965 Y27.9151
G01 X19.2704 Y27.9415
G01 X19.2818 Y27.9459
G01 X19.2930 Y27.9509
G01 X19.3640 Y27.9845
G01 X19.3750 Y27.9900
G01 X19.3856 Y27.9960
G01 X19.4530 Y28.0364
G01 X19.4633 Y28.0430
G01 X19.4734 Y28.0500
G01 X19.5364 Y28.0968
G01 X19.5461 Y28.1043
G01 X19.5554 Y28.1124
G01 X19.6136 Y28.1651
G01 X19.6225 Y28.1735
G01 X19.6309 Y28.1824
G01 X19.6836 Y28.2406
G01 X19.6917 Y28.2499
G01 X19.6992 Y28.2596
G01 X19.7460 Y28.3226
G01 X19.7530 Y28.3327
G01 X19.7596 Y28.3430
G01 X19.8000 Y28.4104
G01 X19.8060 Y28.4210
G01 X19.8115 Y28.4320
G01 X19.8451 Y28.5030
G01 X19.8501 Y28.5142
G01 X19.8545 Y28.5256
G01 X19.8809 Y28.5995
G01 X19.8848 Y28.6112
G01 X19.8881 Y28.6230
G01 X19.9071 Y28.6992
G01 X19.9098 Y28.7112
G01 X19.9119 Y28.7232
G01 X19.9234 Y28.8009
G01 X19.9249 Y28.8131
G01 X19.9258 Y28.8253
G01 X19.9297 Y28.9037
G01 X19.9300 Y28.9160
G01 X19.9297 Y28.9283
G01 X19.9258 Y29.0067
G01 X19.9249 Y29.0189
G01 X19.9234 Y29.0311
G01 X19.9119 Y29.1088
G01 X19.9098 Y29.1208
G01 X19.9071 Y29.1328
G01 X19.8881 Y29.2090
G01 X19.8848 Y29.2208
G01 X19.8809 Y29.2325
G01 X19.8545 Y29.3064
G01 X19.8501 Y29.3178
G01 X19.8451 Y29.3290
G01 X19.8115 Y29.4000
G01 X19.8060 Y29.4110
G01 X19.8000 Y29.4216
G01 X19.7596 Y29.4890
G01 X19.7530 Y29.4993
G01 X19.7460 Y29.5094
G01 X19.6992 Y29.5724
G01 X19.6917 Y29.5821
G01 X19.6836 Y29.5914
G01 X19.6309 Y29.6496
G01 X19.6225 Y29.6585
G01 X19.6136 Y29.6669
G01 X19.5554 Y29.7196
G01 X19.5461 Y29.7277
G01 X19.5364 Y29.7352
G01 X19.4734 Y29.7820
G01 X19.4633 Y29.7890
G01 X19.4530 Y29.7956
G01 X19.3856 Y29.8360
G01 X19.3750 Y29.8420
G01 X19.3640 Y29.8475
G01 X19.2930 Y29.8811
G01 X19.2818 Y29.8861
G01 X19.2704 Y29.8905
G01 X19.1965 Y29.9169
G01 X19.1848 Y29.9208
G01 X19.1730 Y29.9241
G01 X19.0968 Y29.9431
G01 X19.0848 Y29.9458
G01 X19.0728 Y29.9479
G01 X18.9951 Y29.9594
G01 X18.9829 Y29.9609
G01 X18.9707 Y29.9618
G01 X18.8923 Y29.9657
G01 X18.8800 Y29.9660
G01 X18.8677 Y29.9657
G01 X18.7893 Y29.9618
G01 X18.7771 Y29.9609
G01 X18.7649 Y29.9594
G01 X18.6872 Y29.9479
G01 X18.6752 Y29.9458
G01 X18.6632 Y29.9431
G01 X18.5870 Y29.9241
G01 X18.5752 Y29.9208
G01 X18.5635 Y29.9169
G01 X18.4896 Y29.8905
G01 X18.4782 Y29.8861
G01 X18.4670 Y29.8811
G01 X18.3905 Y29.8448
G01 X18.3744 Y29.8360
G01 X18.3070 Y29.7956
G01 X18.2967 Y29.7890
G01 X18.2866 Y29.7820
G01 X18.2236 Y29.7352
G01 X18.2139 Y29.7277
G01 X18.2046 Y29.7196
G01 X18.1464 Y29.6669
G01 X18.1375 Y29.6585
G01 X18.1291 Y29.6496
G01 X18.0764 Y29.5914
G01 X18.0683 Y29.5821
G01 X18.0608 Y29.5724
G01 X18.0191 Y29.5162
G01 X16.3339 Y29.5161
G01 X16.2812 Y29.5133
G01 X16.2350 Y29.5067
G01 X16.2229 Y29.5046
G01 X16.1776 Y29.4936
G01 X16.1658 Y29.4903
G01 X16.1160 Y29.4728
G01 X16.0991 Y29.4655
G01 X16.0571 Y29.4453
G01 X16.0464 Y29.4393
G01 X16.0066 Y29.4150
G01 X15.9965 Y29.4080
G01 X15.9593 Y29.3799
G01 X15.9200 Y29.3447
G01 X13.5514 Y26.9762
G01 X11.6043 Y26.9762
G01 X11.5941 Y26.9931
G01 X11.5873 Y27.0033
G01 X11.5291 Y27.0817
G01 X11.5173 Y27.0958
G01 X11.4557 Y27.1636
G01 X11.4426 Y27.1764
G01 X11.3793 Y27.2338
G01 X11.3700 Y27.2418
G01 X11.3603 Y27.2493
G01 X11.2868 Y27.3038
G01 X11.2714 Y27.3138
G01 X11.1981 Y27.3577
G01 X11.1875 Y27.3638
G01 X11.1765 Y27.3693
G01 X11.0993 Y27.4058
G01 X11.0881 Y27.4107
G01 X11.0767 Y27.4152
G01 X10.9963 Y27.4439
G01 X10.9846 Y27.4478
G01 X10.9728 Y27.4510
G01 X10.8900 Y27.4718
G01 X10.8780 Y27.4745
G01 X10.8659 Y27.4766
G01 X10.7815 Y27.4891
G01 X10.7693 Y27.4906
G01 X10.7570 Y27.4915
G01 X10.6656 Y27.4959
G01 X10.2095 Y27.4960
G01 X10.1972 Y27.4957
G01 X10.1120 Y27.4915
G01 X10.0997 Y27.4906
G01 X10.0875 Y27.4891
G01 X10.0031 Y27.4766
G01 X9.9910 Y27.4745
G01 X9.9790 Y27.4718
G01 X9.8962 Y27.4510
G01 X9.8844 Y27.4478
G01 X9.8727 Y27.4439
G01 X9.7923 Y27.4152
G01 X9.7809 Y27.4107
G01 X9.7697 Y27.4058
G01 X9.6925 Y27.3693
G01 X9.6815 Y27.3638
G01 X9.6709 Y27.3577
G01 X9.5976 Y27.3138
G01 X9.5873 Y27.3072
G01 X9.5772 Y27.3002
G01 X9.5087 Y27.2493
G01 X9.4990 Y27.2418
G01 X9.4897 Y27.2338
G01 X9.4264 Y27.1764
G01 X9.4175 Y27.1680
G01 X9.4091 Y27.1591
G01 X9.3517 Y27.0958
G01 X9.3437 Y27.0865
G01 X9.3362 Y27.0768
G01 X9.2853 Y27.0083
G01 X9.2783 Y26.9982
G01 X9.2717 Y26.9879
G01 X9.2278 Y26.9146
G01 X9.2217 Y26.9040
G01 X9.2162 Y26.8930
G01 X9.1797 Y26.8158
G01 X9.1748 Y26.8046
G01 X9.1703 Y26.7932
G01 X9.1416 Y26.7128
G01 X9.1377 Y26.7011
G01 X9.1345 Y26.6893
G01 X9.1137 Y26.6065
G01 X9.1110 Y26.5945
G01 X9.1089 Y26.5824
G01 X9.0964 Y26.4980
G01 X9.0949 Y26.4858
G01 X9.0940 Y26.4735
G01 X9.0898 Y26.3883
G01 X9.0895 Y26.3760
G01 X9.0898 Y26.3637
G01 X9.0940 Y26.2785
G01 X9.0949 Y26.2662
G01 X9.0964 Y26.2540
G01 X9.1089 Y26.1696
G01 X9.1110 Y26.1575
G01 X9.1137 Y26.1455
G01 X9.1345 Y26.0627
G01 X9.1377 Y26.0509
G01 X9.1416 Y26.0392
G01 X9.1703 Y25.9588
G01 X9.1748 Y25.9474
G01 X9.1797 Y25.9362
G01 X9.2162 Y25.8590
G01 X9.2217 Y25.8480
G01 X9.2278 Y25.8374
G01 X9.2717 Y25.7641
G01 X9.2783 Y25.7538
G01 X9.2853 Y25.7437
G01 X9.3362 Y25.6752
G01 X9.3437 Y25.6655
G01 X9.3517 Y25.6562
G01 X9.4091 Y25.5929
G01 X9.4175 Y25.5840
G01 X9.4264 Y25.5756
G01 X9.4897 Y25.5182
G01 X9.4990 Y25.5102
G01 X9.5087 Y25.5027
G01 X9.5772 Y25.4518
G01 X9.5873 Y25.4448
G01 X9.5976 Y25.4382
G01 X9.6709 Y25.3943
G01 X9.6815 Y25.3882
G01 X9.6925 Y25.3827
G01 X9.7697 Y25.3462
G01 X9.7809 Y25.3413
G01 X9.7923 Y25.3368
G01 X9.8727 Y25.3081
G01 X9.8844 Y25.3042
G01 X9.8962 Y25.3010
G01 X9.9790 Y25.2802
G01 X9.9910 Y25.2775
G01 X10.0031 Y25.2754
G01 X10.0875 Y25.2629
G01 X10.0997 Y25.2614
G01 X10.1120 Y25.2605
G01 X10.1972 Y25.2563
G01 X10.2095 Y25.2560
G00 Z5.0000
G00 X8.6301 Y27.6541
G01 F120.00
G01 Z-0.1866
G01 F240.00
G01 X8.6437 Y27.6357
G01 X8.6505 Y27.6255
G01 X8.6632 Y27.6042
G01 X8.6690 Y27.5934
G01 X8.6796 Y27.5710
G01 X8.6843 Y27.5597
G01 X8.6926 Y27.5364
G01 X8.6978 Y27.5187
G01 X8.7022 Y27.5007
G01 X8.7046 Y27.4886
G01 X8.7082 Y27.4642
G01 X8.7098 Y27.4458
G01 X8.7107 Y27.4211
G01 X8.7098 Y27.3964
G01 X8.7082 Y27.3781
G01 X8.7056 Y27.3596
G01 X8.7022 Y27.3415
G01 X8.6945 Y27.3117
G01 X8.6843 Y27.2825
G01 X8.6771 Y27.2656
G01 X8.6662 Y27.2434
G01 X8.5664 Y27.0566
G01 X8.4652 Y26.7230
G01 X8.4310 Y26.3760
G01 X8.4652 Y26.0290
G01 X8.5664 Y25.6954
G01 X8.7307 Y25.3879
G01 X8.7696 Y25.3404
G01 X8.7844 Y25.3205
G01 X8.7912 Y25.3103
G01 X8.8039 Y25.2891
G01 X8.8097 Y25.2783
G01 X8.8177 Y25.2615
G01 X8.8249 Y25.2446
G01 X8.8351 Y25.2155
G01 X8.8414 Y25.1915
G01 X8.8453 Y25.1735
G01 X8.8489 Y25.1491
G01 X8.8505 Y25.1307
G01 X8.8514 Y25.1060
G01 X8.8505 Y25.0813
G01 X8.8489 Y25.0629
G01 X8.8453 Y25.0385
G01 X8.8429 Y25.0264
G01 X8.8368 Y25.0024
G01 X8.8333 Y24.9907
G01 X8.8249 Y24.9674
G01 X8.8203 Y24.9561
G01 X8.8097 Y24.9337
G01 X8.8008 Y24.9176
G01 X8.7912 Y24.9017
G01 X8.7844 Y24.8915
G01 X8.7696 Y24.8716
G01 X8.7307 Y24.8241
G01 X8.5664 Y24.5166
G01 X8.4652 Y24.1830
G01 X8.4310 Y23.8360
G01 X8.4652 Y23.4890
G01 X8.5664 Y23.1554
G01 X8.7307 Y22.8479
G01 X8.7696 Y22.8004
G01 X8.7844 Y22.7805
G01 X8.7912 Y22.7703
G01 X8.8008 Y22.7544
G01 X8.8068 Y22.7437
G01 X8.8124 Y22.7328
G01 X8.8227 Y22.7103
G01 X8.8313 Y22.6871
G01 X8.8368 Y22.6696
G01 X8.8429 Y22.6456
G01 X8.8462 Y22.6275
G01 X8.8496 Y22.6030
G01 X8.8511 Y22.5783
G01 X8.8513 Y22.5599
G01 X8.8501 Y22.5352
G01 X8.8481 Y22.5169
G01 X8.8441 Y22.4924
G01 X8.8384 Y22.4684
G01 X8.8333 Y22.4507
G01 X8.8249 Y22.4274
G01 X8.8203 Y22.4161
G01 X8.8097 Y22.3937
G01 X8.8008 Y22.3776
G01 X8.7912 Y22.3617
G01 X8.7844 Y22.3515
G01 X8.7696 Y22.3316
G01 X8.7307 Y22.2841
G01 X8.5664 Y21.9766
G01 X8.4652 Y21.6430
G01 X8.4310 Y21.2960
G01 X8.4652 Y20.9490
G01 X8.5664 Y20.6154
G01 X8.7307 Y20.3079
G01 X8.7696 Y20.2604
G01 X8.7844 Y20.2405
G01 X8.7912 Y20.2303
G01 X8.8008 Y20.2144
G01 X8.8068 Y20.2037
G01 X8.8124 Y20.1928
G01 X8.8227 Y20.1703
G01 X8.8313 Y20.1471
G01 X8.8368 Y20.1296
G01 X8.8429 Y20.1056
G01 X8.8462 Y20.0875
G01 X8.8496 Y20.0630
G01 X8.8511 Y20.0383
G01 X8.8513 Y20.0199
G01 X8.8501 Y19.9952
G01 X8.8481 Y19.9769
G01 X8.8441 Y19.9524
G01 X8.8384 Y19.9284
G01 X8.8333 Y19.9107
G01 X8.8249 Y19.8874
G01 X8.8203 Y19.8761
G01 X8.8097 Y19.8537
G01 X8.8008 Y19.8376
G01 X8.7912 Y19.8217
G01 X8.7844 Y19.8115
G01 X8.7696 Y19.7916
G01 X8.7307 Y19.7441
G01 X8.5664 Y19.4366
G01 X8.4652 Y19.1030
G01 X8.4310 Y18.7560
G01 X8.4652 Y18.4090
G01 X8.5664 Y18.0754
G01 X8.7307 Y17.7679
G01 X8.7696 Y17.7204
G01 X8.7844 Y17.7005
G01 X8.7912 Y17.6903
G01 X8.8008 Y17.6744
G01 X8.8068 Y17.6637
G01 X8.8124 Y17.6528
G01 X8.8227 Y17.6303
G01 X8.8313 Y17.6071
G01 X8.8368 Y17.5896
G01 X8.8429 Y17.5656
G01 X8.8462 Y17.5475
G01 X8.8496 Y17.5230
G01 X8.8511 Y17.4983
G01 X8.8513 Y17.4799
G01 X8.8501 Y17.4552
G01 X8.8481 Y17.4369
G01 X8.8441 Y17.4124
G01 X8.8384 Y17.3884
G01 X8.8333 Y17.3707
G01 X8.8249 Y17.3474
G01 X8.8203 Y17.3361
G01 X8.8097 Y17.3137
G01 X8.8008 Y17.2976
G01 X8.7912 Y17.2817
G01 X8.7844 Y17.2715
G01 X8.7696 Y17.2516
G01 X8.7307 Y17.2041
G01 X8.5664 Y16.8966
G01 X8.4652 Y16.5630
G01 X8.4310 Y16.2160
G01 X8.4652 Y15.8690
G01 X8.5664 Y15.5354
G01 X8.7307 Y15.2279
G01 X8.7696 Y15.1804
G01 X8.7844 Y15.1605
G01 X8.7912 Y15.1503
G01 X8.8008 Y15.1344
G01 X8.8068 Y15.1237
G01 X8.8124 Y15.1128
G01 X8.8227 Y15.0903
G01 X8.8313 Y15.0671
G01 X8.8368 Y15.0496
G01 X8.8429 Y15.0256
G01 X8.8462 Y15.0075
G01 X8.8496 Y14.9830
G01 X8.8511 Y14.9583
G01 X8.8513 Y14.9399
G01 X8.8501 Y14.9152
G01 X8.8481 Y14.8969
G01 X8.8441 Y14.8724
G01 X8.8384 Y14.8484
G01 X8.8333 Y14.8307
G01 X8.8249 Y14.8074
G01 X8.8203 Y14.7961
G01 X8.8097 Y14.7737
G01 X8.8008 Y14.7576
G01 X8.7912 Y14.7417
G01 X8.7844 Y14.7315
G01 X8.7696 Y14.7116
G01 X8.7307 Y14.6641
G01 X8.5664 Y14.3566
G01 X8.4652 Y14.0230
G01 X8.4310 Y13.6760
G01 X8.4652 Y13.3290
G01 X8.5664 Y12.9954
G01 X8.7307 Y12.6879
G01 X8.7696 Y12.6404
G01 X8.7844 Y12.6205
G01 X8.7912 Y12.6103
G01 X8.8008 Y12.5944
G01 X8.8068 Y12.5837
G01 X8.8124 Y12.5728
G01 X8.8227 Y12.5503
G01 X8.8313 Y12.5271
G01 X8.8368 Y12.5096
G01 X8.8429 Y12.4856
G01 X8.8462 Y12.4675
G01 X8.8496 Y12.4430
G01 X8.8505 Y12.4307
G01 X8.8514 Y12.4060
G01 X8.8505 Y12.3813
G01 X8.8496 Y12.3690
G01 X8.8462 Y12.3445
G01 X8.8429 Y12.3264
G01 X8.8368 Y12.3024
G01 X8.8313 Y12.2849
G01 X8.8227 Y12.2617
G01 X8.8124 Y12.2392
G01 X8.8068 Y12.2283
G01 X8.8008 Y12.2176
G01 X8.7912 Y12.2017
G01 X8.7844 Y12.1915
G01 X8.7696 Y12.1716
G01 X8.7307 Y12.1241
G01 X8.5664 Y11.8166
G01 X8.4652 Y11.4830
G01 X8.4310 Y11.1360
G01 X8.4652 Y10.7890
G01 X8.5664 Y10.4554
G01 X8.7307 Y10.1479
G01 X8.9519 Y9.8784
G01 X9.2214 Y9.6572
G01 X9.5289 Y9.4929
G01 X9.8625 Y9.3917
G01 X10.1226 Y9.3661
G01 X10.2867 Y9.3660
G01 X10.3175 Y9.3642
G01 X10.3481 Y9.3599
G01 X10.3661 Y9.3561
G01 X10.3900 Y9.3498
G01 X10.4192 Y9.3396
G01 X10.4361 Y9.3324
G01 X10.4583 Y9.3215
G01 X10.4849 Y9.3059
G01 X10.5001 Y9.2955
G01 X10.5198 Y9.2805
G01 X10.5383 Y9.2641
G01 X10.5472 Y9.2556
G01 X13.0501 Y6.7527
G01 X13.0710 Y6.7300
G01 X13.1024 Y6.6919
G01 X13.2927 Y6.5357
G01 X13.5099 Y6.4196
G01 X13.7455 Y6.3481
G01 X13.9905 Y6.3240
G01 X14.0396 Y6.3288
G01 X14.0704 Y6.3301
G01 X17.5765 Y6.3301
G01 X17.6012 Y6.3292
G01 X17.6134 Y6.3282
G01 X17.6256 Y6.3267
G01 X17.6500 Y6.3228
G01 X17.6741 Y6.3171
G01 X17.6859 Y6.3138
G01 X17.6976 Y6.3100
G01 X17.7208 Y6.3014
G01 X17.7488 Y6.2884
G01 X17.7649 Y6.2795
G01 X17.7860 Y6.2665
G01 X18.0748 Y6.0735
G01 X18.3841 Y5.9454
G01 X18.7126 Y5.8801
G01 X19.0474 Y5.8801
G01 X19.3759 Y5.9454
G01 X19.6852 Y6.0735
G01 X19.9636 Y6.2596
G01 X20.2004 Y6.4964
G01 X20.3865 Y6.7748
G01 X20.5146 Y7.0841
G01 X20.5799 Y7.4126
G01 X20.5799 Y7.7474
G01 X20.5146 Y8.0759
G01 X20.3865 Y8.3852
G01 X20.2004 Y8.6636
G01 X19.9636 Y8.9004
G01 X19.7481 Y9.0445
G01 X19.7380 Y9.0515
G01 X19.7183 Y9.0665
G01 X19.6953 Y9.0871
G01 X19.6825 Y9.1003
G01 X19.6661 Y9.1188
G01 X19.6585 Y9.1285
G01 X19.6440 Y9.1485
G01 X19.6280 Y9.1749
G01 X19.6222 Y9.1857
G01 X19.6141 Y9.2025
G01 X19.6092 Y9.2137
G01 X19.6048 Y9.2252
G01 X19.5986 Y9.2427
G01 X19.5950 Y9.2544
G01 X19.5890 Y9.2784
G01 X19.5866 Y9.2905
G01 X19.5823 Y9.3210
G01 X19.5814 Y9.3333
G01 X19.5805 Y9.3580
G01 X19.5814 Y9.3827
G01 X19.5823 Y9.3950
G01 X19.5866 Y9.4255
G01 X19.5890 Y9.4376
G01 X19.5950 Y9.4616
G01 X19.5986 Y9.4733
G01 X19.6048 Y9.4908
G01 X19.6092 Y9.5023
G01 X19.6141 Y9.5135
G01 X19.6222 Y9.5303
G01 X19.6280 Y9.5411
G01 X19.6440 Y9.5675
G01 X19.6585 Y9.5875
G01 X19.6661 Y9.5972
G01 X19.6825 Y9.6157
G01 X19.6953 Y9.6289
G01 X19.7183 Y9.6495
G01 X19.7380 Y9.6645
G01 X19.7481 Y9.6715
G01 X19.9636 Y9.8156
G01 X20.2004 Y10.0524
G01 X20.3865 Y10.3308
G01 X20.5146 Y10.6401
G01 X20.5799 Y10.9686
G01 X20.5799 Y11.3034
G01 X20.5146 Y11.6319
G01 X20.3865 Y11.9412
G01 X20.2004 Y12.2196
G01 X19.9636 Y12.4564
G01 X19.7481 Y12.6005
G01 X19.7380 Y12.6075
G01 X19.7183 Y12.6225
G01 X19.6953 Y12.6431
G01 X19.6825 Y12.6563
G01 X19.6661 Y12.6748
G01 X19.6585 Y12.6845
G01 X19.6440 Y12.7045
G01 X19.6280 Y12.7309
G01 X19.6222 Y12.7417
G01 X19.6141 Y12.7585
G01 X19.6092 Y12.7697
G01 X19.6048 Y12.7812
G01 X19.5986 Y12.7987
G01 X19.5950 Y12.8104
G01 X19.5890 Y12.8344
G01 X19.5866 Y12.8465
G01 X19.5823 Y12.8770
G01 X19.5814 Y12.8893
G01 X19.5805 Y12.9140
G01 X19.5814 Y12.9387
G01 X19.5823 Y12.9510
G01 X19.5866 Y12.9815
G01 X19.5890 Y12.9936
G01 X19.5950 Y13.0176
G01 X19.5986 Y13.0293
G01 X19.6048 Y13.0468
G01 X19.6092 Y13.0583
G01 X19.6141 Y13.0695
G01 X19.6222 Y13.0863
G01 X19.6280 Y13.0971
G01 X19.6440 Y13.1235
G01 X19.6585 Y13.1435
G01 X19.6661 Y13.1532
G01 X19.6825 Y13.1717
G01 X19.6953 Y13.1849
G01 X19.7183 Y13.2055
G01 X19.7380 Y13.2205
G01 X19.7481 Y13.2275
G01 X19.9636 Y13.3716
G01 X20.2004 Y13.6084
G01 X20.3865 Y13.8868
G01 X20.5146 Y14.1961
G01 X20.5799 Y14.5246
G01 X20.5799 Y14.8594
G01 X20.5146 Y15.1879
G01 X20.3865 Y15.4972
G01 X20.2004 Y15.7756
G01 X19.9636 Y16.0124
G01 X19.7481 Y16.1565
G01 X19.7380 Y16.1635
G01 X19.7183 Y16.1785
G01 X19.6953 Y16.1991
G01 X19.6825 Y16.2123
G01 X19.6661 Y16.2308
G01 X19.6585 Y16.2405
G01 X19.6440 Y16.2605
G01 X19.6280 Y16.2869
G01 X19.6222 Y16.2977
G01 X19.6141 Y16.3145
G01 X19.6092 Y16.3257
G01 X19.6048 Y16.3372
G01 X19.5986 Y16.3547
G01 X19.5950 Y16.3664
G01 X19.5890 Y16.3904
G01 X19.5866 Y16.4025
G01 X19.5823 Y16.4330
G01 X19.5814 Y16.4453
G01 X19.5805 Y16.4700
G01 X19.5814 Y16.4947
G01 X19.5823 Y16.5070
G01 X19.5866 Y16.5375
G01 X19.5890 Y16.5496
G01 X19.5950 Y16.5736
G01 X19.5986 Y16.5853
G01 X19.6048 Y16.6028
G01 X19.6092 Y16.6143
G01 X19.6141 Y16.6255
G01 X19.6222 Y16.6423
G01 X19.6280 Y16.6531
G01 X19.6440 Y16.6795
G01 X19.6585 Y16.6995
G01 X19.6661 Y16.7092
G01 X19.6825 Y16.7277
G01 X19.6953 Y16.7409
G01 X19.7183 Y16.7615
G01 X19.7380 Y16.7765
G01 X19.7481 Y16.7835
G01 X19.9636 Y16.9276
G01 X20.2004 Y17.1644
G01 X20.3865 Y17.4428
G01 X20.5146 Y17.7521
G01 X20.5799 Y18.0806
G01 X20.5799 Y18.4154
G01 X20.5146 Y18.7439
G01 X20.3865 Y19.0532
G01 X20.2004 Y19.3316
G01 X19.9636 Y19.5684
G01 X19.7481 Y19.7125
G01 X19.7380 Y19.7195
G01 X19.7183 Y19.7345
G01 X19.6953 Y19.7551
G01 X19.6825 Y19.7683
G01 X19.6661 Y19.7868
G01 X19.6585 Y19.7965
G01 X19.6440 Y19.8165
G01 X19.6280 Y19.8429
G01 X19.6222 Y19.8537
G01 X19.6141 Y19.8705
G01 X19.6092 Y19.8817
G01 X19.6048 Y19.8932
G01 X19.5986 Y19.9107
G01 X19.5950 Y19.9224
G01 X19.5877 Y19.9524
G01 X19.5838 Y19.9769
G01 X19.5823 Y19.9890
G01 X19.5805 Y20.0199
G01 X19.5805 Y20.0321
G01 X19.5818 Y20.0568
G01 X19.5830 Y20.0691
G01 X19.5856 Y20.0875
G01 X19.5890 Y20.1056
G01 X19.5934 Y20.1236
G01 X19.5967 Y20.1355
G01 X19.6006 Y20.1471
G01 X19.6069 Y20.1646
G01 X19.6116 Y20.1759
G01 X19.6222 Y20.1983
G01 X19.6280 Y20.2091
G01 X19.6440 Y20.2355
G01 X19.6585 Y20.2555
G01 X19.6661 Y20.2652
G01 X19.6825 Y20.2837
G01 X19.6953 Y20.2969
G01 X19.7183 Y20.3175
G01 X19.7380 Y20.3325
G01 X19.7481 Y20.3395
G01 X19.9636 Y20.4836
G01 X20.2004 Y20.7204
G01 X20.3865 Y20.9988
G01 X20.5146 Y21.3081
G01 X20.5799 Y21.6366
G01 X20.5799 Y21.9714
G01 X20.5146 Y22.2999
G01 X20.3865 Y22.6092
G01 X20.2004 Y22.8876
G01 X19.9636 Y23.1244
G01 X19.7481 Y23.2685
G01 X19.7380 Y23.2755
G01 X19.7183 Y23.2905
G01 X19.6953 Y23.3111
G01 X19.6825 Y23.3243
G01 X19.6661 Y23.3428
G01 X19.6585 Y23.3525
G01 X19.6440 Y23.3725
G01 X19.6280 Y23.3989
G01 X19.6222 Y23.4097
G01 X19.6141 Y23.4265
G01 X19.6092 Y23.4377
G01 X19.6048 Y23.4492
G01 X19.5986 Y23.4667
G01 X19.5950 Y23.4784
G01 X19.5877 Y23.5084
G01 X19.5838 Y23.5329
G01 X19.5823 Y23.5450
G01 X19.5805 Y23.5759
G01 X19.5805 Y23.5881
G01 X19.5818 Y23.6128
G01 X19.5830 Y23.6251
G01 X19.5856 Y23.6435
G01 X19.5890 Y23.6616
G01 X19.5934 Y23.6796
G01 X19.5967 Y23.6915
G01 X19.6006 Y23.7031
G01 X19.6069 Y23.7206
G01 X19.6116 Y23.7319
G01 X19.6222 Y23.7543
G01 X19.6280 Y23.7651
G01 X19.6440 Y23.7915
G01 X19.6585 Y23.8115
G01 X19.6661 Y23.8212
G01 X19.6825 Y23.8397
G01 X19.6953 Y23.8529
G01 X19.7183 Y23.8735
G01 X19.7380 Y23.8885
G01 X19.7481 Y23.8955
G01 X19.9636 Y24.0396
G01 X20.2004 Y24.2764
G01 X20.3865 Y24.5548
G01 X20.5146 Y24.8641
G01 X20.5799 Y25.1926
G01 X20.5799 Y25.5274
G01 X20.5146 Y25.8559
G01 X20.3865 Y26.1652
G01 X20.2004 Y26.4436
G01 X19.9636 Y26.6804
G01 X19.7481 Y26.8245
G01 X19.7380 Y26.8315
G01 X19.7183 Y26.8465
G01 X19.6953 Y26.8671
G01 X19.6825 Y26.8803
G01 X19.6661 Y26.8988
G01 X19.6585 Y26.9085
G01 X19.6440 Y26.9285
G01 X19.6280 Y26.9549
G01 X19.6222 Y26.9657
G01 X19.6141 Y26.9825
G01 X19.6092 Y26.9937
G01 X19.6048 Y27.0052
G01 X19.5986 Y27.0227
G01 X19.5950 Y27.0344
G01 X19.5877 Y27.0644
G01 X19.5838 Y27.0889
G01 X19.5823 Y27.1010
G01 X19.5805 Y27.1319
G01 X19.5805 Y27.1441
G01 X19.5818 Y27.1688
G01 X19.5830 Y27.1811
G01 X19.5856 Y27.1995
G01 X19.5890 Y27.2176
G01 X19.5934 Y27.2356
G01 X19.5967 Y27.2475
G01 X19.6006 Y27.2591
G01 X19.6069 Y27.2766
G01 X19.6116 Y27.2879
G01 X19.6222 Y27.3103
G01 X19.6280 Y27.3211
G01 X19.6440 Y27.3475
G01 X19.6585 Y27.3675
G01 X19.6661 Y27.3772
G01 X19.6825 Y27.3957
G01 X19.6953 Y27.4089
G01 X19.7183 Y27.4295
G01 X19.7380 Y27.4445
G01 X19.7481 Y27.4515
G01 X19.9636 Y27.5956
G01 X20.2004 Y27.8324
G01 X20.3865 Y28.1108
G01 X20.5146 Y28.4201
G01 X20.5799 Y28.7486
G01 X20.5799 Y29.0834
G01 X20.5146 Y29.4119
G01 X20.3865 Y29.7212
G01 X20.2004 Y29.9996
G01 X19.9636 Y30.2364
G01 X19.7481 Y30.3805
G01 X19.7380 Y30.3875
G01 X19.7183 Y30.4025
G01 X19.6953 Y30.4231
G01 X19.6825 Y30.4363
G01 X19.6661 Y30.4548
G01 X19.6475 Y30.4795
G01 X19.6407 Y30.4897
G01 X19.6310 Y30.5056
G01 X19.6250 Y30.5163
G01 X19.6195 Y30.5272
G01 X19.6116 Y30.5441
G01 X19.6069 Y30.5554
G01 X19.5967 Y30.5845
G01 X19.5934 Y30.5964
G01 X19.5877 Y30.6204
G01 X19.5830 Y30.6509
G01 X19.5818 Y30.6632
G01 X19.5808 Y30.6817
G01 X19.5805 Y30.7001
G01 X19.5814 Y30.7187
G01 X19.5823 Y30.7310
G01 X19.5838 Y30.7431
G01 X19.5866 Y30.7615
G01 X19.5890 Y30.7736
G01 X19.5950 Y30.7976
G01 X19.6006 Y30.8151
G01 X19.6069 Y30.8326
G01 X19.6116 Y30.8439
G01 X19.6222 Y30.8663
G01 X19.6280 Y30.8771
G01 X19.6407 Y30.8983
G01 X19.6475 Y30.9085
G01 X19.6622 Y30.9284
G01 X19.6700 Y30.9379
G01 X19.6866 Y30.9562
G01 X19.6998 Y30.9691
G01 X19.7183 Y30.9855
G01 X19.7380 Y31.0005
G01 X19.7481 Y31.0075
G01 X19.9636 Y31.1516
G01 X20.2004 Y31.3884
G01 X20.3865 Y31.6668
G01 X20.5146 Y31.9761
G01 X20.5799 Y32.3046
G01 X20.5799 Y32.6394
G01 X20.5146 Y32.9679
G01 X20.3865 Y33.2772
G01 X20.2004 Y33.5556
G01 X19.9636 Y33.7924
G01 X19.6852 Y33.9785
G01 X19.3759 Y34.1066
G01 X19.0474 Y34.1719
G01 X18.7126 Y34.1719
G01 X18.3841 Y34.1066
G01 X18.0748 Y33.9785
G01 X17.7860 Y33.7855
G01 X17.7649 Y33.7725
G01 X17.7488 Y33.7636
G01 X17.7208 Y33.7506
G01 X17.6976 Y33.7420
G01 X17.6859 Y33.7382
G01 X17.6741 Y33.7349
G01 X17.6500 Y33.7292
G01 X17.6256 Y33.7253
G01 X17.6134 Y33.7238
G01 X17.6012 Y33.7228
G01 X17.5765 Y33.7219
G01 X14.0704 Y33.7219
G01 X14.0396 Y33.7232
G01 X13.9905 Y33.7280
G01 X13.7455 Y33.7039
G01 X13.5099 Y33.6324
G01 X13.2927 Y33.5163
G01 X13.1024 Y33.3601
G01 X13.0710 Y33.3220
G01 X13.0501 Y33.2993
G01 X10.5534 Y30.8026
G01 X10.5445 Y30.7941
G01 X10.5260 Y30.7777
G01 X10.5013 Y30.7591
G01 X10.4859 Y30.7491
G01 X10.4645 Y30.7366
G01 X10.4423 Y30.7258
G01 X10.4254 Y30.7185
G01 X10.4021 Y30.7102
G01 X10.3844 Y30.7051
G01 X10.3603 Y30.6994
G01 X10.3298 Y30.6946
G01 X10.3115 Y30.6930
G01 X10.2868 Y30.6921
G01 X9.6080 Y30.6921
G01 X9.3643 Y30.6681
G01 X9.1478 Y30.6024
G01 X8.9482 Y30.4958
G01 X8.7733 Y30.3522
G01 X8.6297 Y30.1773
G01 X8.5231 Y29.9777
G01 X8.4574 Y29.7612
G01 X8.4334 Y29.5175
G01 X8.4334 Y28.3145
G01 X8.4574 Y28.0708
G01 X8.5231 Y27.8543
G01 X8.6301 Y27.6541
G00 Z5.0000
G00 X9.5772 Y30.0357
G01 F120.00
G01 Z-0.1866
G01 F240.00
G01 X9.5405 Y30.0336
G01 X9.5283 Y30.0321
G01 X9.4920 Y30.0264
G01 X9.4562 Y30.0177
G01 X9.4444 Y30.0145
G01 X9.4039 Y30.0002
G01 X9.3925 Y29.9955
G01 X9.3592 Y29.9798
G01 X9.3484 Y29.9740
G01 X9.3221 Y29.9583
G01 X9.3117 Y29.9517
G01 X9.3017 Y29.9447
G01 X9.2771 Y29.9263
G01 X9.2676 Y29.9186
G01 X9.2359 Y29.8896
G01 X9.2275 Y29.8807
G01 X9.2030 Y29.8532
G01 X9.1808 Y29.8238
G01 X9.1738 Y29.8138
G01 X9.1546 Y29.7824
G01 X9.1457 Y29.7663
G01 X9.1325 Y29.7386
G01 X9.1276 Y29.7273
G01 X9.1231 Y29.7159
G01 X9.1129 Y29.6870
G01 X9.1093 Y29.6752
G01 X9.1018 Y29.6455
G01 X9.0980 Y29.6275
G01 X9.0919 Y29.5850
G01 X9.0910 Y29.5728
G01 X9.0895 Y29.5360
G01 X9.0895 Y28.2960
G01 X9.0914 Y28.2531
G01 X9.0926 Y28.2409
G01 X9.0970 Y28.2105
G01 X9.0991 Y28.1985
G01 X9.1018 Y28.1865
G01 X9.1110 Y28.1509
G01 X9.1231 Y28.1161
G01 X9.1276 Y28.1047
G01 X9.1325 Y28.0934
G01 X9.1485 Y28.0603
G01 X9.1672 Y28.0286
G01 X9.1772 Y28.0132
G01 X9.2030 Y27.9788
G01 X9.2275 Y27.9513
G01 X9.2359 Y27.9424
G01 X9.2448 Y27.9340
G01 X9.2723 Y27.9095
G01 X9.3017 Y27.8873
G01 X9.3117 Y27.8803
G01 X9.3221 Y27.8737
G01 X9.3538 Y27.8550
G01 X9.3869 Y27.8390
G01 X9.3982 Y27.8341
G01 X9.4096 Y27.8296
G01 X9.4444 Y27.8175
G01 X9.4562 Y27.8143
G01 X9.4920 Y27.8056
G01 X9.5283 Y27.7999
G01 X9.5466 Y27.7979
G01 X9.5895 Y27.7960
G01 X11.2795 Y27.7960
G01 X11.3224 Y27.7979
G01 X11.3407 Y27.7999
G01 X11.3770 Y27.8056
G01 X11.4187 Y27.8158
G01 X11.4305 Y27.8194
G01 X11.4594 Y27.8296
G01 X11.4765 Y27.8365
G01 X11.5152 Y27.8550
G01 X11.5469 Y27.8737
G01 X11.5623 Y27.8837
G01 X11.5967 Y27.9095
G01 X11.6242 Y27.9340
G01 X11.6373 Y27.9468
G01 X11.6660 Y27.9788
G01 X11.6882 Y28.0082
G01 X11.6986 Y28.0234
G01 X11.7205 Y28.0603
G01 X11.7390 Y28.0990
G01 X11.7459 Y28.1161
G01 X11.7580 Y28.1509
G01 X11.7686 Y28.1925
G01 X11.7720 Y28.2105
G01 X11.7771 Y28.2470
G01 X11.7780 Y28.2592
G01 X11.7795 Y28.2960
G01 X11.7795 Y29.4122
G01 X14.2391 Y31.8718
G01 X18.0191 Y31.8718
G01 X18.0608 Y31.8156
G01 X18.0683 Y31.8059
G01 X18.0764 Y31.7966
G01 X18.1291 Y31.7384
G01 X18.1375 Y31.7295
G01 X18.1464 Y31.7211
G01 X18.2046 Y31.6684
G01 X18.2139 Y31.6603
G01 X18.2236 Y31.6528
G01 X18.2866 Y31.6060
G01 X18.2967 Y31.5990
G01 X18.3070 Y31.5924
G01 X18.3744 Y31.5520
G01 X18.3850 Y31.5460
G01 X18.3960 Y31.5405
G01 X18.4670 Y31.5069
G01 X18.4782 Y31.5019
G01 X18.4896 Y31.4975
G01 X18.5635 Y31.4711
G01 X18.5752 Y31.4672
G01 X18.5870 Y31.4639
G01 X18.6632 Y31.4449
G01 X18.6752 Y31.4422
G01 X18.6872 Y31.4401
G01 X18.7649 Y31.4286
G01 X18.7771 Y31.4271
G01 X18.7893 Y31.4262
G01 X18.8677 Y31.4223
G01 X18.8800 Y31.4220
G01 X18.8923 Y31.4223
G01 X18.9707 Y31.4262
G01 X18.9829 Y31.4271
G01 X18.9951 Y31.4286
G01 X19.0728 Y31.4401
G01 X19.0848 Y31.4422
G01 X19.0968 Y31.4449
G01 X19.1730 Y31.4639
G01 X19.1848 Y31.4672
G01 X19.1965 Y31.4711
G01 X19.2704 Y31.4975
G01 X19.2818 Y31.5019
G01 X19.2930 Y31.5069
G01 X19.3640 Y31.5405
G01 X19.3750 Y31.5460
G01 X19.3856 Y31.5520
G01 X19.4530 Y31.5924
G01 X19.4633 Y31.5990
G01 X19.4734 Y31.6060
G01 X19.5364 Y31.6528
G01 X19.5461 Y31.6603
G01 X19.5554 Y31.6684
G01 X19.6136 Y31.7211
G01 X19.6225 Y31.7295
G01 X19.6309 Y31.7384
G01 X19.6836 Y31.7966
G01 X19.6917 Y31.8059
G01 X19.6992 Y31.8156
G01 X19.7460 Y31.8786
G01 X19.7530 Y31.8887
G01 X19.7596 Y31.8990
G01 X19.8000 Y31.9664
G01 X19.8060 Y31.9770
G01 X19.8115 Y31.9880
G01 X19.8451 Y32.0590
G01 X19.8501 Y32.0702
G01 X19.8545 Y32.0816
G01 X19.8809 Y32.1555
G01 X19.8848 Y32.1672
G01 X19.8881 Y32.1790
G01 X19.9071 Y32.2552
G01 X19.9098 Y32.2672
G01 X19.9119 Y32.2792
G01 X19.9234 Y32.3569
G01 X19.9249 Y32.3691
G01 X19.9258 Y32.3813
G01 X19.9297 Y32.4597
G01 X19.9300 Y32.4720
G01 X19.9297 Y32.4843
G01 X19.9258 Y32.5627
G01 X19.9249 Y32.5749
G01 X19.9234 Y32.5871
G01 X19.9119 Y32.6648
G01 X19.9098 Y32.6768
G01 X19.9071 Y32.6888
G01 X19.8865 Y32.7709
G01 X19.8809 Y32.7885
G01 X19.8545 Y32.8624
G01 X19.8501 Y32.8738
G01 X19.8451 Y32.8850
G01 X19.8115 Y32.9560
G01 X19.8060 Y32.9670
G01 X19.8000 Y32.9776
G01 X19.7596 Y33.0450
G01 X19.7530 Y33.0553
G01 X19.7460 Y33.0654
G01 X19.6992 Y33.1284
G01 X19.6917 Y33.1381
G01 X19.6836 Y33.1474
G01 X19.6309 Y33.2056
G01 X19.6225 Y33.2145
G01 X19.6136 Y33.2229
G01 X19.5554 Y33.2756
G01 X19.5461 Y33.2837
G01 X19.5364 Y33.2912
G01 X19.4734 Y33.3380
G01 X19.4633 Y33.3450
G01 X19.4530 Y33.3516
G01 X19.3856 Y33.3920
G01 X19.3750 Y33.3980
G01 X19.3640 Y33.4035
G01 X19.2930 Y33.4371
G01 X19.2818 Y33.4421
G01 X19.2704 Y33.4465
G01 X19.1965 Y33.4729
G01 X19.1848 Y33.4768
G01 X19.1730 Y33.4801
G01 X19.0968 Y33.4991
G01 X19.0848 Y33.5018
G01 X19.0728 Y33.5039
G01 X18.9951 Y33.5154
G01 X18.9829 Y33.5169
G01 X18.9707 Y33.5178
G01 X18.8923 Y33.5217
G01 X18.8800 Y33.5220
G01 X18.8677 Y33.5217
G01 X18.7893 Y33.5178
G01 X18.7771 Y33.5169
G01 X18.7649 Y33.5154
G01 X18.6872 Y33.5039
G01 X18.6752 Y33.5018
G01 X18.6632 Y33.4991
G01 X18.5870 Y33.4801
G01 X18.5752 Y33.4768
G01 X18.5635 Y33.4729
G01 X18.4896 Y33.4465
G01 X18.4782 Y33.4421
G01 X18.4670 Y33.4371
G01 X18.3905 Y33.4008
G01 X18.3744 Y33.3920
G01 X18.3070 Y33.3516
G01 X18.2967 Y33.3450
G01 X18.2866 Y33.3380
G01 X18.2236 Y33.2912
G01 X18.2139 Y33.2837
G01 X18.2046 Y33.2756
G01 X18.1464 Y33.2229
G01 X18.1375 Y33.2145
G01 X18.1291 Y33.2056
G01 X18.0764 Y33.1474
G01 X18.0683 Y33.1381
G01 X18.0608 Y33.1284
G01 X18.0191 Y33.0722
G01 X13.9905 Y33.0722
G01 X13.9378 Y33.0698
G01 X13.9195 Y33.0678
G01 X13.8734 Y33.0606
G01 X13.8222 Y33.0480
G01 X13.8046 Y33.0425
G01 X13.7608 Y33.0265
G01 X13.7130 Y33.0041
G01 X13.6969 Y32.9953
G01 X13.6571 Y32.9710
G01 X13.6194 Y32.9435
G01 X13.6051 Y32.9320
G01 X13.5705 Y32.9007
G01 X10.7057 Y30.0360
G01 X9.5895 Y30.0360
G01 X9.5772 Y30.0357
G00 Z5.0000
G00 X18.0270 Y30.3913
G01 F120.00
G01 Z-0.1866
G01 F240.00
G01 X18.0373 Y30.3990
G01 X18.0476 Y30.4076
G01 X18.0647 Y30.4231
G01 X18.0734 Y30.4318
G01 X18.0939 Y30.4548
G01 X18.1126 Y30.4795
G01 X18.1195 Y30.4899
G01 X18.1319 Y30.5106
G01 X18.1374 Y30.5209
G01 X18.1459 Y30.5385
G01 X18.1509 Y30.5498
G01 X18.1552 Y30.5612
G01 X18.1614 Y30.5787
G01 X18.1650 Y30.5904
G01 X18.1723 Y30.6204
G01 X18.1744 Y30.6325
G01 X18.1777 Y30.6570
G01 X18.1786 Y30.6693
G01 X18.1795 Y30.6940
G01 X18.1782 Y30.7248
G01 X18.1770 Y30.7371
G01 X18.1734 Y30.7613
G01 X18.1711 Y30.7730
G01 X18.1666 Y30.7916
G01 X18.1634 Y30.8031
G01 X18.1597 Y30.8145
G01 X18.1531 Y30.8326
G01 X18.1484 Y30.8440
G01 X18.1347 Y30.8723
G01 X18.1225 Y30.8931
G01 X18.1130 Y30.9079
G01 X18.0974 Y30.9289
G01 X18.0859 Y30.9425
G01 X18.0691 Y30.9606
G01 X18.0464 Y30.9815
G01 X18.0320 Y30.9930
G01 X18.0119 Y31.0075
G01 X17.7860 Y31.1585
G01 X17.7649 Y31.1715
G01 X17.7542 Y31.1775
G01 X17.7433 Y31.1831
G01 X17.7264 Y31.1909
G01 X17.7151 Y31.1956
G01 X17.6859 Y31.2058
G01 X17.6560 Y31.2135
G01 X17.6379 Y31.2169
G01 X17.6134 Y31.2202
G01 X17.6012 Y31.2212
G01 X17.5765 Y31.2221
G01 X14.6644 Y31.2221
G01 X14.6397 Y31.2212
G01 X14.6275 Y31.2202
G01 X14.6153 Y31.2187
G01 X14.5909 Y31.2148
G01 X14.5668 Y31.2091
G01 X14.5550 Y31.2058
G01 X14.5316 Y31.1978
G01 X14.5145 Y31.1909
G01 X14.4867 Y31.1775
G01 X14.4653 Y31.1651
G01 X14.4549 Y31.1585
G01 X14.4449 Y31.1515
G01 X14.4252 Y31.1365
G01 X14.4067 Y31.1201
G01 X14.3978 Y31.1116
G01 X12.5461 Y29.2599
G01 X12.5376 Y29.2510
G01 X12.5212 Y29.2325
G01 X12.5062 Y29.2128
G01 X12.4958 Y29.1976
G01 X12.4801 Y29.1710
G01 X12.4693 Y29.1488
G01 X12.4620 Y29.1319
G01 X12.4519 Y29.1027
G01 X12.4455 Y29.0788
G01 X12.4417 Y29.0608
G01 X12.4374 Y29.0302
G01 X12.4359 Y29.0055
G01 X12.4356 Y28.9933
G01 X12.4356 Y28.3145
G01 X12.4086 Y28.0400
G01 X12.4077 Y28.0277
G01 X12.4068 Y28.0030
G01 X12.4077 Y27.9783
G01 X12.4086 Y27.9660
G01 X12.4101 Y27.9539
G01 X12.4140 Y27.9294
G01 X12.4197 Y27.9054
G01 X12.4230 Y27.8935
G01 X12.4310 Y27.8702
G01 X12.4379 Y27.8531
G01 X12.4485 Y27.8307
G01 X12.4573 Y27.8146
G01 X12.4703 Y27.7935
G01 X12.4848 Y27.7735
G01 X12.4963 Y27.7591
G01 X12.5129 Y27.7408
G01 X12.5261 Y27.7279
G01 X12.5446 Y27.7115
G01 X12.5643 Y27.6965
G01 X12.5795 Y27.6861
G01 X12.6061 Y27.6705
G01 X12.6283 Y27.6596
G01 X12.6452 Y27.6524
G01 X12.6685 Y27.6440
G01 X12.6862 Y27.6389
G01 X12.7103 Y27.6332
G01 X12.7347 Y27.6293
G01 X12.7469 Y27.6278
G01 X12.7777 Y27.6260
G01 X13.1261 Y27.6259
G01 X13.1569 Y27.6272
G01 X13.1752 Y27.6293
G01 X13.1996 Y27.6332
G01 X13.2237 Y27.6389
G01 X13.2414 Y27.6440
G01 X13.2647 Y27.6524
G01 X13.2816 Y27.6596
G01 X13.3038 Y27.6705
G01 X13.3304 Y27.6861
G01 X13.3456 Y27.6965
G01 X13.3653 Y27.7115
G01 X13.3838 Y27.7279
G01 X13.3927 Y27.7364
G01 X15.3996 Y29.7433
G01 X15.4205 Y29.7660
G01 X15.4519 Y29.8041
G01 X15.6422 Y29.9603
G01 X15.8594 Y30.0764
G01 X16.0950 Y30.1479
G01 X16.3400 Y30.1720
G01 X16.3891 Y30.1672
G01 X16.4199 Y30.1659
G01 X17.5765 Y30.1659
G01 X17.6073 Y30.1672
G01 X17.6256 Y30.1693
G01 X17.6440 Y30.1721
G01 X17.6560 Y30.1745
G01 X17.6800 Y30.1805
G01 X17.6918 Y30.1840
G01 X17.7151 Y30.1924
G01 X17.7264 Y30.1971
G01 X17.7488 Y30.2076
G01 X17.7596 Y30.2134
G01 X17.7860 Y30.2295
G01 X18.0119 Y30.3805
G01 X18.0270 Y30.3913
G00 Z5.0000
G00 X18.0270 Y26.8353
G01 F120.00
G01 Z-0.1866
G01 F240.00
G01 X18.0373 Y26.8430
G01 X18.0476 Y26.8516
G01 X18.0647 Y26.8671
G01 X18.0734 Y26.8758
G01 X18.0900 Y26.8941
G01 X18.0978 Y26.9036
G01 X18.1126 Y26.9235
G01 X18.1195 Y26.9339
G01 X18.1347 Y26.9597
G01 X18.1405 Y26.9712
G01 X18.1509 Y26.9938
G01 X18.1594 Y27.0169
G01 X18.1633 Y27.0285
G01 X18.1710 Y27.0584
G01 X18.1734 Y27.0705
G01 X18.1762 Y27.0889
G01 X18.1777 Y27.1010
G01 X18.1786 Y27.1133
G01 X18.1795 Y27.1319
G01 X18.1795 Y27.1441
G01 X18.1782 Y27.1688
G01 X18.1770 Y27.1811
G01 X18.1724 Y27.2112
G01 X18.1696 Y27.2235
G01 X18.1634 Y27.2471
G01 X18.1594 Y27.2591
G01 X18.1508 Y27.2823
G01 X18.1374 Y27.3111
G01 X18.1319 Y27.3214
G01 X18.1225 Y27.3371
G01 X18.1130 Y27.3519
G01 X18.0974 Y27.3729
G01 X18.0859 Y27.3865
G01 X18.0691 Y27.4046
G01 X18.0464 Y27.4255
G01 X18.0320 Y27.4370
G01 X18.0119 Y27.4515
G01 X17.7860 Y27.6025
G01 X17.7756 Y27.6091
G01 X17.7542 Y27.6215
G01 X17.7320 Y27.6324
G01 X17.7208 Y27.6374
G01 X17.7093 Y27.6418
G01 X17.6859 Y27.6498
G01 X17.6741 Y27.6531
G01 X17.6500 Y27.6588
G01 X17.6195 Y27.6636
G01 X17.6012 Y27.6652
G01 X17.5765 Y27.6661
G01 X17.0139 Y27.6661
G01 X16.9892 Y27.6652
G01 X16.9709 Y27.6636
G01 X16.9464 Y27.6599
G01 X16.9344 Y27.6575
G01 X16.9104 Y27.6515
G01 X16.8986 Y27.6480
G01 X16.8753 Y27.6396
G01 X16.8640 Y27.6349
G01 X16.8416 Y27.6244
G01 X16.8308 Y27.6186
G01 X16.8148 Y27.6091
G01 X16.7994 Y27.5990
G01 X16.7747 Y27.5805
G01 X16.7517 Y27.5599
G01 X16.4453 Y27.2536
G01 X16.4244 Y27.2309
G01 X16.4166 Y27.2214
G01 X16.4055 Y27.2065
G01 X16.3951 Y27.1913
G01 X16.3794 Y27.1647
G01 X16.3660 Y27.1369
G01 X16.3591 Y27.1198
G01 X16.3530 Y27.1023
G01 X16.3494 Y27.0906
G01 X16.3421 Y27.0606
G01 X16.3374 Y27.0301
G01 X16.3362 Y27.0178
G01 X16.3349 Y26.9931
G01 X16.3349 Y26.9809
G01 X16.3362 Y26.9562
G01 X16.3374 Y26.9439
G01 X16.3410 Y26.9195
G01 X16.3434 Y26.9074
G01 X16.3494 Y26.8834
G01 X16.3530 Y26.8717
G01 X16.3613 Y26.8484
G01 X16.3660 Y26.8371
G01 X16.3766 Y26.8147
G01 X16.3823 Y26.8039
G01 X16.3951 Y26.7827
G01 X16.4019 Y26.7725
G01 X16.4166 Y26.7526
G01 X16.4244 Y26.7431
G01 X16.4410 Y26.7248
G01 X16.4497 Y26.7161
G01 X16.4680 Y26.6995
G01 X16.4775 Y26.6917
G01 X16.4974 Y26.6770
G01 X16.5076 Y26.6701
G01 X16.5288 Y26.6574
G01 X16.5396 Y26.6516
G01 X16.5620 Y26.6411
G01 X16.5733 Y26.6364
G01 X16.5966 Y26.6280
G01 X16.6084 Y26.6245
G01 X16.6324 Y26.6185
G01 X16.6444 Y26.6161
G01 X16.6689 Y26.6124
G01 X16.6872 Y26.6108
G01 X16.7119 Y26.6099
G01 X17.5765 Y26.6099
G01 X17.6012 Y26.6108
G01 X17.6134 Y26.6118
G01 X17.6440 Y26.6161
G01 X17.6560 Y26.6185
G01 X17.6800 Y26.6245
G01 X17.6918 Y26.6280
G01 X17.7093 Y26.6342
G01 X17.7208 Y26.6386
G01 X17.7320 Y26.6436
G01 X17.7488 Y26.6516
G01 X17.7596 Y26.6574
G01 X17.7860 Y26.6735
G01 X18.0119 Y26.8245
G01 X18.0270 Y26.8353
G00 Z5.0000
G00 X18.0270 Y23.2793
G01 F120.00
G01 Z-0.1866
G01 F240.00
G01 X18.0373 Y23.2870
G01 X18.0476 Y23.2956
G01 X18.0647 Y23.3111
G01 X18.0734 Y23.3198
G01 X18.0900 Y23.3381
G01 X18.0978 Y23.3476
G01 X18.1126 Y23.3675
G01 X18.1195 Y23.3779
G01 X18.1347 Y23.4037
G01 X18.1405 Y23.4152
G01 X18.1509 Y23.4378
G01 X18.1594 Y23.4609
G01 X18.1633 Y23.4725
G01 X18.1710 Y23.5024
G01 X18.1734 Y23.5145
G01 X18.1762 Y23.5329
G01 X18.1777 Y23.5450
G01 X18.1786 Y23.5573
G01 X18.1795 Y23.5759
G01 X18.1795 Y23.5881
G01 X18.1782 Y23.6128
G01 X18.1770 Y23.6251
G01 X18.1724 Y23.6552
G01 X18.1696 Y23.6675
G01 X18.1634 Y23.6911
G01 X18.1594 Y23.7031
G01 X18.1508 Y23.7263
G01 X18.1374 Y23.7551
G01 X18.1319 Y23.7654
G01 X18.1225 Y23.7811
G01 X18.1130 Y23.7959
G01 X18.0974 Y23.8169
G01 X18.0859 Y23.8305
G01 X18.0691 Y23.8486
G01 X18.0464 Y23.8695
G01 X18.0320 Y23.8810
G01 X18.0119 Y23.8955
G01 X17.7860 Y24.0465
G01 X17.7756 Y24.0531
G01 X17.7542 Y24.0655
G01 X17.7320 Y24.0764
G01 X17.7208 Y24.0814
G01 X17.7093 Y24.0858
G01 X17.6859 Y24.0938
G01 X17.6741 Y24.0971
G01 X17.6500 Y24.1028
G01 X17.6195 Y24.1076
G01 X17.6012 Y24.1092
G01 X17.5765 Y24.1101
G01 X17.0139 Y24.1101
G01 X16.9892 Y24.1092
G01 X16.9709 Y24.1076
G01 X16.9464 Y24.1039
G01 X16.9344 Y24.1015
G01 X16.9104 Y24.0955
G01 X16.8986 Y24.0920
G01 X16.8753 Y24.0836
G01 X16.8640 Y24.0789
G01 X16.8416 Y24.0684
G01 X16.8308 Y24.0626
G01 X16.8148 Y24.0531
G01 X16.7994 Y24.0430
G01 X16.7747 Y24.0245
G01 X16.7517 Y24.0039
G01 X16.4453 Y23.6976
G01 X16.4244 Y23.6749
G01 X16.4166 Y23.6654
G01 X16.4055 Y23.6505
G01 X16.3951 Y23.6353
G01 X16.3794 Y23.6087
G01 X16.3660 Y23.5809
G01 X16.3591 Y23.5638
G01 X16.3530 Y23.5463
G01 X16.3494 Y23.5346
G01 X16.3421 Y23.5046
G01 X16.3374 Y23.4741
G01 X16.3362 Y23.4618
G01 X16.3349 Y23.4371
G01 X16.3349 Y23.4249
G01 X16.3362 Y23.4002
G01 X16.3374 Y23.3879
G01 X16.3410 Y23.3635
G01 X16.3434 Y23.3514
G01 X16.3494 Y23.3274
G01 X16.3530 Y23.3157
G01 X16.3613 Y23.2924
G01 X16.3660 Y23.2811
G01 X16.3766 Y23.2587
G01 X16.3823 Y23.2479
G01 X16.3951 Y23.2267
G01 X16.4019 Y23.2165
G01 X16.4166 Y23.1966
G01 X16.4244 Y23.1871
G01 X16.4410 Y23.1688
G01 X16.4497 Y23.1601
G01 X16.4680 Y23.1435
G01 X16.4775 Y23.1357
G01 X16.4974 Y23.1210
G01 X16.5076 Y23.1141
G01 X16.5288 Y23.1014
G01 X16.5396 Y23.0956
G01 X16.5620 Y23.0851
G01 X16.5733 Y23.0804
G01 X16.5966 Y23.0720
G01 X16.6084 Y23.0685
G01 X16.6324 Y23.0625
G01 X16.6444 Y23.0601
G01 X16.6689 Y23.0564
G01 X16.6872 Y23.0548
G01 X16.7119 Y23.0539
G01 X17.5765 Y23.0539
G01 X17.6012 Y23.0548
G01 X17.6134 Y23.0558
G01 X17.6440 Y23.0601
G01 X17.6560 Y23.0625
G01 X17.6800 Y23.0685
G01 X17.6918 Y23.0720
G01 X17.7093 Y23.0782
G01 X17.7208 Y23.0826
G01 X17.7320 Y23.0876
G01 X17.7488 Y23.0956
G01 X17.7596 Y23.1014
G01 X17.7860 Y23.1175
G01 X18.0119 Y23.2685
G01 X18.0270 Y23.2793
G00 Z5.0000
G00 X18.0270 Y19.7233
G01 F120.00
G01 Z-0.1866
G01 F240.00
G01 X18.0373 Y19.7310
G01 X18.0476 Y19.7396
G01 X18.0647 Y19.7551
G01 X18.0734 Y19.7638
G01 X18.0939 Y19.7868
G01 X18.1126 Y19.8115
G01 X18.1195 Y19.8219
G01 X18.1319 Y19.8426
G01 X18.1374 Y19.8529
G01 X18.1459 Y19.8705
G01 X18.1509 Y19.8818
G01 X18.1552 Y19.8932
G01 X18.1614 Y19.9107
G01 X18.1650 Y19.9224
G01 X18.1723 Y19.9524
G01 X18.1744 Y19.9645
G01 X18.1777 Y19.9890
G01 X18.1786 Y20.0013
G01 X18.1795 Y20.0260
G01 X18.1782 Y20.0568
G01 X18.1770 Y20.0691
G01 X18.1734 Y20.0933
G01 X18.1711 Y20.1050
G01 X18.1666 Y20.1236
G01 X18.1634 Y20.1351
G01 X18.1597 Y20.1465
G01 X18.1531 Y20.1646
G01 X18.1484 Y20.1760
G01 X18.1347 Y20.2043
G01 X18.1225 Y20.2251
G01 X18.1130 Y20.2399
G01 X18.0974 Y20.2609
G01 X18.0859 Y20.2745
G01 X18.0691 Y20.2926
G01 X18.0510 Y20.3095
G01 X18.0369 Y20.3213
G01 X18.0119 Y20.3395
G01 X17.7860 Y20.4905
G01 X17.7756 Y20.4971
G01 X17.7542 Y20.5095
G01 X17.7264 Y20.5229
G01 X17.7151 Y20.5276
G01 X17.6976 Y20.5340
G01 X17.6859 Y20.5378
G01 X17.6741 Y20.5411
G01 X17.6500 Y20.5468
G01 X17.6256 Y20.5507
G01 X17.6073 Y20.5528
G01 X17.5826 Y20.5540
G01 X17.0184 Y20.5541
G01 X16.9937 Y20.5532
G01 X16.9815 Y20.5522
G01 X16.9509 Y20.5479
G01 X16.9389 Y20.5455
G01 X16.9208 Y20.5411
G01 X16.9090 Y20.5378
G01 X16.8973 Y20.5340
G01 X16.8798 Y20.5276
G01 X16.8685 Y20.5229
G01 X16.8407 Y20.5095
G01 X16.8300 Y20.5035
G01 X16.8089 Y20.4905
G01 X16.7840 Y20.4723
G01 X16.7699 Y20.4605
G01 X16.7518 Y20.4436
G01 X16.7350 Y20.4255
G01 X16.7201 Y20.4079
G01 X16.6099 Y20.3175
G01 X16.5914 Y20.3011
G01 X16.5825 Y20.2926
G01 X16.5616 Y20.2699
G01 X16.5501 Y20.2555
G01 X16.5356 Y20.2355
G01 X16.5196 Y20.2091
G01 X16.5111 Y20.1928
G01 X16.5008 Y20.1703
G01 X16.4902 Y20.1413
G01 X16.4851 Y20.1236
G01 X16.4793 Y20.0996
G01 X16.4754 Y20.0751
G01 X16.4734 Y20.0568
G01 X16.4724 Y20.0383
G01 X16.4722 Y20.0199
G01 X16.4734 Y19.9952
G01 X16.4746 Y19.9829
G01 X16.4782 Y19.9585
G01 X16.4820 Y19.9405
G01 X16.4883 Y19.9165
G01 X16.4964 Y19.8932
G01 X16.5008 Y19.8817
G01 X16.5058 Y19.8705
G01 X16.5166 Y19.8483
G01 X16.5291 Y19.8269
G01 X16.5391 Y19.8115
G01 X16.5538 Y19.7916
G01 X16.5616 Y19.7821
G01 X16.5782 Y19.7638
G01 X16.5869 Y19.7551
G01 X16.6099 Y19.7345
G01 X16.7201 Y19.6441
G01 X16.7350 Y19.6265
G01 X16.7518 Y19.6084
G01 X16.7699 Y19.5915
G01 X16.7840 Y19.5797
G01 X16.8039 Y19.5650
G01 X16.8141 Y19.5581
G01 X16.8353 Y19.5454
G01 X16.8461 Y19.5396
G01 X16.8685 Y19.5291
G01 X16.8798 Y19.5244
G01 X16.9031 Y19.5160
G01 X16.9208 Y19.5109
G01 X16.9449 Y19.5052
G01 X16.9754 Y19.5004
G01 X16.9937 Y19.4988
G01 X17.0184 Y19.4979
G01 X17.5765 Y19.4979
G01 X17.6012 Y19.4988
G01 X17.6134 Y19.4998
G01 X17.6256 Y19.5013
G01 X17.6500 Y19.5052
G01 X17.6800 Y19.5125
G01 X17.6918 Y19.5160
G01 X17.7093 Y19.5222
G01 X17.7208 Y19.5266
G01 X17.7320 Y19.5316
G01 X17.7488 Y19.5396
G01 X17.7596 Y19.5454
G01 X17.7860 Y19.5615
G01 X18.0119 Y19.7125
G01 X18.0270 Y19.7233
G00 Z5.0000
G00 X18.0270 Y16.1673
G01 F120.00
G01 Z-0.1866
G01 F240.00
G01 X18.0373 Y16.1750
G01 X18.0476 Y16.1836
G01 X18.0647 Y16.1991
G01 X18.0734 Y16.2078
G01 X18.0939 Y16.2308
G01 X18.1126 Y16.2555
G01 X18.1195 Y16.2659
G01 X18.1319 Y16.2866
G01 X18.1374 Y16.2969
G01 X18.1459 Y16.3145
G01 X18.1509 Y16.3258
G01 X18.1552 Y16.3372
G01 X18.1614 Y16.3547
G01 X18.1650 Y16.3664
G01 X18.1723 Y16.3964
G01 X18.1744 Y16.4085
G01 X18.1777 Y16.4330
G01 X18.1795 Y16.4639
G01 X18.1795 Y16.4761
G01 X18.1786 Y16.4947
G01 X18.1777 Y16.5070
G01 X18.1762 Y16.5191
G01 X18.1734 Y16.5373
G01 X18.1711 Y16.5490
G01 X18.1634 Y16.5791
G01 X18.1594 Y16.5911
G01 X18.1508 Y16.6143
G01 X18.1405 Y16.6368
G01 X18.1319 Y16.6534
G01 X18.1163 Y16.6790
G01 X18.1015 Y16.6995
G01 X18.0889 Y16.7152
G01 X18.0691 Y16.7366
G01 X18.0510 Y16.7535
G01 X18.0369 Y16.7653
G01 X18.0119 Y16.7835
G01 X17.7808 Y16.9379
G01 X17.7542 Y16.9535
G01 X17.7320 Y16.9644
G01 X17.7151 Y16.9716
G01 X17.6918 Y16.9800
G01 X17.6800 Y16.9835
G01 X17.6620 Y16.9881
G01 X17.6500 Y16.9908
G01 X17.6379 Y16.9929
G01 X17.6195 Y16.9956
G01 X17.6073 Y16.9968
G01 X17.5765 Y16.9981
G01 X16.7119 Y16.9981
G01 X16.6872 Y16.9972
G01 X16.6750 Y16.9962
G01 X16.6444 Y16.9919
G01 X16.6264 Y16.9881
G01 X16.6025 Y16.9818
G01 X16.5733 Y16.9716
G01 X16.5564 Y16.9644
G01 X16.5342 Y16.9535
G01 X16.5076 Y16.9379
G01 X16.4924 Y16.9275
G01 X16.4775 Y16.9163
G01 X16.4680 Y16.9085
G01 X16.4453 Y16.8876
G01 X16.4285 Y16.8695
G01 X16.4166 Y16.8554
G01 X16.3984 Y16.8305
G01 X16.3823 Y16.8041
G01 X16.3739 Y16.7878
G01 X16.3636 Y16.7653
G01 X16.3530 Y16.7363
G01 X16.3478 Y16.7186
G01 X16.3421 Y16.6946
G01 X16.3382 Y16.6701
G01 X16.3367 Y16.6580
G01 X16.3352 Y16.6333
G01 X16.3349 Y16.6149
G01 X16.3362 Y16.5902
G01 X16.3382 Y16.5719
G01 X16.3421 Y16.5474
G01 X16.3478 Y16.5234
G01 X16.3530 Y16.5057
G01 X16.3613 Y16.4824
G01 X16.3685 Y16.4655
G01 X16.3794 Y16.4433
G01 X16.3918 Y16.4219
G01 X16.4019 Y16.4065
G01 X16.4205 Y16.3818
G01 X16.4368 Y16.3633
G01 X16.4453 Y16.3544
G01 X16.7473 Y16.0524
G01 X16.7654 Y16.0355
G01 X16.7795 Y16.0237
G01 X16.7994 Y16.0090
G01 X16.8096 Y16.0021
G01 X16.8308 Y15.9894
G01 X16.8416 Y15.9836
G01 X16.8640 Y15.9731
G01 X16.8753 Y15.9684
G01 X16.8986 Y15.9600
G01 X16.9163 Y15.9549
G01 X16.9344 Y15.9505
G01 X16.9464 Y15.9481
G01 X16.9770 Y15.9438
G01 X17.0078 Y15.9420
G01 X17.5765 Y15.9419
G01 X17.6012 Y15.9428
G01 X17.6134 Y15.9438
G01 X17.6440 Y15.9481
G01 X17.6560 Y15.9505
G01 X17.6800 Y15.9565
G01 X17.6918 Y15.9600
G01 X17.7093 Y15.9662
G01 X17.7208 Y15.9706
G01 X17.7320 Y15.9756
G01 X17.7488 Y15.9836
G01 X17.7596 Y15.9894
G01 X17.7860 Y16.0055
G01 X18.0119 Y16.1565
G01 X18.0270 Y16.1673
G00 Z5.0000
G00 X18.0270 Y12.6113
G01 F120.00
G01 Z-0.1866
G01 F240.00
G01 X18.0373 Y12.6190
G01 X18.0476 Y12.6276
G01 X18.0647 Y12.6431
G01 X18.0734 Y12.6518
G01 X18.0939 Y12.6748
G01 X18.1126 Y12.6995
G01 X18.1195 Y12.7099
G01 X18.1319 Y12.7306
G01 X18.1374 Y12.7409
G01 X18.1459 Y12.7585
G01 X18.1509 Y12.7698
G01 X18.1552 Y12.7812
G01 X18.1614 Y12.7987
G01 X18.1650 Y12.8104
G01 X18.1723 Y12.8404
G01 X18.1744 Y12.8525
G01 X18.1777 Y12.8770
G01 X18.1795 Y12.9079
G01 X18.1795 Y12.9201
G01 X18.1786 Y12.9387
G01 X18.1777 Y12.9510
G01 X18.1762 Y12.9631
G01 X18.1734 Y12.9813
G01 X18.1711 Y12.9930
G01 X18.1634 Y13.0231
G01 X18.1594 Y13.0351
G01 X18.1508 Y13.0583
G01 X18.1405 Y13.0808
G01 X18.1319 Y13.0974
G01 X18.1163 Y13.1230
G01 X18.1015 Y13.1435
G01 X18.0889 Y13.1592
G01 X18.0691 Y13.1806
G01 X18.0510 Y13.1975
G01 X18.0369 Y13.2093
G01 X18.0119 Y13.2275
G01 X17.7808 Y13.3819
G01 X17.7542 Y13.3975
G01 X17.7320 Y13.4084
G01 X17.7151 Y13.4156
G01 X17.6918 Y13.4240
G01 X17.6800 Y13.4275
G01 X17.6620 Y13.4321
G01 X17.6500 Y13.4348
G01 X17.6379 Y13.4369
G01 X17.6195 Y13.4396
G01 X17.6073 Y13.4408
G01 X17.5765 Y13.4421
G01 X16.7119 Y13.4421
G01 X16.6872 Y13.4412
G01 X16.6750 Y13.4402
G01 X16.6444 Y13.4359
G01 X16.6264 Y13.4321
G01 X16.6025 Y13.4258
G01 X16.5733 Y13.4156
G01 X16.5564 Y13.4084
G01 X16.5342 Y13.3975
G01 X16.5076 Y13.3819
G01 X16.4924 Y13.3715
G01 X16.4775 Y13.3603
G01 X16.4680 Y13.3525
G01 X16.4453 Y13.3316
G01 X16.4285 Y13.3135
G01 X16.4166 Y13.2994
G01 X16.3984 Y13.2745
G01 X16.3823 Y13.2481
G01 X16.3739 Y13.2318
G01 X16.3636 Y13.2093
G01 X16.3530 Y13.1803
G01 X16.3478 Y13.1626
G01 X16.3421 Y13.1386
G01 X16.3382 Y13.1141
G01 X16.3367 Y13.1020
G01 X16.3352 Y13.0773
G01 X16.3349 Y13.0589
G01 X16.3362 Y13.0342
G01 X16.3382 Y13.0159
G01 X16.3421 Y12.9914
G01 X16.3478 Y12.9674
G01 X16.3530 Y12.9497
G01 X16.3613 Y12.9264
G01 X16.3685 Y12.9095
G01 X16.3794 Y12.8873
G01 X16.3918 Y12.8659
G01 X16.4019 Y12.8505
G01 X16.4205 Y12.8258
G01 X16.4368 Y12.8073
G01 X16.4453 Y12.7984
G01 X16.7473 Y12.4964
G01 X16.7654 Y12.4795
G01 X16.7795 Y12.4677
G01 X16.7994 Y12.4530
G01 X16.8096 Y12.4461
G01 X16.8308 Y12.4334
G01 X16.8416 Y12.4276
G01 X16.8640 Y12.4171
G01 X16.8753 Y12.4124
G01 X16.8986 Y12.4040
G01 X16.9163 Y12.3989
G01 X16.9344 Y12.3945
G01 X16.9464 Y12.3921
G01 X16.9770 Y12.3878
G01 X17.0078 Y12.3860
G01 X17.5765 Y12.3859
G01 X17.6012 Y12.3868
G01 X17.6134 Y12.3878
G01 X17.6440 Y12.3921
G01 X17.6560 Y12.3945
G01 X17.6800 Y12.4005
G01 X17.6918 Y12.4040
G01 X17.7093 Y12.4102
G01 X17.7208 Y12.4146
G01 X17.7320 Y12.4196
G01 X17.7488 Y12.4276
G01 X17.7596 Y12.4334
G01 X17.7860 Y12.4495
G01 X18.0119 Y12.6005
G01 X18.0270 Y12.6113
G00 Z5.0000
G00 X15.4192 Y10.2875
G01 F120.00
G01 Z-0.1866
G01 F240.00
G01 X15.3996 Y10.3087
G01 X13.3927 Y12.3156
G01 X13.3838 Y12.3241
G01 X13.3653 Y12.3405
G01 X13.3456 Y12.3555
G01 X13.3304 Y12.3659
G01 X13.3038 Y12.3815
G01 X13.2816 Y12.3924
G01 X13.2647 Y12.3996
G01 X13.2414 Y12.4080
G01 X13.2237 Y12.4131
G01 X13.1996 Y12.4188
G01 X13.1752 Y12.4227
G01 X13.1569 Y12.4248
G01 X13.1261 Y12.4261
G01 X12.6059 Y12.4261
G01 X12.5812 Y12.4252
G01 X12.5690 Y12.4242
G01 X12.5568 Y12.4227
G01 X12.5324 Y12.4188
G01 X12.5083 Y12.4131
G01 X12.4906 Y12.4080
G01 X12.4674 Y12.3996
G01 X12.4504 Y12.3924
G01 X12.4282 Y12.3815
G01 X12.4068 Y12.3691
G01 X12.3914 Y12.3590
G01 X12.3715 Y12.3443
G01 X12.3575 Y12.3325
G01 X12.3393 Y12.3156
G01 X12.3225 Y12.2975
G01 X12.3145 Y12.2882
G01 X12.2995 Y12.2685
G01 X12.2891 Y12.2533
G01 X12.2734 Y12.2267
G01 X12.2679 Y12.2158
G01 X12.2576 Y12.1933
G01 X12.2532 Y12.1818
G01 X12.2451 Y12.1585
G01 X12.2374 Y12.1286
G01 X12.2350 Y12.1165
G01 X12.2314 Y12.0921
G01 X12.2302 Y12.0798
G01 X12.2292 Y12.0613
G01 X12.2290 Y12.0429
G01 X12.2298 Y12.0243
G01 X12.2307 Y12.0120
G01 X12.2322 Y11.9999
G01 X12.2361 Y11.9754
G01 X12.2418 Y11.9514
G01 X12.2470 Y11.9337
G01 X12.2553 Y11.9104
G01 X12.2600 Y11.8991
G01 X12.2706 Y11.8767
G01 X12.3026 Y11.8166
G01 X12.4038 Y11.4830
G01 X12.4380 Y11.1360
G01 X12.4338 Y11.0927
G01 X12.4326 Y11.0680
G01 X12.4326 Y11.0557
G01 X12.4334 Y11.0371
G01 X12.4343 Y11.0249
G01 X12.4358 Y11.0127
G01 X12.4398 Y10.9883
G01 X12.4455 Y10.9642
G01 X12.4506 Y10.9465
G01 X12.4589 Y10.9232
G01 X12.4662 Y10.9063
G01 X12.4770 Y10.8841
G01 X12.4895 Y10.8627
G01 X12.4961 Y10.8524
G01 X12.5031 Y10.8423
G01 X12.5181 Y10.8226
G01 X12.5345 Y10.8041
G01 X12.5430 Y10.7952
G01 X14.3978 Y8.9404
G01 X14.4205 Y8.9195
G01 X14.4300 Y8.9117
G01 X14.4449 Y8.9005
G01 X14.4549 Y8.8935
G01 X14.4653 Y8.8869
G01 X14.4813 Y8.8774
G01 X14.4921 Y8.8716
G01 X14.5145 Y8.8611
G01 X14.5258 Y8.8564
G01 X14.5491 Y8.8480
G01 X14.5668 Y8.8429
G01 X14.5909 Y8.8372
G01 X14.6153 Y8.8333
G01 X14.6336 Y8.8312
G01 X14.6583 Y8.8300
G01 X17.5765 Y8.8299
G01 X17.6012 Y8.8308
G01 X17.6134 Y8.8318
G01 X17.6256 Y8.8333
G01 X17.6500 Y8.8372
G01 X17.6741 Y8.8429
G01 X17.6859 Y8.8462
G01 X17.7093 Y8.8542
G01 X17.7208 Y8.8586
G01 X17.7320 Y8.8636
G01 X17.7542 Y8.8745
G01 X17.7756 Y8.8869
G01 X17.7860 Y8.8935
G01 X18.0170 Y9.0480
G01 X18.0417 Y9.0665
G01 X18.0647 Y9.0871
G01 X18.0775 Y9.1003
G01 X18.0900 Y9.1141
G01 X18.0978 Y9.1236
G01 X18.1160 Y9.1485
G01 X18.1320 Y9.1749
G01 X18.1405 Y9.1912
G01 X18.1484 Y9.2081
G01 X18.1531 Y9.2194
G01 X18.1614 Y9.2427
G01 X18.1666 Y9.2604
G01 X18.1723 Y9.2844
G01 X18.1762 Y9.3089
G01 X18.1782 Y9.3272
G01 X18.1795 Y9.3519
G01 X18.1792 Y9.3703
G01 X18.1777 Y9.3950
G01 X18.1744 Y9.4195
G01 X18.1710 Y9.4376
G01 X18.1633 Y9.4675
G01 X18.1552 Y9.4908
G01 X18.1484 Y9.5079
G01 X18.1378 Y9.5303
G01 X18.1290 Y9.5464
G01 X18.1160 Y9.5675
G01 X18.1015 Y9.5875
G01 X18.0939 Y9.5972
G01 X18.0734 Y9.6202
G01 X18.0647 Y9.6289
G01 X18.0464 Y9.6455
G01 X18.0369 Y9.6533
G01 X18.0220 Y9.6645
G01 X18.0119 Y9.6715
G01 X17.7808 Y9.8259
G01 X17.7596 Y9.8386
G01 X17.7488 Y9.8444
G01 X17.7264 Y9.8549
G01 X17.7151 Y9.8596
G01 X17.6859 Y9.8698
G01 X17.6741 Y9.8731
G01 X17.6500 Y9.8788
G01 X17.6256 Y9.8827
G01 X17.6134 Y9.8842
G01 X17.5826 Y9.8860
G01 X16.4199 Y9.8861
G01 X16.3891 Y9.8848
G01 X16.3400 Y9.8800
G01 X16.0950 Y9.9041
G01 X15.8594 Y9.9756
G01 X15.6422 Y10.0917
G01 X15.4519 Y10.2479
G01 X15.4192 Y10.2875
G00 Z5.0000
G00 X29.0872 Y12.1840
G01 F120.00
G01 Z-0.1866
G01 F240.00
G01 X29.0461 Y12.1859
G01 X29.0339 Y12.1859
G01 X28.9432 Y12.1815
G01 X28.9249 Y12.1794
G01 X28.8412 Y12.1669
G01 X28.8232 Y12.1631
G01 X28.7470 Y12.1441
G01 X28.7352 Y12.1408
G01 X28.7235 Y12.1369
G01 X28.6439 Y12.1084
G01 X28.6270 Y12.1011
G01 X28.5560 Y12.0675
G01 X28.5450 Y12.0620
G01 X28.5344 Y12.0560
G01 X28.4670 Y12.0156
G01 X28.4567 Y12.0090
G01 X28.4466 Y12.0020
G01 X28.3836 Y11.9552
G01 X28.3739 Y11.9477
G01 X28.3646 Y11.9396
G01 X28.3019 Y11.8827
G01 X28.2891 Y11.8696
G01 X28.2364 Y11.8114
G01 X28.2283 Y11.8021
G01 X28.2208 Y11.7924
G01 X28.1740 Y11.7294
G01 X28.1670 Y11.7193
G01 X28.1604 Y11.7090
G01 X28.1200 Y11.6416
G01 X28.1140 Y11.6310
G01 X28.1085 Y11.6200
G01 X28.0749 Y11.5490
G01 X28.0699 Y11.5378
G01 X28.0655 Y11.5264
G01 X28.0391 Y11.4525
G01 X28.0352 Y11.4408
G01 X28.0319 Y11.4290
G01 X28.0129 Y11.3528
G01 X28.0102 Y11.3408
G01 X28.0081 Y11.3288
G01 X27.9966 Y11.2511
G01 X27.9951 Y11.2389
G01 X27.9942 Y11.2267
G01 X27.9901 Y11.1421
G01 X27.9903 Y11.1237
G01 X27.9942 Y11.0453
G01 X27.9951 Y11.0331
G01 X27.9966 Y11.0209
G01 X28.0081 Y10.9432
G01 X28.0102 Y10.9312
G01 X28.0129 Y10.9192
G01 X28.0319 Y10.8430
G01 X28.0352 Y10.8312
G01 X28.0391 Y10.8195
G01 X28.0655 Y10.7456
G01 X28.0699 Y10.7342
G01 X28.0749 Y10.7230
G01 X28.1085 Y10.6520
G01 X28.1140 Y10.6410
G01 X28.1200 Y10.6304
G01 X28.1604 Y10.5630
G01 X28.1670 Y10.5527
G01 X28.1740 Y10.5426
G01 X28.2208 Y10.4796
G01 X28.2283 Y10.4699
G01 X28.2364 Y10.4606
G01 X28.2891 Y10.4024
G01 X28.2975 Y10.3935
G01 X28.3064 Y10.3851
G01 X28.3646 Y10.3324
G01 X28.3739 Y10.3243
G01 X28.3836 Y10.3168
G01 X28.4466 Y10.2700
G01 X28.4567 Y10.2630
G01 X28.4670 Y10.2564
G01 X28.5344 Y10.2160
G01 X28.5450 Y10.2100
G01 X28.5560 Y10.2045
G01 X28.6270 Y10.1709
G01 X28.6382 Y10.1659
G01 X28.6496 Y10.1615
G01 X28.7235 Y10.1351
G01 X28.7352 Y10.1312
G01 X28.7470 Y10.1279
G01 X28.8232 Y10.1089
G01 X28.8352 Y10.1062
G01 X28.8472 Y10.1041
G01 X28.9249 Y10.0926
G01 X28.9371 Y10.0911
G01 X28.9493 Y10.0902
G01 X29.0339 Y10.0861
G01 X29.0523 Y10.0863
G01 X29.1307 Y10.0902
G01 X29.1429 Y10.0911
G01 X29.1551 Y10.0926
G01 X29.2328 Y10.1041
G01 X29.2448 Y10.1062
G01 X29.2568 Y10.1089
G01 X29.3330 Y10.1279
G01 X29.3448 Y10.1312
G01 X29.3565 Y10.1351
G01 X29.4304 Y10.1615
G01 X29.4418 Y10.1659
G01 X29.4530 Y10.1709
G01 X29.5240 Y10.2045
G01 X29.5350 Y10.2100
G01 X29.5456 Y10.2160
G01 X29.6130 Y10.2564
G01 X29.6233 Y10.2630
G01 X29.6334 Y10.2700
G01 X29.6964 Y10.3168
G01 X29.7061 Y10.3243
G01 X29.7154 Y10.3324
G01 X29.7736 Y10.3851
G01 X29.7867 Y10.3979
G01 X29.8436 Y10.4606
G01 X29.8517 Y10.4699
G01 X29.8592 Y10.4796
G01 X29.9060 Y10.5426
G01 X29.9130 Y10.5527
G01 X29.9196 Y10.5630
G01 X29.9600 Y10.6304
G01 X29.9660 Y10.6410
G01 X29.9715 Y10.6520
G01 X30.0051 Y10.7230
G01 X30.0101 Y10.7342
G01 X30.0145 Y10.7456
G01 X30.0409 Y10.8195
G01 X30.0448 Y10.8312
G01 X30.0481 Y10.8430
G01 X30.0671 Y10.9192
G01 X30.0698 Y10.9312
G01 X30.0719 Y10.9432
G01 X30.0834 Y11.0209
G01 X30.0849 Y11.0331
G01 X30.0858 Y11.0453
G01 X30.0897 Y11.1237
G01 X30.0900 Y11.1360
G01 X30.0897 Y11.1483
G01 X30.0858 Y11.2267
G01 X30.0849 Y11.2389
G01 X30.0834 Y11.2511
G01 X30.0719 Y11.3288
G01 X30.0698 Y11.3408
G01 X30.0671 Y11.3528
G01 X30.0481 Y11.4290
G01 X30.0440 Y11.4432
G01 X34.2166 Y15.6158
G01 X34.2751 Y15.6158
G01 X34.3168 Y15.5596
G01 X34.3243 Y15.5499
G01 X34.3324 Y15.5406
G01 X34.3851 Y15.4824
G01 X34.3935 Y15.4735
G01 X34.4024 Y15.4651
G01 X34.4606 Y15.4124
G01 X34.4699 Y15.4043
G01 X34.4796 Y15.3968
G01 X34.5426 Y15.3500
G01 X34.5527 Y15.3430
G01 X34.5630 Y15.3364
G01 X34.6304 Y15.2960
G01 X34.6410 Y15.2900
G01 X34.6520 Y15.2845
G01 X34.7230 Y15.2509
G01 X34.7342 Y15.2459
G01 X34.7456 Y15.2415
G01 X34.8195 Y15.2151
G01 X34.8312 Y15.2112
G01 X34.8430 Y15.2079
G01 X34.9192 Y15.1889
G01 X34.9312 Y15.1862
G01 X34.9432 Y15.1841
G01 X35.0209 Y15.1726
G01 X35.0331 Y15.1711
G01 X35.0453 Y15.1702
G01 X35.1237 Y15.1663
G01 X35.1360 Y15.1660
G01 X35.1483 Y15.1663
G01 X35.2267 Y15.1702
G01 X35.2389 Y15.1711
G01 X35.2511 Y15.1726
G01 X35.3288 Y15.1841
G01 X35.3408 Y15.1862
G01 X35.3528 Y15.1889
G01 X35.4290 Y15.2079
G01 X35.4408 Y15.2112
G01 X35.4525 Y15.2151
G01 X35.5264 Y15.2415
G01 X35.5378 Y15.2459
G01 X35.5490 Y15.2509
G01 X35.6200 Y15.2845
G01 X35.6310 Y15.2900
G01 X35.6416 Y15.2960
G01 X35.7090 Y15.3364
G01 X35.7193 Y15.3430
G01 X35.7294 Y15.3500
G01 X35.7924 Y15.3968
G01 X35.8021 Y15.4043
G01 X35.8114 Y15.4124
G01 X35.8741 Y15.4693
G01 X35.8869 Y15.4824
G01 X35.9396 Y15.5406
G01 X35.9477 Y15.5499
G01 X35.9552 Y15.5596
G01 X36.0020 Y15.6226
G01 X36.0090 Y15.6327
G01 X36.0156 Y15.6430
G01 X36.0560 Y15.7104
G01 X36.0620 Y15.7210
G01 X36.0675 Y15.7320
G01 X36.1011 Y15.8030
G01 X36.1061 Y15.8142
G01 X36.1105 Y15.8256
G01 X36.1369 Y15.8995
G01 X36.1408 Y15.9112
G01 X36.1441 Y15.9230
G01 X36.1631 Y15.9992
G01 X36.1658 Y16.0112
G01 X36.1679 Y16.0232
G01 X36.1794 Y16.1009
G01 X36.1809 Y16.1131
G01 X36.1818 Y16.1253
G01 X36.1857 Y16.2037
G01 X36.1860 Y16.2160
G01 X36.1857 Y16.2283
G01 X36.1818 Y16.3067
G01 X36.1809 Y16.3189
G01 X36.1794 Y16.3311
G01 X36.1679 Y16.4088
G01 X36.1658 Y16.4208
G01 X36.1631 Y16.4328
G01 X36.1441 Y16.5090
G01 X36.1408 Y16.5208
G01 X36.1369 Y16.5325
G01 X36.1105 Y16.6064
G01 X36.1061 Y16.6178
G01 X36.1011 Y16.6290
G01 X36.0675 Y16.7000
G01 X36.0620 Y16.7110
G01 X36.0560 Y16.7216
G01 X36.0156 Y16.7890
G01 X36.0090 Y16.7993
G01 X36.0020 Y16.8094
G01 X35.9552 Y16.8724
