(G-CODE GENERATED BY FLATCAM v8.994 - www.flatcam.org - Version Date: 2020/11/7)

(Name: placaCub-PTH.drl_edit_cnc)
(Type: G-code from Geometry)
(Units: MM)

(Created on Thursday, 07 April 2022 at 10:40)

(This preprocessor is the default preprocessor used by FlatCAM.)
(It is made to work with MACH3 compatible motion controllers.)


(TOOLS DIAMETER: )
(Tool: 1 -> Dia: 1.0)

(FEEDRATE Z: )
(Tool: 1 -> Feedrate: 120.0)

(FEEDRATE RAPIDS: )
(Tool: 1 -> Feedrate Rapids: 1500)

(Z_CUT: )
(Tool: 1 -> Z_Cut: -1.8)

(Tools Offset: )
(Tool: 1 -> Offset Z: 0.0)

(Z_MOVE: )
(Tool: 1 -> Z_Move: 5.0)

(Z Toolchange: 45.0 mm)
(X,Y Toolchange: 0.0000, 0.0000 mm)
(Z Start: None mm)
(Z End: 45.0 mm)
(X,Y End: None mm)
(Steps per circle: 64)
(Preprocessor Excellon: default)

(X range:    7.7120 ...  226.5399  mm)
(Y range:    7.0800 ...  163.5280  mm)

(Spindle Speed: 24000 RPM)
G21
G90
G94

G01 F120.00

M5
G00 Z45.0000
T1
G00 X0.0000 Y0.0000                
M6
(MSG, Change to Tool Dia = 1.0000 ||| Total drills for tool T1 = 494)
M0
G00 Z45.0000

G01 F120.00
M03 S24000
G00 X18.8800 Y150.3280
G01 Z-1.8000
G01 Z0
G00 Z5.0000
G00 X11.7680 Y155.9160
G01 Z-1.8000
G01 Z0
G00 Z5.0000
G00 X9.2280 Y155.9160
G01 Z-1.8000
G01 Z0
G00 Z5.0000
G00 X9.2280 Y150.3280
G01 Z-1.8000
G01 Z0
G00 Z5.0000
G00 X11.7680 Y150.3280
G01 Z-1.8000
G01 Z0
G00 Z5.0000
G00 X8.2120 Y137.1200
G01 Z-1.8000
G01 Z0
G00 Z5.0000
G00 X8.2120 Y132.1187
G01 Z-1.8000
G01 Z0
G00 Z5.0000
G00 X19.3880 Y131.0240
G01 Z-1.8000
G01 Z0
G00 Z5.0000
G00 X18.8800 Y123.9120
G01 Z-1.8000
G01 Z0
G00 Z5.0000
G00 X9.7360 Y120.3560
G01 Z-1.8000
G01 Z0
G00 Z5.0000
G00 X9.7360 Y117.8160
G01 Z-1.8000
G01 Z0
G00 Z5.0000
G00 X9.7360 Y115.2760
G01 Z-1.8000
G01 Z0
G00 Z5.0000
G00 X9.7360 Y112.7360
G01 Z-1.8000
G01 Z0
G00 Z5.0000
G00 X9.7360 Y110.1960
G01 Z-1.8000
G01 Z0
G00 Z5.0000
G00 X9.7360 Y107.6560
G01 Z-1.8000
G01 Z0
G00 Z5.0000
G00 X9.7360 Y105.1160
G01 Z-1.8000
G01 Z0
G00 Z5.0000
G00 X9.7360 Y102.5760
G01 Z-1.8000
G01 Z0
G00 Z5.0000
G00 X9.7360 Y89.8760
G01 Z-1.8000
G01 Z0
G00 Z5.0000
G00 X9.7360 Y87.3360
G01 Z-1.8000
G01 Z0
G00 Z5.0000
G00 X9.7360 Y84.7960
G01 Z-1.8000
G01 Z0
G00 Z5.0000
G00 X9.7360 Y82.2560
G01 Z-1.8000
G01 Z0
G00 Z5.0000
G00 X9.7360 Y79.7160
G01 Z-1.8000
G01 Z0
G00 Z5.0000
G00 X9.7360 Y77.1760
G01 Z-1.8000
G01 Z0
G00 Z5.0000
G00 X9.7360 Y74.6360
G01 Z-1.8000
G01 Z0
G00 Z5.0000
G00 X9.7360 Y72.0960
G01 Z-1.8000
G01 Z0
G00 Z5.0000
G00 X9.7360 Y59.3960
G01 Z-1.8000
G01 Z0
G00 Z5.0000
G00 X9.7360 Y56.8560
G01 Z-1.8000
G01 Z0
G00 Z5.0000
G00 X9.7360 Y54.3160
G01 Z-1.8000
G01 Z0
G00 Z5.0000
G00 X9.7360 Y51.7760
G01 Z-1.8000
G01 Z0
G00 Z5.0000
G00 X9.7360 Y49.2360
G01 Z-1.8000
G01 Z0
G00 Z5.0000
G00 X9.7360 Y46.6960
G01 Z-1.8000
G01 Z0
G00 Z5.0000
G00 X9.7360 Y44.1560
G01 Z-1.8000
G01 Z0
G00 Z5.0000
G00 X9.7360 Y41.6160
G01 Z-1.8000
G01 Z0
G00 Z5.0000
G00 X10.4345 Y28.9160
G01 Z-1.8000
G01 Z0
G00 Z5.0000
G00 X10.4345 Y26.3760
G01 Z-1.8000
G01 Z0
G00 Z5.0000
G00 X10.4345 Y23.8360
G01 Z-1.8000
G01 Z0
G00 Z5.0000
G00 X10.4345 Y21.2960
G01 Z-1.8000
G01 Z0
G00 Z5.0000
G00 X10.4345 Y18.7560
G01 Z-1.8000
G01 Z0
G00 Z5.0000
G00 X10.4345 Y16.2160
G01 Z-1.8000
G01 Z0
G00 Z5.0000
G00 X10.4345 Y13.6760
G01 Z-1.8000
G01 Z0
G00 Z5.0000
G00 X10.4345 Y11.1360
G01 Z-1.8000
G01 Z0
G00 Z5.0000
G00 X18.8800 Y7.5800
G01 Z-1.8000
G01 Z0
G00 Z5.0000
G00 X18.8800 Y11.1360
G01 Z-1.8000
G01 Z0
G00 Z5.0000
G00 X18.8800 Y14.6920
G01 Z-1.8000
G01 Z0
G00 Z5.0000
G00 X18.8800 Y18.2480
G01 Z-1.8000
G01 Z0
G00 Z5.0000
G00 X18.8800 Y21.8040
G01 Z-1.8000
G01 Z0
G00 Z5.0000
G00 X18.8800 Y25.3600
G01 Z-1.8000
G01 Z0
G00 Z5.0000
G00 X18.8800 Y28.9160
G01 Z-1.8000
G01 Z0
G00 Z5.0000
G00 X18.8800 Y32.4720
G01 Z-1.8000
G01 Z0
G00 Z5.0000
G00 X18.8800 Y38.1235
G01 Z-1.8000
G01 Z0
G00 Z5.0000
G00 X18.8800 Y41.6160
G01 Z-1.8000
G01 Z0
G00 Z5.0000
G00 X18.8800 Y45.1720
G01 Z-1.8000
G01 Z0
G00 Z5.0000
G00 X18.8800 Y48.7280
G01 Z-1.8000
G01 Z0
G00 Z5.0000
G00 X18.8800 Y52.2840
G01 Z-1.8000
G01 Z0
G00 Z5.0000
G00 X18.8800 Y55.8400
G01 Z-1.8000
G01 Z0
G00 Z5.0000
G00 X18.8800 Y59.3960
G01 Z-1.8000
G01 Z0
G00 Z5.0000
G00 X18.8800 Y62.9520
G01 Z-1.8000
G01 Z0
G00 Z5.0000
G00 X18.8800 Y68.5400
G01 Z-1.8000
G01 Z0
G00 Z5.0000
G00 X18.8800 Y72.0960
G01 Z-1.8000
G01 Z0
G00 Z5.0000
G00 X18.8800 Y75.6520
G01 Z-1.8000
G01 Z0
G00 Z5.0000
G00 X18.8800 Y79.2080
G01 Z-1.8000
G01 Z0
G00 Z5.0000
G00 X18.8800 Y82.7640
G01 Z-1.8000
G01 Z0
G00 Z5.0000
G00 X18.8800 Y86.3200
G01 Z-1.8000
G01 Z0
G00 Z5.0000
G00 X18.8800 Y89.8760
G01 Z-1.8000
G01 Z0
G00 Z5.0000
G00 X18.8800 Y93.4320
G01 Z-1.8000
G01 Z0
G00 Z5.0000
G00 X18.8800 Y99.0200
G01 Z-1.8000
G01 Z0
G00 Z5.0000
G00 X18.8800 Y102.5760
G01 Z-1.8000
G01 Z0
G00 Z5.0000
G00 X18.8800 Y106.1320
G01 Z-1.8000
G01 Z0
G00 Z5.0000
G00 X18.8800 Y109.6880
G01 Z-1.8000
G01 Z0
G00 Z5.0000
G00 X18.8800 Y113.2440
G01 Z-1.8000
G01 Z0
G00 Z5.0000
G00 X18.8800 Y116.8000
G01 Z-1.8000
G01 Z0
G00 Z5.0000
G00 X18.8800 Y120.3560
G01 Z-1.8000
G01 Z0
G00 Z5.0000
G00 X29.0400 Y123.9120
G01 Z-1.8000
G01 Z0
G00 Z5.0000
G00 X29.0400 Y120.3560
G01 Z-1.8000
G01 Z0
G00 Z5.0000
G00 X29.0400 Y116.8000
G01 Z-1.8000
G01 Z0
G00 Z5.0000
G00 X29.0400 Y113.2440
G01 Z-1.8000
G01 Z0
G00 Z5.0000
G00 X29.0400 Y109.6880
G01 Z-1.8000
G01 Z0
G00 Z5.0000
G00 X29.0400 Y106.1320
G01 Z-1.8000
G01 Z0
G00 Z5.0000
G00 X29.0400 Y102.5760
G01 Z-1.8000
G01 Z0
G00 Z5.0000
G00 X29.0400 Y99.0200
G01 Z-1.8000
G01 Z0
G00 Z5.0000
G00 X29.0400 Y93.4320
G01 Z-1.8000
G01 Z0
G00 Z5.0000
G00 X29.0400 Y89.8760
G01 Z-1.8000
G01 Z0
G00 Z5.0000
G00 X29.0400 Y86.3200
G01 Z-1.8000
G01 Z0
G00 Z5.0000
G00 X29.0400 Y82.7640
G01 Z-1.8000
G01 Z0
G00 Z5.0000
G00 X29.0400 Y79.2080
G01 Z-1.8000
G01 Z0
G00 Z5.0000
G00 X29.0400 Y75.6520
G01 Z-1.8000
G01 Z0
G00 Z5.0000
G00 X29.0400 Y72.0960
G01 Z-1.8000
G01 Z0
G00 Z5.0000
G00 X29.0400 Y68.5400
G01 Z-1.8000
G01 Z0
G00 Z5.0000
G00 X29.0400 Y62.9520
G01 Z-1.8000
G01 Z0
G00 Z5.0000
G00 X29.0400 Y59.3960
G01 Z-1.8000
G01 Z0
G00 Z5.0000
G00 X29.0400 Y55.8400
G01 Z-1.8000
G01 Z0
G00 Z5.0000
G00 X29.0400 Y52.2840
G01 Z-1.8000
G01 Z0
G00 Z5.0000
G00 X29.0400 Y48.7280
G01 Z-1.8000
G01 Z0
G00 Z5.0000
G00 X29.0400 Y45.1720
G01 Z-1.8000
G01 Z0
G00 Z5.0000
G00 X29.0400 Y41.6160
G01 Z-1.8000
G01 Z0
G00 Z5.0000
G00 X29.0400 Y38.1235
G01 Z-1.8000
G01 Z0
G00 Z5.0000
G00 X29.0400 Y32.4720
G01 Z-1.8000
G01 Z0
G00 Z5.0000
G00 X29.0400 Y28.9160
G01 Z-1.8000
G01 Z0
G00 Z5.0000
G00 X29.0400 Y25.3600
G01 Z-1.8000
G01 Z0
G00 Z5.0000
G00 X29.0400 Y21.8040
G01 Z-1.8000
G01 Z0
G00 Z5.0000
G00 X29.0400 Y18.2480
G01 Z-1.8000
G01 Z0
G00 Z5.0000
G00 X29.0400 Y14.6920
G01 Z-1.8000
G01 Z0
G00 Z5.0000
G00 X29.0400 Y11.1360
G01 Z-1.8000
G01 Z0
G00 Z5.0000
G00 X29.0400 Y7.5800
G01 Z-1.8000
G01 Z0
G00 Z5.0000
G00 X35.1360 Y11.1360
G01 Z-1.8000
G01 Z0
G00 Z5.0000
G00 X35.1360 Y13.6760
G01 Z-1.8000
G01 Z0
G00 Z5.0000
G00 X35.1360 Y16.2160
G01 Z-1.8000
G01 Z0
G00 Z5.0000
G00 X35.1360 Y18.7560
G01 Z-1.8000
G01 Z0
G00 Z5.0000
G00 X35.1360 Y21.2960
G01 Z-1.8000
G01 Z0
G00 Z5.0000
G00 X35.1360 Y23.8360
G01 Z-1.8000
G01 Z0
G00 Z5.0000
G00 X35.1360 Y26.3760
G01 Z-1.8000
G01 Z0
G00 Z5.0000
G00 X35.1360 Y28.9160
G01 Z-1.8000
G01 Z0
G00 Z5.0000
G00 X42.7560 Y18.7560
G01 Z-1.8000
G01 Z0
G00 Z5.0000
G00 X42.7560 Y16.2160
G01 Z-1.8000
G01 Z0
G00 Z5.0000
G00 X42.7560 Y13.6760
G01 Z-1.8000
G01 Z0
G00 Z5.0000
G00 X42.7560 Y11.1360
G01 Z-1.8000
G01 Z0
G00 Z5.0000
G00 X47.8360 Y18.7560
G01 Z-1.8000
G01 Z0
G00 Z5.0000
G00 X42.7560 Y21.2960
G01 Z-1.8000
G01 Z0
G00 Z5.0000
G00 X42.7560 Y23.8360
G01 Z-1.8000
G01 Z0
G00 Z5.0000
G00 X42.7560 Y26.3760
G01 Z-1.8000
G01 Z0
G00 Z5.0000
G00 X42.7560 Y28.9160
G01 Z-1.8000
G01 Z0
G00 Z5.0000
G00 X45.8040 Y37.0440
G01 Z-1.8000
G01 Z0
G00 Z5.0000
G00 X47.8360 Y41.6160
G01 Z-1.8000
G01 Z0
G00 Z5.0000
G00 X42.7560 Y44.1560
G01 Z-1.8000
G01 Z0
G00 Z5.0000
G00 X42.7560 Y41.6160
G01 Z-1.8000
G01 Z0
G00 Z5.0000
G00 X37.6760 Y37.0440
G01 Z-1.8000
G01 Z0
G00 Z5.0000
G00 X35.1360 Y41.6160
G01 Z-1.8000
G01 Z0
G00 Z5.0000
G00 X35.1360 Y44.1560
G01 Z-1.8000
G01 Z0
G00 Z5.0000
G00 X35.1360 Y46.6960
G01 Z-1.8000
G01 Z0
G00 Z5.0000
G00 X35.1360 Y49.2360
G01 Z-1.8000
G01 Z0
G00 Z5.0000
G00 X35.1360 Y51.7760
G01 Z-1.8000
G01 Z0
G00 Z5.0000
G00 X35.1360 Y54.3160
G01 Z-1.8000
G01 Z0
G00 Z5.0000
G00 X35.1360 Y56.8560
G01 Z-1.8000
G01 Z0
G00 Z5.0000
G00 X35.1360 Y59.3960
G01 Z-1.8000
G01 Z0
G00 Z5.0000
G00 X42.7560 Y59.3960
G01 Z-1.8000
G01 Z0
G00 Z5.0000
G00 X42.7560 Y56.8560
G01 Z-1.8000
G01 Z0
G00 Z5.0000
G00 X42.7560 Y54.3160
G01 Z-1.8000
G01 Z0
G00 Z5.0000
G00 X42.7560 Y51.7760
G01 Z-1.8000
G01 Z0
G00 Z5.0000
G00 X42.7560 Y49.2360
G01 Z-1.8000
G01 Z0
G00 Z5.0000
G00 X42.7560 Y46.6960
G01 Z-1.8000
G01 Z0
G00 Z5.0000
G00 X48.3440 Y49.2360
G01 Z-1.8000
G01 Z0
G00 Z5.0000
G00 X53.9320 Y49.2360
G01 Z-1.8000
G01 Z0
G00 Z5.0000
G00 X53.9320 Y54.8240
G01 Z-1.8000
G01 Z0
G00 Z5.0000
G00 X53.9320 Y61.4280
G01 Z-1.8000
G01 Z0
G00 Z5.0000
G00 X45.8040 Y67.5240
G01 Z-1.8000
G01 Z0
G00 Z5.0000
G00 X42.7560 Y72.0960
G01 Z-1.8000
G01 Z0
G00 Z5.0000
G00 X37.6760 Y67.5240
G01 Z-1.8000
G01 Z0
G00 Z5.0000
G00 X35.1360 Y72.0960
G01 Z-1.8000
G01 Z0
G00 Z5.0000
G00 X35.1360 Y74.6360
G01 Z-1.8000
G01 Z0
G00 Z5.0000
G00 X35.1360 Y77.1760
G01 Z-1.8000
G01 Z0
G00 Z5.0000
G00 X35.1360 Y79.7160
G01 Z-1.8000
G01 Z0
G00 Z5.0000
G00 X35.1360 Y82.2560
G01 Z-1.8000
G01 Z0
G00 Z5.0000
G00 X35.1360 Y84.7960
G01 Z-1.8000
G01 Z0
G00 Z5.0000
G00 X35.1360 Y87.3360
G01 Z-1.8000
G01 Z0
G00 Z5.0000
G00 X35.1360 Y89.8760
G01 Z-1.8000
G01 Z0
G00 Z5.0000
G00 X42.7560 Y89.8760
G01 Z-1.8000
G01 Z0
G00 Z5.0000
G00 X42.7560 Y87.3360
G01 Z-1.8000
G01 Z0
G00 Z5.0000
G00 X42.7560 Y84.7960
G01 Z-1.8000
G01 Z0
G00 Z5.0000
G00 X42.7560 Y82.2560
G01 Z-1.8000
G01 Z0
G00 Z5.0000
G00 X42.7560 Y79.7160
G01 Z-1.8000
G01 Z0
G00 Z5.0000
G00 X42.7560 Y77.1760
G01 Z-1.8000
G01 Z0
G00 Z5.0000
G00 X42.7560 Y74.6360
G01 Z-1.8000
G01 Z0
G00 Z5.0000
G00 X48.3440 Y79.7160
G01 Z-1.8000
G01 Z0
G00 Z5.0000
G00 X53.9320 Y79.7160
G01 Z-1.8000
G01 Z0
G00 Z5.0000
G00 X53.9320 Y85.8120
G01 Z-1.8000
G01 Z0
G00 Z5.0000
G00 X53.9320 Y91.9080
G01 Z-1.8000
G01 Z0
G00 Z5.0000
G00 X59.5200 Y93.9400
G01 Z-1.8000
G01 Z0
G00 Z5.0000
G00 X62.5680 Y89.8760
G01 Z-1.8000
G01 Z0
G00 Z5.0000
G00 X62.5680 Y87.3360
G01 Z-1.8000
G01 Z0
G00 Z5.0000
G00 X62.5680 Y84.7960
G01 Z-1.8000
G01 Z0
G00 Z5.0000
G00 X62.5680 Y82.2560
G01 Z-1.8000
G01 Z0
G00 Z5.0000
G00 X62.5680 Y79.7160
G01 Z-1.8000
G01 Z0
G00 Z5.0000
G00 X62.5680 Y77.1760
G01 Z-1.8000
G01 Z0
G00 Z5.0000
G00 X62.5680 Y74.6360
G01 Z-1.8000
G01 Z0
G00 Z5.0000
G00 X62.5680 Y72.0960
G01 Z-1.8000
G01 Z0
G00 Z5.0000
G00 X70.1880 Y72.0960
G01 Z-1.8000
G01 Z0
G00 Z5.0000
G00 X70.1880 Y74.6360
G01 Z-1.8000
G01 Z0
G00 Z5.0000
G00 X70.1880 Y77.1760
G01 Z-1.8000
G01 Z0
G00 Z5.0000
G00 X70.1880 Y79.7160
G01 Z-1.8000
G01 Z0
G00 Z5.0000
G00 X70.1880 Y82.2560
G01 Z-1.8000
G01 Z0
G00 Z5.0000
G00 X70.1880 Y84.7960
G01 Z-1.8000
G01 Z0
G00 Z5.0000
G00 X70.1880 Y87.3360
G01 Z-1.8000
G01 Z0
G00 Z5.0000
G00 X70.1880 Y89.8760
G01 Z-1.8000
G01 Z0
G00 Z5.0000
G00 X68.1560 Y93.9400
G01 Z-1.8000
G01 Z0
G00 Z5.0000
G00 X56.9800 Y101.5600
G01 Z-1.8000
G01 Z0
G00 Z5.0000
G00 X54.4400 Y110.1960
G01 Z-1.8000
G01 Z0
G00 Z5.0000
G00 X47.8360 Y110.1960
G01 Z-1.8000
G01 Z0
G00 Z5.0000
G00 X42.7560 Y112.7360
G01 Z-1.8000
G01 Z0
G00 Z5.0000
G00 X42.7560 Y110.1960
G01 Z-1.8000
G01 Z0
G00 Z5.0000
G00 X42.7560 Y107.6560
G01 Z-1.8000
G01 Z0
G00 Z5.0000
G00 X42.7560 Y105.1160
G01 Z-1.8000
G01 Z0
G00 Z5.0000
G00 X42.7560 Y102.5760
G01 Z-1.8000
G01 Z0
G00 Z5.0000
G00 X47.8360 Y101.5600
G01 Z-1.8000
G01 Z0
G00 Z5.0000
G00 X46.3120 Y98.0040
G01 Z-1.8000
G01 Z0
G00 Z5.0000
G00 X37.6760 Y98.0040
G01 Z-1.8000
G01 Z0
G00 Z5.0000
G00 X35.1360 Y102.5760
G01 Z-1.8000
G01 Z0
G00 Z5.0000
G00 X35.1360 Y105.1160
G01 Z-1.8000
G01 Z0
G00 Z5.0000
G00 X35.1360 Y107.6560
G01 Z-1.8000
G01 Z0
G00 Z5.0000
G00 X35.1360 Y110.1960
G01 Z-1.8000
G01 Z0
G00 Z5.0000
G00 X35.1360 Y112.7360
G01 Z-1.8000
G01 Z0
G00 Z5.0000
G00 X35.1360 Y115.2760
G01 Z-1.8000
G01 Z0
G00 Z5.0000
G00 X35.1360 Y117.8160
G01 Z-1.8000
G01 Z0
G00 Z5.0000
G00 X35.1360 Y120.3560
G01 Z-1.8000
G01 Z0
G00 Z5.0000
G00 X42.7560 Y115.2760
G01 Z-1.8000
G01 Z0
G00 Z5.0000
G00 X42.7560 Y117.8160
G01 Z-1.8000
G01 Z0
G00 Z5.0000
G00 X42.7560 Y120.3560
G01 Z-1.8000
G01 Z0
G00 Z5.0000
G00 X48.3440 Y126.4520
G01 Z-1.8000
G01 Z0
G00 Z5.0000
G00 X57.4880 Y126.5155
G01 Z-1.8000
G01 Z0
G00 Z5.0000
G00 X62.5680 Y120.3560
G01 Z-1.8000
G01 Z0
G00 Z5.0000
G00 X62.5680 Y117.8160
G01 Z-1.8000
G01 Z0
G00 Z5.0000
G00 X62.5680 Y115.2760
G01 Z-1.8000
G01 Z0
G00 Z5.0000
G00 X62.5680 Y112.7360
G01 Z-1.8000
G01 Z0
G00 Z5.0000
G00 X62.5680 Y110.1960
G01 Z-1.8000
G01 Z0
G00 Z5.0000
G00 X62.5680 Y107.6560
G01 Z-1.8000
G01 Z0
G00 Z5.0000
G00 X62.5680 Y105.1160
G01 Z-1.8000
G01 Z0
G00 Z5.0000
G00 X62.5680 Y102.5760
G01 Z-1.8000
G01 Z0
G00 Z5.0000
G00 X70.1880 Y102.5760
G01 Z-1.8000
G01 Z0
G00 Z5.0000
G00 X70.1880 Y105.1160
G01 Z-1.8000
G01 Z0
G00 Z5.0000
G00 X70.1880 Y107.6560
G01 Z-1.8000
G01 Z0
G00 Z5.0000
G00 X70.1880 Y110.1960
G01 Z-1.8000
G01 Z0
G00 Z5.0000
G00 X70.1880 Y112.7360
G01 Z-1.8000
G01 Z0
G00 Z5.0000
G00 X70.1880 Y115.2760
G01 Z-1.8000
G01 Z0
G00 Z5.0000
G00 X70.1880 Y117.8160
G01 Z-1.8000
G01 Z0
G00 Z5.0000
G00 X70.1880 Y120.3560
G01 Z-1.8000
G01 Z0
G00 Z5.0000
G00 X76.2840 Y123.9120
G01 Z-1.8000
G01 Z0
G00 Z5.0000
G00 X76.2840 Y120.3560
G01 Z-1.8000
G01 Z0
G00 Z5.0000
G00 X76.2840 Y116.8000
G01 Z-1.8000
G01 Z0
G00 Z5.0000
G00 X76.2840 Y113.2440
G01 Z-1.8000
G01 Z0
G00 Z5.0000
G00 X76.2840 Y109.6880
G01 Z-1.8000
G01 Z0
G00 Z5.0000
G00 X76.2840 Y106.1320
G01 Z-1.8000
G01 Z0
G00 Z5.0000
G00 X76.2840 Y102.5760
G01 Z-1.8000
G01 Z0
G00 Z5.0000
G00 X76.2840 Y99.0200
G01 Z-1.8000
G01 Z0
G00 Z5.0000
G00 X76.2840 Y93.4320
G01 Z-1.8000
G01 Z0
G00 Z5.0000
G00 X76.2840 Y89.8760
G01 Z-1.8000
G01 Z0
G00 Z5.0000
G00 X76.2840 Y86.3200
G01 Z-1.8000
G01 Z0
G00 Z5.0000
G00 X76.2840 Y82.7640
G01 Z-1.8000
G01 Z0
G00 Z5.0000
G00 X76.2840 Y79.2080
G01 Z-1.8000
G01 Z0
G00 Z5.0000
G00 X76.2840 Y75.6520
G01 Z-1.8000
G01 Z0
G00 Z5.0000
G00 X76.2840 Y72.0960
G01 Z-1.8000
G01 Z0
G00 Z5.0000
G00 X76.2840 Y68.5400
G01 Z-1.8000
G01 Z0
G00 Z5.0000
G00 X76.2840 Y62.9520
G01 Z-1.8000
G01 Z0
G00 Z5.0000
G00 X76.2840 Y59.3960
G01 Z-1.8000
G01 Z0
G00 Z5.0000
G00 X76.2840 Y55.8400
G01 Z-1.8000
G01 Z0
G00 Z5.0000
G00 X76.2840 Y52.2840
G01 Z-1.8000
G01 Z0
G00 Z5.0000
G00 X76.2840 Y48.7280
G01 Z-1.8000
G01 Z0
G00 Z5.0000
G00 X76.2840 Y45.1720
G01 Z-1.8000
G01 Z0
G00 Z5.0000
G00 X76.2840 Y41.6160
G01 Z-1.8000
G01 Z0
G00 Z5.0000
G00 X70.1880 Y41.6160
G01 Z-1.8000
G01 Z0
G00 Z5.0000
G00 X70.1880 Y44.1560
G01 Z-1.8000
G01 Z0
G00 Z5.0000
G00 X70.1880 Y46.6960
G01 Z-1.8000
G01 Z0
G00 Z5.0000
G00 X70.1880 Y49.2360
G01 Z-1.8000
G01 Z0
G00 Z5.0000
G00 X70.1880 Y51.7760
G01 Z-1.8000
G01 Z0
G00 Z5.0000
G00 X70.1880 Y54.3160
G01 Z-1.8000
G01 Z0
G00 Z5.0000
G00 X70.1880 Y56.8560
G01 Z-1.8000
G01 Z0
G00 Z5.0000
G00 X70.1880 Y59.3960
G01 Z-1.8000
G01 Z0
G00 Z5.0000
G00 X62.5680 Y59.3960
G01 Z-1.8000
G01 Z0
G00 Z5.0000
G00 X62.5680 Y56.8560
G01 Z-1.8000
G01 Z0
G00 Z5.0000
G00 X62.5680 Y54.3160
G01 Z-1.8000
G01 Z0
G00 Z5.0000
G00 X62.5680 Y51.7760
G01 Z-1.8000
G01 Z0
G00 Z5.0000
G00 X62.5680 Y49.2360
G01 Z-1.8000
G01 Z0
G00 Z5.0000
G00 X62.5680 Y46.6960
G01 Z-1.8000
G01 Z0
G00 Z5.0000
G00 X62.5680 Y44.1560
G01 Z-1.8000
G01 Z0
G00 Z5.0000
G00 X62.5680 Y41.6160
G01 Z-1.8000
G01 Z0
G00 Z5.0000
G00 X56.9800 Y41.6160
G01 Z-1.8000
G01 Z0
G00 Z5.0000
G00 X60.0280 Y33.4880
G01 Z-1.8000
G01 Z0
G00 Z5.0000
G00 X53.9320 Y30.4400
G01 Z-1.8000
G01 Z0
G00 Z5.0000
G00 X53.9320 Y23.8360
G01 Z-1.8000
G01 Z0
G00 Z5.0000
G00 X53.9320 Y18.7560
G01 Z-1.8000
G01 Z0
G00 Z5.0000
G00 X62.5680 Y11.1360
G01 Z-1.8000
G01 Z0
G00 Z5.0000
G00 X62.5680 Y13.6760
G01 Z-1.8000
G01 Z0
G00 Z5.0000
G00 X62.5680 Y16.2160
G01 Z-1.8000
G01 Z0
G00 Z5.0000
G00 X62.5680 Y18.7560
G01 Z-1.8000
G01 Z0
G00 Z5.0000
G00 X62.5680 Y21.2960
G01 Z-1.8000
G01 Z0
G00 Z5.0000
G00 X62.5680 Y23.8360
G01 Z-1.8000
G01 Z0
G00 Z5.0000
G00 X62.5680 Y26.3760
G01 Z-1.8000
G01 Z0
G00 Z5.0000
G00 X62.5680 Y28.9160
G01 Z-1.8000
G01 Z0
G00 Z5.0000
G00 X67.6480 Y33.4880
G01 Z-1.8000
G01 Z0
G00 Z5.0000
G00 X70.1880 Y28.9160
G01 Z-1.8000
G01 Z0
G00 Z5.0000
G00 X70.1880 Y26.3760
G01 Z-1.8000
G01 Z0
G00 Z5.0000
G00 X70.1880 Y23.8360
G01 Z-1.8000
G01 Z0
G00 Z5.0000
G00 X70.1880 Y21.2960
G01 Z-1.8000
G01 Z0
G00 Z5.0000
G00 X70.1880 Y18.7560
G01 Z-1.8000
G01 Z0
G00 Z5.0000
G00 X70.1880 Y16.2160
G01 Z-1.8000
G01 Z0
G00 Z5.0000
G00 X70.1880 Y13.6760
G01 Z-1.8000
G01 Z0
G00 Z5.0000
G00 X70.1880 Y11.1360
G01 Z-1.8000
G01 Z0
G00 Z5.0000
G00 X76.2840 Y7.5800
G01 Z-1.8000
G01 Z0
G00 Z5.0000
G00 X76.2840 Y11.1360
G01 Z-1.8000
G01 Z0
G00 Z5.0000
G00 X76.2840 Y14.6920
G01 Z-1.8000
G01 Z0
G00 Z5.0000
G00 X76.2840 Y18.2480
G01 Z-1.8000
G01 Z0
G00 Z5.0000
G00 X76.2840 Y21.8040
G01 Z-1.8000
G01 Z0
G00 Z5.0000
G00 X76.2840 Y25.3600
G01 Z-1.8000
G01 Z0
G00 Z5.0000
G00 X76.2840 Y28.9160
G01 Z-1.8000
G01 Z0
G00 Z5.0000
G00 X76.2840 Y32.4720
G01 Z-1.8000
G01 Z0
G00 Z5.0000
G00 X76.2840 Y38.0600
G01 Z-1.8000
G01 Z0
G00 Z5.0000
G00 X86.4440 Y41.6160
G01 Z-1.8000
G01 Z0
G00 Z5.0000
G00 X86.4440 Y45.1720
G01 Z-1.8000
G01 Z0
G00 Z5.0000
G00 X86.4440 Y48.7280
G01 Z-1.8000
G01 Z0
G00 Z5.0000
G00 X86.4440 Y52.2840
G01 Z-1.8000
G01 Z0
G00 Z5.0000
G00 X86.4440 Y55.8400
G01 Z-1.8000
G01 Z0
G00 Z5.0000
G00 X86.4440 Y59.3960
G01 Z-1.8000
G01 Z0
G00 Z5.0000
G00 X86.4440 Y62.9520
G01 Z-1.8000
G01 Z0
G00 Z5.0000
G00 X86.4440 Y68.5400
G01 Z-1.8000
G01 Z0
G00 Z5.0000
G00 X86.4440 Y72.0960
G01 Z-1.8000
G01 Z0
G00 Z5.0000
G00 X86.4440 Y75.6520
G01 Z-1.8000
G01 Z0
G00 Z5.0000
G00 X86.4440 Y79.2080
G01 Z-1.8000
G01 Z0
G00 Z5.0000
G00 X86.4440 Y82.7640
G01 Z-1.8000
G01 Z0
G00 Z5.0000
G00 X86.4440 Y86.3200
G01 Z-1.8000
G01 Z0
G00 Z5.0000
G00 X86.4440 Y89.8760
G01 Z-1.8000
G01 Z0
G00 Z5.0000
G00 X86.4440 Y93.4320
G01 Z-1.8000
G01 Z0
G00 Z5.0000
G00 X86.4440 Y99.0200
G01 Z-1.8000
G01 Z0
G00 Z5.0000
G00 X86.4440 Y102.5760
G01 Z-1.8000
G01 Z0
G00 Z5.0000
G00 X86.4440 Y106.1320
G01 Z-1.8000
G01 Z0
G00 Z5.0000
G00 X86.4440 Y109.6880
G01 Z-1.8000
G01 Z0
G00 Z5.0000
G00 X86.4440 Y113.2440
G01 Z-1.8000
G01 Z0
G00 Z5.0000
G00 X86.4440 Y116.8000
G01 Z-1.8000
G01 Z0
G00 Z5.0000
G00 X86.4440 Y120.3560
G01 Z-1.8000
G01 Z0
G00 Z5.0000
G00 X86.4440 Y123.9120
G01 Z-1.8000
G01 Z0
G00 Z5.0000
G00 X95.0800 Y120.3560
G01 Z-1.8000
G01 Z0
G00 Z5.0000
G00 X95.0800 Y117.8160
G01 Z-1.8000
G01 Z0
G00 Z5.0000
G00 X95.0800 Y115.2760
G01 Z-1.8000
G01 Z0
G00 Z5.0000
G00 X95.0800 Y112.7360
G01 Z-1.8000
G01 Z0
G00 Z5.0000
G00 X95.0800 Y110.1960
G01 Z-1.8000
G01 Z0
G00 Z5.0000
G00 X95.0800 Y107.6560
G01 Z-1.8000
G01 Z0
G00 Z5.0000
G00 X95.0800 Y105.1160
G01 Z-1.8000
G01 Z0
G00 Z5.0000
G00 X95.0800 Y102.5760
G01 Z-1.8000
G01 Z0
G00 Z5.0000
G00 X95.0800 Y89.8760
G01 Z-1.8000
G01 Z0
G00 Z5.0000
G00 X95.0800 Y87.3360
G01 Z-1.8000
G01 Z0
G00 Z5.0000
G00 X95.0800 Y84.7960
G01 Z-1.8000
G01 Z0
G00 Z5.0000
G00 X95.0800 Y82.2560
G01 Z-1.8000
G01 Z0
G00 Z5.0000
G00 X95.0800 Y79.7160
G01 Z-1.8000
G01 Z0
G00 Z5.0000
G00 X95.0800 Y77.1760
G01 Z-1.8000
G01 Z0
G00 Z5.0000
G00 X95.0800 Y74.6360
G01 Z-1.8000
G01 Z0
G00 Z5.0000
G00 X95.0800 Y72.0960
G01 Z-1.8000
G01 Z0
G00 Z5.0000
G00 X95.0800 Y59.3960
G01 Z-1.8000
G01 Z0
G00 Z5.0000
G00 X95.0800 Y56.8560
G01 Z-1.8000
G01 Z0
G00 Z5.0000
G00 X95.0800 Y54.3160
G01 Z-1.8000
G01 Z0
G00 Z5.0000
G00 X95.0800 Y51.7760
G01 Z-1.8000
G01 Z0
G00 Z5.0000
G00 X95.0800 Y49.2360
G01 Z-1.8000
G01 Z0
G00 Z5.0000
G00 X95.0800 Y46.6960
G01 Z-1.8000
G01 Z0
G00 Z5.0000
G00 X95.0800 Y44.1560
G01 Z-1.8000
G01 Z0
G00 Z5.0000
G00 X95.0800 Y41.6160
G01 Z-1.8000
G01 Z0
G00 Z5.0000
G00 X86.4440 Y38.0600
G01 Z-1.8000
G01 Z0
G00 Z5.0000
G00 X86.4440 Y32.4720
G01 Z-1.8000
G01 Z0
G00 Z5.0000
G00 X86.4440 Y28.9160
G01 Z-1.8000
G01 Z0
G00 Z5.0000
G00 X86.4440 Y25.3600
G01 Z-1.8000
G01 Z0
G00 Z5.0000
G00 X86.4440 Y21.8040
G01 Z-1.8000
G01 Z0
G00 Z5.0000
G00 X86.4440 Y18.2480
G01 Z-1.8000
G01 Z0
G00 Z5.0000
G00 X86.4440 Y14.6920
G01 Z-1.8000
G01 Z0
G00 Z5.0000
G00 X86.4440 Y11.1360
G01 Z-1.8000
G01 Z0
G00 Z5.0000
G00 X86.4440 Y7.5800
G01 Z-1.8000
G01 Z0
G00 Z5.0000
G00 X95.0800 Y11.1360
G01 Z-1.8000
G01 Z0
G00 Z5.0000
G00 X95.0800 Y13.6760
G01 Z-1.8000
G01 Z0
G00 Z5.0000
G00 X95.0800 Y16.2160
G01 Z-1.8000
G01 Z0
G00 Z5.0000
G00 X95.0800 Y18.7560
G01 Z-1.8000
G01 Z0
G00 Z5.0000
G00 X95.0800 Y21.2960
G01 Z-1.8000
G01 Z0
G00 Z5.0000
G00 X95.0800 Y23.8360
G01 Z-1.8000
G01 Z0
G00 Z5.0000
G00 X95.0800 Y26.3760
G01 Z-1.8000
G01 Z0
G00 Z5.0000
G00 X95.0800 Y28.9160
G01 Z-1.8000
G01 Z0
G00 Z5.0000
G00 X116.9240 Y20.7880
G01 Z-1.8000
G01 Z0
G00 Z5.0000
G00 X116.9240 Y18.2480
G01 Z-1.8000
G01 Z0
G00 Z5.0000
G00 X116.9240 Y15.7080
G01 Z-1.8000
G01 Z0
G00 Z5.0000
G00 X128.1000 Y18.2480
G01 Z-1.8000
G01 Z0
G00 Z5.0000
G00 X128.1000 Y36.5360
G01 Z-1.8000
G01 Z0
G00 Z5.0000
G00 X116.9240 Y33.9960
G01 Z-1.8000
G01 Z0
G00 Z5.0000
G00 X116.9240 Y36.5360
G01 Z-1.8000
G01 Z0
G00 Z5.0000
G00 X116.9240 Y39.0760
G01 Z-1.8000
G01 Z0
G00 Z5.0000
G00 X116.9240 Y54.8240
G01 Z-1.8000
G01 Z0
G00 Z5.0000
G00 X116.9240 Y57.3640
G01 Z-1.8000
G01 Z0
G00 Z5.0000
G00 X116.9240 Y59.9040
G01 Z-1.8000
G01 Z0
G00 Z5.0000
G00 X128.1000 Y57.3640
G01 Z-1.8000
G01 Z0
G00 Z5.0000
G00 X128.1000 Y77.1760
G01 Z-1.8000
G01 Z0
G00 Z5.0000
G00 X116.9240 Y74.6360
G01 Z-1.8000
G01 Z0
G00 Z5.0000
G00 X116.9240 Y77.1760
G01 Z-1.8000
G01 Z0
G00 Z5.0000
G00 X116.9240 Y79.7160
G01 Z-1.8000
G01 Z0
G00 Z5.0000
G00 X116.9240 Y94.4480
G01 Z-1.8000
G01 Z0
G00 Z5.0000
G00 X116.9240 Y96.9880
G01 Z-1.8000
G01 Z0
G00 Z5.0000
G00 X116.9240 Y99.5280
G01 Z-1.8000
G01 Z0
G00 Z5.0000
G00 X128.1000 Y96.9880
G01 Z-1.8000
G01 Z0
G00 Z5.0000
G00 X128.1000 Y115.7840
G01 Z-1.8000
G01 Z0
G00 Z5.0000
G00 X116.9240 Y113.2440
G01 Z-1.8000
G01 Z0
G00 Z5.0000
G00 X116.9240 Y115.7840
G01 Z-1.8000
G01 Z0
G00 Z5.0000
G00 X116.9240 Y118.3240
G01 Z-1.8000
G01 Z0
G00 Z5.0000
G00 X116.9240 Y132.0400
G01 Z-1.8000
G01 Z0
G00 Z5.0000
G00 X116.9240 Y134.5800
G01 Z-1.8000
G01 Z0
G00 Z5.0000
G00 X116.9240 Y137.1200
G01 Z-1.8000
G01 Z0
G00 Z5.0000
G00 X128.1000 Y134.5800
G01 Z-1.8000
G01 Z0
G00 Z5.0000
G00 X203.7920 Y115.7840
G01 Z-1.8000
G01 Z0
G00 Z5.0000
G00 X203.7920 Y118.3240
G01 Z-1.8000
G01 Z0
G00 Z5.0000
G00 X203.7920 Y120.8640
G01 Z-1.8000
G01 Z0
G00 Z5.0000
G00 X203.7920 Y123.4040
G01 Z-1.8000
G01 Z0
G00 Z5.0000
G00 X203.7920 Y125.9440
G01 Z-1.8000
G01 Z0
G00 Z5.0000
G00 X219.5400 Y128.4840
G01 Z-1.8000
G01 Z0
G00 Z5.0000
G00 X219.5400 Y123.9831
G01 Z-1.8000
G01 Z0
G00 Z5.0000
G00 X219.5400 Y117.3080
G01 Z-1.8000
G01 Z0
G00 Z5.0000
G00 X219.5400 Y112.8071
G01 Z-1.8000
G01 Z0
G00 Z5.0000
G00 X219.5400 Y105.6240
G01 Z-1.8000
G01 Z0
G00 Z5.0000
G00 X219.5400 Y101.1231
G01 Z-1.8000
G01 Z0
G00 Z5.0000
G00 X226.0399 Y101.1231
G01 Z-1.8000
G01 Z0
G00 Z5.0000
G00 X226.0399 Y105.6240
G01 Z-1.8000
G01 Z0
G00 Z5.0000
G00 X226.0399 Y112.8071
G01 Z-1.8000
G01 Z0
G00 Z5.0000
G00 X226.0399 Y117.3080
G01 Z-1.8000
G01 Z0
G00 Z5.0000
G00 X226.0399 Y123.9831
G01 Z-1.8000
G01 Z0
G00 Z5.0000
G00 X226.0399 Y128.4840
G01 Z-1.8000
G01 Z0
G00 Z5.0000
G00 X226.0399 Y134.6511
G01 Z-1.8000
G01 Z0
G00 Z5.0000
G00 X226.0399 Y139.1520
G01 Z-1.8000
G01 Z0
G00 Z5.0000
G00 X219.5400 Y139.1520
G01 Z-1.8000
G01 Z0
G00 Z5.0000
G00 X219.5400 Y134.6511
G01 Z-1.8000
G01 Z0
G00 Z5.0000
G00 X128.1000 Y153.3760
G01 Z-1.8000
G01 Z0
G00 Z5.0000
G00 X116.9240 Y155.9160
G01 Z-1.8000
G01 Z0
G00 Z5.0000
G00 X116.9240 Y153.3760
G01 Z-1.8000
G01 Z0
G00 Z5.0000
G00 X116.9240 Y150.8360
G01 Z-1.8000
G01 Z0
G00 Z5.0000
G00 X100.6680 Y144.2320
G01 Z-1.8000
G01 Z0
G00 Z5.0000
G00 X100.6680 Y146.7720
G01 Z-1.8000
G01 Z0
G00 Z5.0000
G00 X100.6680 Y149.3120
G01 Z-1.8000
G01 Z0
G00 Z5.0000
G00 X100.6680 Y151.8520
G01 Z-1.8000
G01 Z0
G00 Z5.0000
G00 X93.0480 Y151.8520
G01 Z-1.8000
G01 Z0
G00 Z5.0000
G00 X93.0480 Y149.3120
G01 Z-1.8000
G01 Z0
G00 Z5.0000
G00 X93.0480 Y146.7720
G01 Z-1.8000
G01 Z0
G00 Z5.0000
G00 X93.0480 Y144.2320
G01 Z-1.8000
G01 Z0
G00 Z5.0000
G00 X93.0480 Y141.6920
G01 Z-1.8000
G01 Z0
G00 Z5.0000
G00 X93.0480 Y139.1520
G01 Z-1.8000
G01 Z0
G00 Z5.0000
G00 X93.0480 Y136.6120
G01 Z-1.8000
G01 Z0
G00 Z5.0000
G00 X96.6040 Y138.1360
G01 Z-1.8000
G01 Z0
G00 Z5.0000
G00 X100.6680 Y141.6920
G01 Z-1.8000
G01 Z0
G00 Z5.0000
G00 X100.6680 Y139.1520
G01 Z-1.8000
G01 Z0
G00 Z5.0000
G00 X100.6680 Y136.6120
G01 Z-1.8000
G01 Z0
G00 Z5.0000
G00 X100.6680 Y134.0720
G01 Z-1.8000
G01 Z0
G00 Z5.0000
G00 X96.6040 Y130.0080
G01 Z-1.8000
G01 Z0
G00 Z5.0000
G00 X93.0480 Y134.0720
G01 Z-1.8000
G01 Z0
G00 Z5.0000
G00 X85.9360 Y127.9760
G01 Z-1.8000
G01 Z0
G00 Z5.0000
G00 X78.3160 Y127.9760
G01 Z-1.8000
G01 Z0
G00 Z5.0000
G00 X80.9195 Y135.1515
G01 Z-1.8000
G01 Z0
G00 Z5.0000
G00 X78.3795 Y135.1515
G01 Z-1.8000
G01 Z0
G00 Z5.0000
G00 X75.8395 Y135.1515
G01 Z-1.8000
G01 Z0
G00 Z5.0000
G00 X73.2995 Y135.1515
G01 Z-1.8000
G01 Z0
G00 Z5.0000
G00 X70.7595 Y135.1515
G01 Z-1.8000
G01 Z0
G00 Z5.0000
G00 X68.2195 Y135.1515
G01 Z-1.8000
G01 Z0
G00 Z5.0000
G00 X65.6795 Y135.1515
G01 Z-1.8000
G01 Z0
G00 Z5.0000
G00 X63.1395 Y135.1515
G01 Z-1.8000
G01 Z0
G00 Z5.0000
G00 X60.5995 Y135.1515
G01 Z-1.8000
G01 Z0
G00 Z5.0000
G00 X58.0595 Y135.1515
G01 Z-1.8000
G01 Z0
G00 Z5.0000
G00 X55.5195 Y135.1515
G01 Z-1.8000
G01 Z0
G00 Z5.0000
G00 X52.9795 Y135.1515
G01 Z-1.8000
G01 Z0
G00 Z5.0000
G00 X50.4395 Y135.1515
G01 Z-1.8000
G01 Z0
G00 Z5.0000
G00 X47.8995 Y135.1515
G01 Z-1.8000
G01 Z0
G00 Z5.0000
G00 X45.3595 Y135.1515
G01 Z-1.8000
G01 Z0
G00 Z5.0000
G00 X42.8195 Y135.1515
G01 Z-1.8000
G01 Z0
G00 Z5.0000
G00 X40.2795 Y135.1515
G01 Z-1.8000
G01 Z0
G00 Z5.0000
G00 X37.7395 Y135.1515
G01 Z-1.8000
G01 Z0
G00 Z5.0000
G00 X35.1995 Y135.1515
G01 Z-1.8000
G01 Z0
G00 Z5.0000
G00 X32.6595 Y135.1515
G01 Z-1.8000
G01 Z0
G00 Z5.0000
G00 X19.3880 Y136.0253
G01 Z-1.8000
G01 Z0
G00 Z5.0000
G00 X18.8800 Y140.1680
G01 Z-1.8000
G01 Z0
G00 Z5.0000
G00 X23.4520 Y144.2320
G01 Z-1.8000
G01 Z0
G00 Z5.0000
G00 X28.5320 Y144.2320
G01 Z-1.8000
G01 Z0
G00 Z5.0000
G00 X28.5320 Y140.1680
G01 Z-1.8000
G01 Z0
G00 Z5.0000
G00 X40.2160 Y140.1680
G01 Z-1.8000
G01 Z0
G00 Z5.0000
G00 X40.2160 Y144.2320
G01 Z-1.8000
G01 Z0
G00 Z5.0000
G00 X42.8195 Y150.3915
G01 Z-1.8000
G01 Z0
G00 Z5.0000
G00 X45.3595 Y150.3915
G01 Z-1.8000
G01 Z0
G00 Z5.0000
G00 X47.8995 Y150.3915
G01 Z-1.8000
G01 Z0
G00 Z5.0000
G00 X50.4395 Y150.3915
G01 Z-1.8000
G01 Z0
G00 Z5.0000
G00 X52.9795 Y150.3915
G01 Z-1.8000
G01 Z0
G00 Z5.0000
G00 X55.5195 Y150.3915
G01 Z-1.8000
G01 Z0
G00 Z5.0000
G00 X58.0595 Y150.3915
G01 Z-1.8000
G01 Z0
G00 Z5.0000
G00 X60.5995 Y150.3915
G01 Z-1.8000
G01 Z0
G00 Z5.0000
G00 X63.1395 Y150.3915
G01 Z-1.8000
G01 Z0
G00 Z5.0000
G00 X65.6795 Y150.3915
G01 Z-1.8000
G01 Z0
G00 Z5.0000
G00 X68.2195 Y150.3915
G01 Z-1.8000
G01 Z0
G00 Z5.0000
G00 X70.7595 Y150.3915
G01 Z-1.8000
G01 Z0
G00 Z5.0000
G00 X73.2995 Y150.3915
G01 Z-1.8000
G01 Z0
G00 Z5.0000
G00 X75.8395 Y150.3915
G01 Z-1.8000
G01 Z0
G00 Z5.0000
G00 X78.3795 Y150.3915
G01 Z-1.8000
G01 Z0
G00 Z5.0000
G00 X80.9195 Y150.3915
G01 Z-1.8000
G01 Z0
G00 Z5.0000
G00 X80.8560 Y163.0280
G01 Z-1.8000
G01 Z0
G00 Z5.0000
G00 X78.3160 Y163.0280
G01 Z-1.8000
G01 Z0
G00 Z5.0000
G00 X75.7760 Y163.0280
G01 Z-1.8000
G01 Z0
G00 Z5.0000
G00 X73.2360 Y163.0280
G01 Z-1.8000
G01 Z0
G00 Z5.0000
G00 X70.6960 Y163.0280
G01 Z-1.8000
G01 Z0
G00 Z5.0000
G00 X67.1400 Y156.4240
G01 Z-1.8000
G01 Z0
G00 Z5.0000
G00 X63.0760 Y163.0280
G01 Z-1.8000
G01 Z0
G00 Z5.0000
G00 X60.5360 Y163.0280
G01 Z-1.8000
G01 Z0
G00 Z5.0000
G00 X57.9960 Y163.0280
G01 Z-1.8000
G01 Z0
G00 Z5.0000
G00 X55.4560 Y163.0280
G01 Z-1.8000
G01 Z0
G00 Z5.0000
G00 X56.9800 Y156.4240
G01 Z-1.8000
G01 Z0
G00 Z5.0000
G00 X47.3280 Y163.0280
G01 Z-1.8000
G01 Z0
G00 Z5.0000
G00 X44.7880 Y163.0280
G01 Z-1.8000
G01 Z0
G00 Z5.0000
G00 X42.2480 Y163.0280
G01 Z-1.8000
G01 Z0
G00 Z5.0000
G00 X39.7080 Y163.0280
G01 Z-1.8000
G01 Z0
G00 Z5.0000
G00 X40.2795 Y150.3915
G01 Z-1.8000
G01 Z0
G00 Z5.0000
G00 X37.7395 Y150.3915
G01 Z-1.8000
G01 Z0
G00 Z5.0000
G00 X35.1995 Y150.3915
G01 Z-1.8000
G01 Z0
G00 Z5.0000
G00 X32.6595 Y150.3915
G01 Z-1.8000
G01 Z0
G00 Z5.0000
G00 X23.4520 Y154.3920
G01 Z-1.8000
G01 Z0
G00 Z5.0000
M05
G00 Z45.00


